; generated by Slic3r 0.9.2 on 2012-10-05 at 00:55:48

; layer_height = 0.2
; perimeters = 1
; solid_layers = 2
; fill_density = 0
; perimeter_speed = 45
; infill_speed = 70
; travel_speed = 130
; scale = 1
; nozzle_diameter = 0.5
; filament_diameter = 3
; extrusion_multiplier = 1
; single wall width = 0.70mm
; first layer single wall width = 0.60mm

M190 S55 ; wait for bed temperature to be reached
M104 S188 ; set temperature
G28 ; home all axes
M109 S188 ; wait for temperature to be reached
G90 ; use absolute coordinates
G21 ; set units to millimeters
G92 E0
M82 ; use absolute distances for extrusion
G1 Z0.300 F7800.000
G1 X36.632 Y52.337
G1 F1800.000 E1.00000
G1 X49.132 Y39.877 F1350.000 E1.43336
G1 X49.342 Y39.697 E1.44015
G1 X49.802 Y39.367 E1.45406
G1 X50.282 Y39.077 E1.46783
G1 X50.782 Y38.817 E1.48166
G1 X51.832 Y38.427 E1.50917
G1 X52.382 Y38.297 E1.52304
G1 X52.942 Y38.207 E1.53697
G1 X53.222 Y38.177 E1.54388
G1 X53.782 Y38.157 E1.55764
G1 X54.342 Y38.177 E1.57140
G1 X54.902 Y38.247 E1.58526
G1 X55.452 Y38.357 E1.59903
G1 X56.262 Y38.597 E1.61977
G1 X79.752 Y49.347 E2.25408
G1 X80.552 Y49.877 E2.27764
G1 X81.042 Y50.287 E2.29333
G1 X93.732 Y63.017 E2.73468
G1 X94.082 Y63.447 E2.74829
G1 X94.532 Y64.147 E2.76872
G1 X94.782 Y64.637 E2.78223
G1 X95.092 Y65.407 E2.80261
G1 X95.242 Y65.937 E2.81614
G1 X95.362 Y66.477 E2.82972
G1 X95.432 Y67.027 E2.84333
G1 X95.462 Y67.577 E2.85686
G1 X95.462 Y67.857 E2.86373
G1 X95.392 Y68.677 E2.88394
G1 X95.352 Y68.957 E2.89089
G1 X95.232 Y69.497 E2.90447
G1 X95.072 Y70.017 E2.91783
G1 X94.872 Y70.537 E2.93151
G1 X94.502 Y71.277 E2.95182
G1 X94.202 Y71.747 E2.96551
G1 X93.702 Y72.397 E2.98565
G1 X67.782 Y99.747 E3.91087
G1 X67.142 Y100.307 E3.93175
G1 X66.692 Y100.637 E3.94545
G1 X65.962 Y101.067 E3.96626
G1 X65.452 Y101.297 E3.97999
G1 X64.922 Y101.497 E3.99390
G1 X64.382 Y101.647 E4.00766
G1 X63.542 Y101.797 E4.02862
G1 X63.262 Y101.827 E4.03553
G1 X62.702 Y101.847 E4.04929
G1 X53.662 Y101.827 E4.27126
G1 X52.822 Y101.707 E4.29209
G1 X52.272 Y101.577 E4.30597
G1 X52.002 Y101.497 E4.31288
G1 X51.212 Y101.187 E4.33372
G1 X50.962 Y101.067 E4.34053
G1 X50.232 Y100.637 E4.36133
G1 X49.782 Y100.307 E4.37504
G1 X49.142 Y99.747 E4.39592
G1 X41.092 Y91.677 E4.67580
G1 X40.702 Y91.217 E4.69061
G1 X40.352 Y90.727 E4.70539
G1 X40.042 Y90.207 E4.72026
G1 X39.782 Y89.667 E4.73497
G1 X39.572 Y89.107 E4.74966
G1 X39.332 Y88.237 E4.77182
G1 X34.552 Y57.977 E5.52403
G1 X34.532 Y57.417 E5.53779
G1 X34.552 Y56.857 E5.55155
G1 X34.672 Y56.017 E5.57239
G1 X34.802 Y55.467 E5.58626
G1 X34.882 Y55.197 E5.59318
G1 X35.192 Y54.407 E5.61401
G1 X35.312 Y54.157 E5.62082
G1 X35.742 Y53.427 E5.64163
G1 X36.072 Y52.977 E5.65533
G1 X36.572 Y52.404 E5.67400
G1 X37.052 Y52.757 F7800.000
G1 X49.522 Y40.317 F1350.000 E6.10650
G1 X49.942 Y39.987 E6.11961
G1 X50.622 Y39.557 E6.13937
G1 X51.342 Y39.217 E6.15892
G1 X51.852 Y39.037 E6.17220
G1 X52.622 Y38.847 E6.19167
G1 X53.152 Y38.777 E6.20480
G1 X53.682 Y38.747 E6.21783
G1 X54.222 Y38.757 E6.23109
G1 X55.012 Y38.857 E6.25064
G1 X55.532 Y38.977 E6.26375
G1 X56.292 Y39.237 E6.28347
G1 X79.202 Y49.727 E6.90217
G1 X79.712 Y50.017 E6.91657
G1 X80.192 Y50.347 E6.93088
G1 X80.642 Y50.727 E6.94534
G1 X93.132 Y63.227 E7.37922
G1 X93.472 Y63.627 E7.39211
G1 X93.932 Y64.287 E7.41186
G1 X94.302 Y64.997 E7.43152
G1 X94.582 Y65.747 E7.45118
G1 X94.772 Y66.527 E7.47089
G1 X94.842 Y67.057 E7.48402
G1 X94.872 Y67.587 E7.49705
G1 X94.862 Y68.117 E7.51007
G1 X94.802 Y68.647 E7.52317
G1 X94.702 Y69.177 E7.53641
G1 X94.562 Y69.687 E7.54940
G1 X94.472 Y69.947 E7.55615
G1 X94.272 Y70.437 E7.56915
G1 X94.032 Y70.917 E7.58232
G1 X93.752 Y71.367 E7.59534
G1 X93.262 Y72.007 E7.61513
G1 X67.162 Y99.517 E8.54624
G1 X66.752 Y99.867 E8.55948
G1 X66.302 Y100.187 E8.57304
G1 X65.842 Y100.467 E8.58626
G1 X65.102 Y100.807 E8.60626
G1 X64.582 Y100.987 E8.61977
G1 X64.052 Y101.117 E8.63317
G1 X63.522 Y101.207 E8.64637
G1 X63.242 Y101.237 E8.65328
G1 X62.702 Y101.257 E8.66655
G1 X53.682 Y101.237 E8.88803
G1 X53.142 Y101.167 E8.90140
G1 X52.602 Y101.057 E8.91493
G1 X52.342 Y100.987 E8.92154
G1 X51.822 Y100.807 E8.93505
G1 X51.082 Y100.467 E8.95505
G1 X50.622 Y100.187 E8.96827
G1 X50.172 Y99.867 E8.98183
G1 X49.762 Y99.517 E8.99506
G1 X41.522 Y91.277 E9.28120
G1 X41.162 Y90.857 E9.29478
G1 X40.842 Y90.407 E9.30834
G1 X40.562 Y89.927 E9.32198
G1 X40.322 Y89.437 E9.33538
G1 X40.042 Y88.657 E9.35573
G1 X39.912 Y88.117 E9.36936
G1 X35.142 Y57.917 E10.12009
G1 X35.122 Y57.647 E10.12674
G1 X35.132 Y57.107 E10.14000
G1 X35.182 Y56.567 E10.15331
G1 X35.332 Y55.767 E10.17330
G1 X35.402 Y55.507 E10.17991
G1 X35.682 Y54.747 E10.19980
G1 X35.922 Y54.267 E10.21297
G1 X36.352 Y53.577 E10.23294
G1 X36.682 Y53.157 E10.24605
G1 X36.990 Y52.822 E10.25722
G1 F1800.000 E9.25722
G92 E0
G1 X76.200 Y79.638 F7800.000
G1 F1800.000 E1.00000
G1 X64.250 Y67.688 F1350.000 E1.41496
G1 X76.200 Y55.738 E1.82992
G1 X88.150 Y67.688 E2.24489
G1 X84.685 Y71.153 E2.36520
G1 X76.784 Y63.251 E2.63957
G1 X76.306 Y63.251 E2.65131
G1 X75.616 Y63.251 E2.66825
G1 X71.763 Y67.104 E2.80203
G1 X71.763 Y68.272 E2.83070
G1 X79.665 Y76.173 E3.10508
G1 X76.264 Y79.574 E3.22318
G1 X76.370 Y78.974 F7800.000
G1 X64.914 Y67.518 F1200.000 E3.63031
G1 X65.341 Y67.091 E3.64551
G1 X76.797 Y78.547 E4.05264
G1 X77.225 Y78.119 E4.06783
G1 X65.769 Y66.663 E4.47496
G1 X66.196 Y66.236 E4.49016
G1 X77.652 Y77.692 E4.89729
G1 X78.080 Y77.264 E4.91248
G1 X66.624 Y65.808 E5.31961
G1 X67.051 Y65.380 E5.33480
G1 X78.508 Y76.837 E5.74193
G1 X78.935 Y76.409 E5.75713
G1 X67.479 Y64.953 E6.16426
G1 X67.907 Y64.525 E6.17946
G1 X71.344 Y67.963 E6.30162
G1 X71.344 Y67.108 E6.32310
G1 X68.334 Y64.098 E6.43007
G1 X68.762 Y63.670 E6.44526
G1 X71.733 Y66.641 E6.55085
G1 X72.160 Y66.214 E6.56604
G1 X69.189 Y63.243 E6.67163
G1 X69.617 Y62.815 E6.68682
G1 X72.588 Y65.786 E6.79240
G1 X73.015 Y65.358 E6.80760
G1 X70.044 Y62.387 E6.91318
G1 X70.472 Y61.960 E6.92838
G1 X73.443 Y64.931 E7.03396
G1 X73.871 Y64.503 E7.04916
G1 X70.900 Y61.532 E7.15474
G1 X71.327 Y61.104 E7.16994
G1 X74.298 Y64.075 E7.27552
G1 X74.725 Y63.648 E7.29070
G1 X71.754 Y60.677 E7.39629
G1 X72.182 Y60.250 E7.41149
G1 X75.153 Y63.221 E7.51707
G1 X75.620 Y62.832 E7.53234
G1 X72.610 Y59.822 E7.63930
G1 X73.037 Y59.395 E7.65448
G1 X76.475 Y62.832 E7.77664
G1 F1800.000 E6.77664
G92 E0
G1 X73.465 Y58.967 F7800.000
G1 F1800.000 E1.00000
G1 X84.921 Y70.423 F1200.000 E1.40713
G1 X85.349 Y69.995 E1.42233
G1 X73.893 Y58.539 E1.82946
G1 X74.320 Y58.112 E1.84464
G1 X85.776 Y69.568 E2.25177
G1 X86.204 Y69.140 E2.26697
G1 X74.748 Y57.684 E2.67410
G1 X75.175 Y57.256 E2.68931
G1 X86.632 Y68.713 E3.09644
G1 X87.059 Y68.285 E3.11162
G1 X75.603 Y56.829 E3.51875
G1 X76.030 Y56.401 E3.53395
G1 X87.487 Y67.858 E3.94108
G1 F1800.000 E2.94108
G92 E0
G1 X53.800 Y69.371 F7800.000
G1 F1800.000 E1.00000
G1 X50.335 Y65.907 F1350.000 E1.12031
G1 X53.994 Y62.248 E1.24736
G1 X53.994 Y61.080 E1.27604
G1 X50.141 Y57.227 E1.40982
G1 X48.973 Y57.227 E1.43849
G1 X45.315 Y60.886 E1.56554
G1 X41.850 Y57.421 E1.68586
G1 X53.800 Y45.471 E2.10082
G1 X57.265 Y48.936 E2.22113
G1 X53.606 Y52.595 E2.34818
G1 X53.606 Y53.763 E2.37686
G1 X61.507 Y61.664 E2.65123
G1 X53.864 Y69.308 E2.91666
G1 X53.970 Y68.708 F7800.000
G1 X50.999 Y65.737 F1200.000 E3.02224
G1 X51.426 Y65.309 E3.03743
G1 X54.397 Y68.280 E3.14302
G1 X54.825 Y67.853 E3.15821
G1 X51.854 Y64.882 E3.26379
G1 X52.281 Y64.454 E3.27899
G1 X55.252 Y67.425 E3.38457
G1 X55.680 Y66.998 E3.39977
G1 X52.709 Y64.027 E3.50535
G1 X53.137 Y63.599 E3.52054
G1 X56.108 Y66.570 E3.62613
G1 X56.535 Y66.142 E3.64132
G1 X53.564 Y63.171 E3.74690
G1 X53.992 Y62.744 E3.76210
G1 X56.963 Y65.715 E3.86768
G1 X57.390 Y65.287 E3.88288
G1 X54.413 Y62.310 E3.98867
G1 X54.413 Y61.455 E4.01016
G1 X57.818 Y64.860 E4.13114
G1 X58.245 Y64.432 E4.14634
G1 X46.789 Y52.976 E4.55347
G1 X46.362 Y53.404 E4.56867
G1 X49.766 Y56.808 E4.68965
G1 X48.911 Y56.808 E4.71114
G1 X45.934 Y53.831 E4.81693
G1 X45.507 Y54.259 E4.83213
G1 X48.478 Y57.230 E4.93771
G1 X48.050 Y57.657 E4.95290
G1 X45.079 Y54.686 E5.05849
G1 X44.651 Y55.114 E5.07368
G1 X47.622 Y58.085 E5.17927
G1 X47.195 Y58.512 E5.19446
G1 X44.224 Y55.541 E5.30004
G1 X43.796 Y55.969 E5.31524
G1 X46.767 Y58.940 E5.42082
G1 X46.340 Y59.367 E5.43601
G1 X43.369 Y56.396 E5.54160
G1 X42.941 Y56.824 E5.55679
G1 X45.912 Y59.795 E5.66238
G1 X45.485 Y60.223 E5.67757
G1 X42.514 Y57.252 E5.78315
G1 F1800.000 E4.78315
G92 E0
G1 X47.217 Y52.548 F7800.000
G1 F1800.000 E1.00000
G1 X58.673 Y64.005 F1200.000 E1.40713
G1 X59.101 Y63.577 E1.42232
G1 X47.644 Y52.121 E1.82945
G1 X48.072 Y51.693 E1.84465
G1 X59.528 Y63.149 E2.25178
G1 X59.956 Y62.722 E2.26698
G1 X48.500 Y51.266 E2.67411
G1 X48.927 Y50.838 E2.68931
G1 X60.384 Y62.294 E3.09644
G1 X60.811 Y61.867 E3.11162
G1 X49.354 Y50.411 E3.51875
G1 X49.782 Y49.983 E3.53395
G1 X53.187 Y53.387 E3.65493
G1 X53.187 Y52.532 E3.67643
G1 X50.210 Y49.555 E3.78222
G1 X50.637 Y49.128 E3.79740
G1 X53.608 Y52.099 E3.90298
G1 X54.036 Y51.671 E3.91818
G1 X51.065 Y48.700 E4.02377
G1 X51.493 Y48.272 E4.03897
G1 X54.464 Y51.243 E4.14455
G1 X54.891 Y50.816 E4.15973
G1 X51.920 Y47.845 E4.26531
G1 X52.348 Y47.418 E4.28052
G1 X55.319 Y50.388 E4.38610
G1 X55.746 Y49.961 E4.40130
G1 X52.775 Y46.990 E4.50688
G1 X53.203 Y46.563 E4.52206
G1 X56.174 Y49.534 E4.62764
G1 X56.601 Y49.106 E4.64285
G1 X53.630 Y46.135 E4.74843
G1 F1800.000 E3.74843
G92 E0
G1 X62.709 Y94.529 F7800.000
G1 F1800.000 E1.00000
G1 X59.051 Y90.870 F1350.000 E1.12705
G1 X57.883 Y90.870 E1.15572
G1 X54.224 Y94.529 E1.28277
G1 X46.517 Y86.821 E1.55041
G1 X49.981 Y83.356 E1.67072
G1 X53.640 Y87.015 E1.79777
G1 X54.808 Y87.015 E1.82645
G1 X58.661 Y83.163 E1.96023
G1 X58.661 Y81.995 E1.98890
G1 X55.002 Y78.336 E2.11595
G1 X58.467 Y74.871 E2.23627
G1 X66.174 Y82.579 E2.50390
G1 X62.515 Y86.237 E2.63095
G1 X62.515 Y87.405 E2.65963
G1 X66.174 Y91.064 E2.78668
G1 X62.773 Y94.465 E2.90478
G1 X62.912 Y93.832 F7800.000
G1 X55.698 Y86.619 F1200.000 E3.16114
G1 X56.126 Y86.191 E3.17633
G1 X63.340 Y93.405 E3.43269
G1 X63.767 Y92.977 E3.44788
G1 X56.554 Y85.763 E3.70424
G1 X56.981 Y85.336 E3.71944
G1 X64.195 Y92.549 E3.97579
G1 X64.622 Y92.122 E3.99099
G1 X57.409 Y84.908 E4.24735
G1 X57.837 Y84.480 E4.26255
G1 X65.050 Y91.694 E4.51891
G1 X65.477 Y91.267 E4.53409
G1 X58.264 Y84.053 E4.79045
G1 X58.692 Y83.625 E4.80565
G1 X62.096 Y87.030 E4.92664
G1 X62.096 Y86.175 F7800.000
G1 X59.080 Y83.159 F1200.000 E5.03381
G1 X59.080 Y82.304 E5.05529
G1 X62.517 Y85.742 E5.17746
G1 X62.945 Y85.314 E5.19266
G1 X55.732 Y78.100 E5.44902
G1 X56.159 Y77.672 E5.46422
G1 X63.373 Y84.886 E5.72058
G1 X63.800 Y84.459 E5.73576
G1 X56.587 Y77.245 E5.99211
G1 X57.014 Y76.818 E6.00732
G1 X64.228 Y84.031 E6.26368
G1 X64.656 Y83.603 E6.27888
G1 X57.442 Y76.390 E6.53524
G1 X57.869 Y75.963 E6.55041
G1 X65.083 Y83.176 E6.80677
G1 X65.511 Y82.748 E6.82197
G1 X58.297 Y75.535 E7.07833
G1 F1800.000 E6.07833
G92 E0
G1 X49.746 Y84.086 F7800.000
G1 F1800.000 E1.00000
G1 X56.959 Y91.300 F1200.000 E1.25636
G1 X56.532 Y91.727 E1.27155
G1 X49.318 Y84.514 E1.52791
G1 X48.890 Y84.941 E1.54311
G1 X56.104 Y92.155 E1.79946
G1 X55.677 Y92.583 E1.81466
G1 X48.463 Y85.369 E2.07101
G1 X48.035 Y85.796 E2.08621
G1 X55.249 Y93.010 E2.34257
G1 X54.821 Y93.438 E2.35776
G1 X47.608 Y86.224 E2.61412
G1 X47.180 Y86.652 E2.62931
G1 X54.394 Y93.865 E2.88567
G1 F1800.000 E1.88567
G92 E0
G1 X58.675 Y90.451 F7800.000
G1 F1800.000 E1.00000
G1 X55.271 Y87.046 F1200.000 E1.12099
G1 X54.804 Y87.435 E1.13625
G1 X57.820 Y90.451 E1.24343
G1 X57.387 Y90.872 E1.25862
G1 X53.949 Y87.435 E1.38079
M104 S185 ; set temperature
M140 S50 ; set bed temperature
G1 F1800.000 E0.38079
G92 E0
G1 Z0.500 F7800.000
G1 X34.622 Y58.537
G1 F1800.000 E1.00000
G1 X34.552 Y57.977 F2700.000 E1.01049
G1 X34.532 Y57.417 E1.02091
G1 X34.552 Y56.857 E1.03133
G1 X34.672 Y56.017 E1.04710
G1 X34.802 Y55.467 E1.05761
G1 X34.882 Y55.197 E1.06285
G1 X35.192 Y54.407 E1.07862
G1 X35.312 Y54.157 E1.08378
G1 X35.742 Y53.427 E1.09953
G1 X36.072 Y52.977 E1.10991
G1 X36.632 Y52.337 E1.12572
G1 X49.132 Y39.877 E1.45385
G1 X49.342 Y39.697 E1.45899
G1 X49.802 Y39.367 E1.46951
G1 X50.282 Y39.077 E1.47994
G1 X50.782 Y38.817 E1.49042
G1 X51.832 Y38.427 E1.51124
G1 X52.382 Y38.297 E1.52175
G1 X52.942 Y38.207 E1.53229
G1 X53.222 Y38.177 E1.53753
G1 X53.782 Y38.157 E1.54795
G1 X54.342 Y38.177 E1.55836
G1 X54.902 Y38.247 E1.56886
G1 X55.452 Y38.357 E1.57928
G1 X56.262 Y38.597 E1.59499
G1 X79.752 Y49.347 E2.07527
G1 X80.552 Y49.877 E2.09311
G1 X81.042 Y50.287 E2.10498
G1 X93.732 Y63.017 E2.43916
G1 X94.082 Y63.447 E2.44947
G1 X94.532 Y64.147 E2.46494
G1 X94.782 Y64.637 E2.47517
G1 X95.092 Y65.407 E2.49060
G1 X95.242 Y65.937 E2.50084
G1 X95.362 Y66.477 E2.51113
G1 X95.432 Y67.027 E2.52143
G1 X95.462 Y67.577 E2.53167
G1 X95.462 Y67.857 E2.53688
G1 X95.392 Y68.677 E2.55218
G1 X95.352 Y68.957 E2.55744
G1 X95.232 Y69.497 E2.56772
G1 X95.072 Y70.017 E2.57784
G1 X94.872 Y70.537 E2.58820
G1 X94.502 Y71.277 E2.60358
G1 X94.202 Y71.747 E2.61394
G1 X93.702 Y72.397 E2.62919
G1 X67.782 Y99.747 E3.32974
G1 X67.142 Y100.307 E3.34555
G1 X66.692 Y100.637 E3.35593
G1 X65.962 Y101.067 E3.37168
G1 X65.452 Y101.297 E3.38208
G1 X64.922 Y101.497 E3.39261
G1 X64.382 Y101.647 E3.40303
G1 X63.542 Y101.797 E3.41889
G1 X63.262 Y101.827 E3.42413
G1 X62.702 Y101.847 E3.43455
G1 X53.662 Y101.827 E3.60262
G1 X52.822 Y101.707 E3.61839
G1 X52.272 Y101.577 E3.62890
G1 X52.002 Y101.497 E3.63413
G1 X51.212 Y101.187 E3.64991
G1 X50.962 Y101.067 E3.65507
G1 X50.232 Y100.637 E3.67082
G1 X49.782 Y100.307 E3.68119
G1 X49.142 Y99.747 E3.69700
G1 X41.092 Y91.677 E3.90892
G1 X40.702 Y91.217 E3.92013
G1 X40.352 Y90.727 E3.93133
G1 X40.042 Y90.207 E3.94258
G1 X39.782 Y89.667 E3.95372
G1 X39.572 Y89.107 E3.96484
G1 X39.332 Y88.237 E3.98162
G1 X34.639 Y58.641 E4.53874
G1 X35.202 Y58.447 F7800.000
G1 X35.122 Y57.647 F2700.000 E4.55369
G1 X35.132 Y57.107 E4.56373
G1 X35.182 Y56.567 E4.57381
G1 X35.332 Y55.767 E4.58894
G1 X35.402 Y55.507 E4.59395
G1 X35.682 Y54.747 E4.60901
G1 X35.922 Y54.267 E4.61898
G1 X36.352 Y53.577 E4.63410
G1 X36.682 Y53.157 E4.64403
G1 X49.322 Y40.497 E4.97663
G1 X49.732 Y40.147 E4.98665
G1 X49.942 Y39.987 E4.99156
G1 X50.622 Y39.557 E5.00652
G1 X51.342 Y39.217 E5.02132
G1 X51.852 Y39.037 E5.03138
G1 X52.622 Y38.847 E5.04612
G1 X53.152 Y38.777 E5.05606
G1 X53.682 Y38.747 E5.06593
G1 X54.222 Y38.757 E5.07597
G1 X55.012 Y38.857 E5.09078
G1 X55.532 Y38.977 E5.10070
G1 X56.292 Y39.237 E5.11563
G1 X79.202 Y49.727 E5.58409
G1 X79.712 Y50.017 E5.59500
G1 X80.192 Y50.347 E5.60583
G1 X80.642 Y50.727 E5.61678
G1 X93.132 Y63.227 E5.94530
G1 X93.472 Y63.627 E5.95506
G1 X93.932 Y64.287 E5.97002
G1 X94.302 Y64.997 E5.98490
G1 X94.582 Y65.747 E5.99978
G1 X94.772 Y66.527 E6.01471
G1 X94.842 Y67.057 E6.02465
G1 X94.872 Y67.587 E6.03452
G1 X94.862 Y68.117 E6.04437
G1 X94.802 Y68.647 E6.05429
G1 X94.702 Y69.177 E6.06432
G1 X94.562 Y69.687 E6.07415
G1 X94.472 Y69.947 E6.07927
G1 X94.272 Y70.437 E6.08911
G1 X94.032 Y70.917 E6.09908
G1 X93.752 Y71.367 E6.10894
G1 X93.262 Y72.007 E6.12392
G1 X67.162 Y99.517 E6.82893
G1 X66.752 Y99.867 E6.83896
G1 X66.302 Y100.187 E6.84922
G1 X65.842 Y100.467 E6.85923
G1 X65.102 Y100.807 E6.87437
G1 X64.582 Y100.987 E6.88460
G1 X64.052 Y101.117 E6.89475
G1 X63.522 Y101.207 E6.90474
G1 X63.242 Y101.237 E6.90998
G1 X62.702 Y101.257 E6.92003
G1 X53.682 Y101.237 E7.08772
G1 X53.142 Y101.167 E7.09785
G1 X52.602 Y101.057 E7.10809
G1 X52.342 Y100.987 E7.11310
G1 X51.822 Y100.807 E7.12333
G1 X51.082 Y100.467 E7.13847
G1 X50.622 Y100.187 E7.14848
G1 X50.172 Y99.867 E7.15875
G1 X49.762 Y99.517 E7.16877
G1 X41.522 Y91.277 E7.38542
G1 X41.162 Y90.857 E7.39570
G1 X40.842 Y90.407 E7.40597
G1 X40.562 Y89.927 E7.41630
G1 X40.322 Y89.437 E7.42644
G1 X40.042 Y88.657 E7.44185
G1 X39.912 Y88.117 E7.45218
G1 X35.219 Y58.551 E8.00874
G1 F1800.000 E7.00874
G92 E0
G1 X76.200 Y78.820 F7800.000
G1 F1800.000 E1.00000
G1 X69.092 Y71.712 F2700.000 E1.18688
G1 X69.092 Y71.712 E1.18688
G1 X65.068 Y67.688 E1.29269
G1 X76.200 Y56.556 E1.58537
G1 X80.153 Y60.510 E1.68932
