; generated by Slic3r 0.9.2 on 2012-10-05 at 01:20:51

; layer_height = 0.2
; perimeters = 1
; solid_layers = 2
; fill_density = 0
; perimeter_speed = 45
; infill_speed = 70
; travel_speed = 130
; scale = 1
; nozzle_diameter = 0.5
; filament_diameter = 3
; extrusion_multiplier = 1
; single wall width = 0.70mm
; first layer single wall width = 0.60mm

M190 S55 ; wait for bed temperature to be reached
M104 S188 ; set temperature
G28 ; home all axes
M109 S188 ; wait for temperature to be reached
G90 ; use absolute coordinates
G21 ; set units to millimeters
G92 E0
M82 ; use absolute distances for extrusion
G1 Z0.300 F7800.000
G1 X63.817 Y53.657
G1 F1800.000 E1.00000
G1 X64.067 Y53.527 F1350.000 E1.00692
G1 X64.567 Y53.317 E1.02023
G1 X65.087 Y53.137 E1.03375
G1 X65.617 Y53.007 E1.04715
G1 X66.437 Y52.877 E1.06753
G1 X66.987 Y52.847 E1.08106
G1 X67.537 Y52.857 E1.09456
G1 X67.807 Y52.877 E1.10121
G1 X68.627 Y53.007 E1.12160
G1 X68.887 Y53.067 E1.12815
G1 X69.677 Y53.317 E1.14849
G1 X70.427 Y53.657 E1.16871
G1 X70.907 Y53.927 E1.18224
G1 X71.357 Y54.237 E1.19565
G1 X71.997 Y54.757 E1.21590
G1 X80.427 Y63.217 E1.50915
G1 X80.777 Y63.657 E1.52296
G1 X81.087 Y64.127 E1.53678
G1 X81.367 Y64.617 E1.55064
G1 X81.597 Y65.127 E1.56437
G1 X81.797 Y65.657 E1.57828
G1 X81.947 Y66.197 E1.59205
G1 X82.097 Y67.037 E1.61300
G1 X82.127 Y67.317 E1.61991
G1 X82.127 Y76.917 E1.85563
G1 X82.007 Y77.757 E1.87646
G1 X81.877 Y78.307 E1.89034
G1 X81.797 Y78.577 E1.89726
G1 X81.487 Y79.367 E1.91809
G1 X81.367 Y79.617 E1.92490
G1 X80.937 Y80.347 E1.94571
G1 X80.607 Y80.797 E1.95941
G1 X80.047 Y81.437 E1.98029
G1 X76.017 Y85.427 E2.11954
G1 X75.577 Y85.777 E2.13334
G1 X75.107 Y86.087 E2.14716
G1 X74.617 Y86.367 E2.16102
G1 X74.107 Y86.597 E2.17476
G1 X73.577 Y86.797 E2.18867
G1 X73.037 Y86.947 E2.20243
G1 X72.197 Y87.097 E2.22338
G1 X71.917 Y87.127 E2.23030
G1 X71.357 Y87.147 E2.24405
G1 X62.317 Y87.127 E2.46602
G1 X61.477 Y87.007 E2.48686
G1 X60.927 Y86.877 E2.50073
G1 X60.657 Y86.797 E2.50765
G1 X59.867 Y86.487 E2.52849
G1 X59.617 Y86.367 E2.53530
G1 X58.887 Y85.937 E2.55610
G1 X58.437 Y85.607 E2.56980
G1 X57.797 Y85.047 E2.59068
G1 X49.757 Y76.997 E2.87004
G1 X49.237 Y76.357 E2.89029
G1 X48.927 Y75.907 E2.90371
G1 X48.657 Y75.427 E2.91723
G1 X48.317 Y74.677 E2.93745
G1 X48.067 Y73.887 E2.95779
G1 X47.957 Y73.357 E2.97109
G1 X47.877 Y72.807 E2.98473
G1 X47.847 Y72.257 E2.99826
G1 X47.857 Y71.707 E3.01176
G1 X47.877 Y71.437 E3.01841
G1 X48.007 Y70.617 E3.03880
G1 X48.137 Y70.087 E3.05220
G1 X48.417 Y69.317 E3.07231
G1 X48.527 Y69.067 E3.07902
G1 X48.927 Y68.337 E3.09946
G1 X49.227 Y67.887 E3.11274
G1 X49.567 Y67.447 E3.12639
G1 X53.547 Y63.437 E3.26512
G1 X53.547 Y63.427 E3.26536
G1 X58.427 Y58.547 E3.43482
G1 X58.437 Y58.547 E3.43507
G1 X62.447 Y54.567 E3.57379
G1 X62.887 Y54.227 E3.58744
G1 X63.337 Y53.927 E3.60072
G1 X63.738 Y53.700 E3.61204
G1 X63.947 Y54.247 F7800.000
G1 X64.667 Y53.907 F1350.000 E3.63159
G1 X64.907 Y53.817 E3.63788
G1 X65.417 Y53.657 E3.65101
G1 X65.937 Y53.547 E3.66406
G1 X66.457 Y53.467 E3.67697
G1 X66.987 Y53.437 E3.69001
G1 X67.517 Y53.447 E3.70303
G1 X67.787 Y53.467 E3.70967
G1 X68.567 Y53.597 E3.72909
G1 X69.327 Y53.817 E3.74852
G1 X69.827 Y54.017 E3.76174
G1 X70.527 Y54.387 E3.78118
G1 X70.967 Y54.677 E3.79412
G1 X71.387 Y55.007 E3.80723
G1 X79.817 Y63.417 E4.09962
G1 X80.167 Y63.827 E4.11285
G1 X80.487 Y64.277 E4.12641
G1 X80.767 Y64.737 E4.13963
G1 X81.107 Y65.477 E4.15963
G1 X81.287 Y65.997 E4.17314
G1 X81.417 Y66.527 E4.18654
G1 X81.507 Y67.057 E4.19974
G1 X81.537 Y67.337 E4.20665
G1 X81.537 Y76.897 E4.44139
G1 X81.467 Y77.437 E4.45476
G1 X81.357 Y77.977 E4.46829
G1 X81.287 Y78.237 E4.47490
G1 X81.107 Y78.757 E4.48842
G1 X80.767 Y79.497 E4.50841
G1 X80.487 Y79.957 E4.52163
G1 X80.167 Y80.407 E4.53519
G1 X79.817 Y80.817 E4.54843
G1 X75.817 Y84.817 E4.68733
G1 X75.407 Y85.167 E4.70056
G1 X74.957 Y85.487 E4.71412
G1 X74.497 Y85.767 E4.72734
G1 X73.757 Y86.107 E4.74734
G1 X73.237 Y86.287 E4.76085
G1 X72.707 Y86.417 E4.77425
G1 X72.177 Y86.507 E4.78745
G1 X71.897 Y86.537 E4.79437
G1 X71.357 Y86.557 E4.80763
G1 X62.337 Y86.537 E5.02911
G1 X61.797 Y86.467 E5.04248
G1 X61.257 Y86.357 E5.05601
G1 X60.997 Y86.287 E5.06262
G1 X60.477 Y86.107 E5.07614
G1 X59.737 Y85.767 E5.09613
G1 X59.277 Y85.487 E5.10935
G1 X58.827 Y85.167 E5.12291
G1 X58.417 Y84.817 E5.13615
G1 X50.187 Y76.587 E5.42193
G1 X49.837 Y76.177 E5.43517
G1 X49.677 Y75.967 E5.44165
G1 X49.387 Y75.527 E5.45459
G1 X49.017 Y74.827 E5.47403
G1 X48.817 Y74.327 E5.48725
G1 X48.597 Y73.567 E5.50668
G1 X48.467 Y72.787 E5.52610
G1 X48.437 Y72.257 E5.53913
G1 X48.447 Y71.727 E5.55215
G1 X48.467 Y71.457 E5.55880
G1 X48.597 Y70.677 E5.57821
G1 X48.657 Y70.417 E5.58476
G1 X48.817 Y69.907 E5.59789
G1 X48.907 Y69.667 E5.60418
G1 X49.127 Y69.177 E5.61737
G1 X49.247 Y68.947 E5.62374
G1 X49.527 Y68.487 E5.63696
G1 X49.837 Y68.057 E5.64998
G1 X50.177 Y67.657 E5.66287
G1 X62.657 Y55.177 E6.09623
G1 X63.057 Y54.837 E6.10912
G1 X63.487 Y54.527 E6.12214
G1 X63.870 Y54.294 E6.13315
G1 F1800.000 E5.13315
G92 E0
G1 X71.364 Y79.829 F7800.000
G1 F1800.000 E1.00000
G1 X67.705 Y76.170 F1350.000 E1.12705
G1 X66.537 Y76.170 E1.15572
G1 X62.879 Y79.829 E1.28277
G1 X55.171 Y72.121 E1.55041
G1 X58.636 Y68.656 E1.67072
G1 X62.295 Y72.315 E1.79777
G1 X63.463 Y72.315 E1.82645
G1 X67.315 Y68.463 E1.96023
G1 X67.315 Y67.295 E1.98890
G1 X63.656 Y63.636 E2.11595
G1 X67.121 Y60.171 E2.23627
G1 X74.829 Y67.879 E2.50390
G1 X71.170 Y71.537 E2.63095
G1 X71.170 Y72.705 E2.65963
G1 X74.829 Y76.364 E2.78668
G1 X71.428 Y79.765 E2.90478
G1 X71.567 Y79.132 F7800.000
G1 X64.353 Y71.919 F1200.000 E3.16114
G1 X64.781 Y71.491 E3.17633
G1 X71.994 Y78.704 E3.43269
G1 X72.422 Y78.277 E3.44788
G1 X65.208 Y71.063 E3.70423
G1 X65.636 Y70.636 E3.71943
G1 X72.849 Y77.849 E3.97578
G1 X73.277 Y77.422 E3.99098
G1 X66.063 Y70.208 E4.24734
G1 X66.491 Y69.781 E4.26253
G1 X73.705 Y76.994 E4.51889
G1 X74.132 Y76.567 E4.53408
G1 X66.919 Y69.353 E4.79043
G1 X67.346 Y68.926 E4.80563
G1 X70.751 Y72.330 E4.92662
G1 X70.751 Y71.475 F7800.000
G1 X67.735 Y68.459 F1200.000 E5.03379
G1 X67.735 Y67.604 E5.05528
G1 X71.172 Y71.041 E5.17745
G1 X71.600 Y70.614 E5.19264
G1 X64.386 Y63.400 E5.44900
G1 X64.814 Y62.973 E5.46419
G1 X72.027 Y70.186 E5.72055
G1 X72.455 Y69.759 E5.73574
G1 X65.241 Y62.545 E5.99210
G1 X65.669 Y62.118 E6.00729
G1 X72.882 Y69.331 E6.26365
G1 X73.310 Y68.904 E6.27884
G1 X66.097 Y61.690 E6.53520
G1 X66.524 Y61.262 E6.55039
G1 X73.738 Y68.476 E6.80675
G1 X74.165 Y68.048 E6.82194
G1 X66.952 Y60.835 E7.07830
G1 F1800.000 E6.07830
G92 E0
G1 X58.400 Y69.386 F7800.000
G1 F1800.000 E1.00000
G1 X65.614 Y76.600 F1200.000 E1.25636
G1 X65.186 Y77.027 E1.27155
G1 X57.973 Y69.814 E1.52791
G1 X57.545 Y70.241 E1.54310
G1 X64.759 Y77.455 E1.79946
G1 X64.331 Y77.882 E1.81465
G1 X57.118 Y70.669 E2.07100
G1 X56.690 Y71.097 E2.08620
G1 X63.904 Y78.310 E2.34256
G1 X63.476 Y78.738 E2.35775
G1 X56.262 Y71.524 E2.61411
G1 X55.835 Y71.952 E2.62930
G1 X63.048 Y79.165 E2.88565
G1 F1800.000 E1.88565
G92 E0
G1 X67.330 Y75.751 F7800.000
G1 F1800.000 E1.00000
G1 X63.926 Y72.346 F1200.000 E1.12099
G1 X63.459 Y72.735 E1.13625
G1 X66.475 Y75.751 E1.24342
G1 X66.041 Y76.172 E1.25862
G1 X62.604 Y72.735 E1.38078
M104 S185 ; set temperature
M140 S50 ; set bed temperature
G1 F1800.000 E0.38078
G92 E0
G1 Z0.500 F7800.000
G1 X64.317 Y53.417
G1 F1800.000 E1.00000
G1 X65.087 Y53.137 F2700.000 E1.01523
G1 X65.617 Y53.007 E1.02538
G1 X66.437 Y52.877 E1.04081
G1 X66.987 Y52.847 E1.05105
G1 X67.537 Y52.857 E1.06128
G1 X67.807 Y52.877 E1.06631
G1 X68.627 Y53.007 E1.08175
G1 X68.887 Y53.067 E1.08671
G1 X69.677 Y53.317 E1.10212
G1 X70.427 Y53.657 E1.11743
G1 X70.907 Y53.927 E1.12766
G1 X71.357 Y54.237 E1.13782
G1 X71.997 Y54.757 E1.15315
G1 X80.427 Y63.217 E1.37519
G1 X80.777 Y63.657 E1.38565
G1 X81.087 Y64.127 E1.39611
G1 X81.367 Y64.617 E1.40661
G1 X81.597 Y65.127 E1.41701
G1 X81.797 Y65.657 E1.42754
G1 X81.947 Y66.197 E1.43796
G1 X82.097 Y67.037 E1.45382
G1 X82.127 Y67.317 E1.45906
G1 X82.127 Y76.917 E1.63754
G1 X82.007 Y77.757 E1.65331
G1 X81.877 Y78.307 E1.66382
G1 X81.797 Y78.577 E1.66906
G1 X81.487 Y79.367 E1.68483
G1 X81.367 Y79.617 E1.68999
G1 X80.937 Y80.347 E1.70574
G1 X80.607 Y80.797 E1.71612
G1 X80.047 Y81.437 E1.73193
G1 X76.017 Y85.427 E1.83736
G1 X75.577 Y85.777 E1.84781
G1 X75.107 Y86.087 E1.85828
G1 X74.617 Y86.367 E1.86877
G1 X74.107 Y86.597 E1.87917
G1 X73.577 Y86.797 E1.88971
G1 X73.037 Y86.947 E1.90012
G1 X72.197 Y87.097 E1.91599
G1 X71.917 Y87.127 E1.92122
G1 X71.357 Y87.147 E1.93164
G1 X62.317 Y87.127 E2.09971
G1 X61.477 Y87.007 E2.11549
G1 X60.927 Y86.877 E2.12599
G1 X60.657 Y86.797 E2.13123
G1 X59.867 Y86.487 E2.14701
G1 X59.617 Y86.367 E2.15216
G1 X58.887 Y85.937 E2.16791
G1 X58.437 Y85.607 E2.17829
G1 X57.797 Y85.047 E2.19410
G1 X49.757 Y76.997 E2.40562
G1 X49.237 Y76.357 E2.42095
G1 X48.927 Y75.907 E2.43111
G1 X48.657 Y75.427 E2.44135
G1 X48.317 Y74.677 E2.45666
G1 X48.067 Y73.887 E2.47206
G1 X47.957 Y73.357 E2.48213
G1 X47.877 Y72.807 E2.49246
G1 X47.847 Y72.257 E2.50270
G1 X47.857 Y71.707 E2.51293
G1 X47.877 Y71.437 E2.51796
G1 X48.007 Y70.617 E2.53340
G1 X48.137 Y70.087 E2.54354
G1 X48.417 Y69.317 E2.55878
G1 X48.527 Y69.067 E2.56385
G1 X48.927 Y68.337 E2.57933
G1 X49.227 Y67.887 E2.58938
G1 X49.567 Y67.447 E2.59972
G1 X53.547 Y63.437 E2.70476
G1 X53.547 Y63.427 E2.70495
G1 X58.427 Y58.547 E2.83325
G1 X58.437 Y58.547 E2.83344
G1 X62.447 Y54.567 E2.93848
G1 X62.887 Y54.227 E2.94882
G1 X63.337 Y53.927 E2.95887
G1 X64.067 Y53.527 E2.97435
G1 X64.221 Y53.459 E2.97747
G1 X64.417 Y54.017 F7800.000
G1 X64.667 Y53.907 F2700.000 E2.98255
G1 X64.907 Y53.817 E2.98732
G1 X65.417 Y53.657 E2.99725
G1 X65.937 Y53.547 E3.00714
G1 X66.457 Y53.467 E3.01692
G1 X66.987 Y53.437 E3.02679
G1 X67.517 Y53.447 E3.03664
G1 X67.787 Y53.467 E3.04167
G1 X68.567 Y53.597 E3.05638
G1 X69.327 Y53.817 E3.07109
G1 X69.827 Y54.017 E3.08110
G1 X70.527 Y54.387 E3.09582
G1 X70.967 Y54.677 E3.10562
G1 X71.387 Y55.007 E3.11555
G1 X79.817 Y63.417 E3.33693
G1 X80.167 Y63.827 E3.34695
G1 X80.487 Y64.277 E3.35722
G1 X80.767 Y64.737 E3.36723
G1 X81.107 Y65.477 E3.38237
G1 X81.287 Y65.997 E3.39260
G1 X81.417 Y66.527 E3.40274
G1 X81.507 Y67.057 E3.41274
G1 X81.537 Y67.337 E3.41797
G1 X81.537 Y76.897 E3.59571
G1 X81.467 Y77.437 E3.60583
G1 X81.357 Y77.977 E3.61608
G1 X81.287 Y78.237 E3.62108
G1 X81.107 Y78.757 E3.63132
G1 X80.767 Y79.497 E3.64646
G1 X80.487 Y79.957 E3.65647
G1 X80.167 Y80.407 E3.66673
G1 X79.817 Y80.817 E3.67676
G1 X75.817 Y84.817 E3.78193
G1 X75.407 Y85.167 E3.79195
G1 X74.957 Y85.487 E3.80221
G1 X74.497 Y85.767 E3.81222
G1 X73.757 Y86.107 E3.82737
G1 X73.237 Y86.287 E3.83760
G1 X72.707 Y86.417 E3.84774
G1 X72.177 Y86.507 E3.85774
G1 X71.897 Y86.537 E3.86297
G1 X71.357 Y86.557 E3.87302
G1 X62.337 Y86.537 E4.04071
G1 X61.797 Y86.467 E4.05084
G1 X61.257 Y86.357 E4.06108
G1 X60.997 Y86.287 E4.06609
G1 X60.477 Y86.107 E4.07632
G1 X59.737 Y85.767 E4.09146
G1 X59.277 Y85.487 E4.10147
G1 X58.827 Y85.167 E4.11174
G1 X58.417 Y84.817 E4.12176
G1 X50.187 Y76.587 E4.33815
G1 X49.837 Y76.177 E4.34817
G1 X49.677 Y75.967 E4.35308
G1 X49.387 Y75.527 E4.36287
G1 X49.017 Y74.827 E4.37759
G1 X48.817 Y74.327 E4.38761
G1 X48.597 Y73.567 E4.40232
G1 X48.467 Y72.787 E4.41702
G1 X48.437 Y72.257 E4.42689
G1 X48.447 Y71.727 E4.43674
G1 X48.467 Y71.457 E4.44178
G1 X48.597 Y70.677 E4.45648
G1 X48.657 Y70.417 E4.46144
G1 X48.817 Y69.907 E4.47137
G1 X48.907 Y69.667 E4.47614
G1 X49.127 Y69.177 E4.48613
G1 X49.247 Y68.947 E4.49095
G1 X49.527 Y68.487 E4.50096
G1 X49.837 Y68.057 E4.51082
G1 X50.177 Y67.657 E4.52058
G1 X62.657 Y55.177 E4.84871
G1 X63.057 Y54.837 E4.85847
G1 X63.487 Y54.527 E4.86832
G1 X63.947 Y54.247 E4.87833
G1 X64.321 Y54.061 E4.88611
G1 F1800.000 E3.88611
G92 E0
G1 X71.364 Y79.011 F7800.000
G1 F1800.000 E1.00000
G1 X67.901 Y75.548 F2700.000 E1.09105
G1 X67.128 Y75.548 E1.10542
G1 X67.128 Y75.266 E1.11066
G1 X66.771 Y75.118 E1.11784
G1 X62.879 Y79.011 E1.22018
G1 X60.014 Y76.146 E1.29551
G1 X60.014 Y76.146 E1.29551
G1 X55.989 Y72.121 E1.40132
G1 X58.636 Y69.475 E1.47091
G1 X62.529 Y73.367 E1.57325
G1 X62.885 Y73.219 E1.58043
G1 X62.885 Y72.938 E1.58567
G1 X63.658 Y72.938 E1.60004
G1 X67.938 Y68.658 E1.71255
G1 X67.938 Y67.885 E1.72692
G1 X68.219 Y67.885 E1.73216
G1 X68.367 Y67.529 E1.73934
G1 X64.475 Y63.636 E1.84169
G1 X67.121 Y60.989 E1.91127
G1 X71.075 Y64.943 E2.01522
G1 X71.075 Y64.943 E2.01522
G1 X74.011 Y67.879 E2.09241
G1 X70.548 Y71.342 E2.18346
G1 X70.548 Y72.901 E2.21245
G1 X74.011 Y76.364 E2.30350
G1 X71.438 Y78.936 E2.37113
G1 X71.364 Y79.970 F7800.000
G1 X67.620 Y76.226 F1890.000 E2.46958
G1 X66.623 Y76.226 E2.48811
G1 X66.450 Y76.399 E2.49267
G1 X66.450 Y76.399 E2.49267
G1 X62.879 Y79.970 E2.58655
G1 X58.671 Y75.763 E2.69717
G1 X58.671 Y75.763 E2.69717
G1 X55.030 Y72.121 E2.79292
G1 X58.636 Y68.515 E2.88774
G1 X62.207 Y72.086 E2.98163
G1 X62.207 Y72.086 E2.98163
G1 X62.380 Y72.259 E2.98618
G1 X63.377 Y72.259 E3.00472
G1 X67.259 Y68.377 E3.10678
G1 X67.259 Y67.380 E3.12532
G1 X67.086 Y67.207 E3.12987
G1 X67.086 Y67.207 E3.12987
G1 X63.515 Y63.636 E3.22376
G1 X67.121 Y60.030 E3.31858
G1 X70.692 Y63.601 E3.41247
G1 X70.692 Y63.601 E3.41247
G1 X74.970 Y67.879 E3.52494
G1 X71.226 Y71.623 E3.62339
G1 X71.226 Y72.620 E3.64192
G1 X74.970 Y76.364 E3.74037
G1 X71.438 Y79.896 E3.83323
G1 F1800.000 E2.83323
G92 E0
G1 X73.249 Y76.166 F7800.000
G1 F1800.000 E1.00000
G1 X71.166 Y78.249 F2400.000 E1.05531
G1 X70.682 Y77.765 E1.06817
G1 X72.765 Y75.682 E1.12349
G1 X72.280 Y75.197 E1.13635
G1 X70.197 Y77.280 E1.19166
G1 X69.713 Y76.796 E1.20452
G1 X71.796 Y74.713 E1.25984
G1 X71.311 Y74.228 E1.27270
G1 X69.228 Y76.311 E1.32801
G1 X68.744 Y75.827 E1.34087
G1 X70.827 Y73.744 E1.39619
G1 X70.343 Y73.260 E1.40905
G1 X68.260 Y75.343 E1.46436
G1 X67.609 Y75.025 F7800.000
G1 X70.067 Y72.566 F2400.000 E1.52964
G1 X70.067 Y71.597 E1.54783
G1 X66.934 Y74.731 E1.63103
G1 F1800.000 E0.63103
G92 E0
G1 X63.052 Y73.769 F7800.000
G1 F1800.000 E1.00000
G1 X60.626 Y76.194 F2400.000 E1.06441
G1 X61.111 Y76.679 E1.07727
G1 X71.679 Y66.111 E1.35788
G1 X71.194 Y65.626 E1.37074
G1 X68.769 Y68.052 E1.43515
G1 X68.627 Y67.225 F7800.000
G1 X70.710 Y65.142 F2400.000 E1.49046
G1 X70.226 Y64.657 E1.50332
G1 X68.143 Y66.740 E1.55863
G1 X67.658 Y66.256 E1.57149
G1 X69.741 Y64.173 E1.62680
G1 X69.257 Y63.689 E1.63967
G1 X67.174 Y65.772 E1.69498
G1 X66.689 Y65.287 E1.70784
G1 X68.772 Y63.204 E1.76315
G1 X68.288 Y62.720 E1.77601
G1 X66.205 Y64.803 E1.83132
G1 X65.721 Y64.318 E1.84419
G1 X67.804 Y62.235 E1.89950
G1 X67.319 Y61.751 E1.91236
G1 X65.236 Y63.834 E1.96767
G1 F1800.000 E0.96767
G92 E0
G1 X72.163 Y66.595 F7800.000
G1 F1800.000 E1.00000
G1 X61.595 Y77.163 F2400.000 E1.28062
G1 X62.079 Y77.648 E1.29348
G1 X72.648 Y67.079 E1.57409
G1 X73.132 Y67.564 E1.58696
G1 X62.564 Y78.132 E1.86757
G1 F1800.000 E0.86757
G92 E0
G1 X60.142 Y75.710 F7800.000
G1 F1800.000 E1.00000
G1 X62.225 Y73.627 F2400.000 E1.05531
G1 X61.740 Y73.143 E1.06817
G1 X59.657 Y75.226 E1.12348
G1 X59.173 Y74.741 E1.13634
G1 X61.256 Y72.658 E1.19166
G1 X60.772 Y72.174 E1.20452
G1 X58.689 Y74.257 E1.25983
G1 X58.204 Y73.772 E1.27269
G1 X60.287 Y71.689 E1.32800
G1 X59.803 Y71.205 E1.34086
G1 X57.720 Y73.288 E1.39618
G1 X57.235 Y72.804 E1.40904
G1 X59.318 Y70.721 E1.46435
G1 X58.834 Y70.236 E1.47721
G1 X56.751 Y72.319 E1.53252
G1 F1800.000 E0.53252
G92 E0
G1 Z0.700 F7800.000
G1 X71.364 Y79.011
G1 F1800.000 E1.00000
G1 X67.901 Y75.548 F2700.000 E1.09105
G1 X66.987 Y75.548 E1.10805
G1 X66.987 Y75.407 E1.11066
G1 X66.630 Y75.259 E1.11784
G1 X62.879 Y79.011 E1.21646
G1 X55.989 Y72.121 E1.39760
G1 X58.636 Y69.475 E1.46719
G1 X62.099 Y72.938 E1.55824
G1 X63.658 Y72.938 E1.58723
G1 X67.938 Y68.658 E1.69974
G1 X67.938 Y67.744 E1.71674
G1 X68.078 Y67.744 E1.71935
G1 X68.226 Y67.387 E1.72653
G1 X64.475 Y63.636 E1.82516
G1 X67.121 Y60.989 E1.89474
G1 X74.011 Y67.879 E2.07588
G1 X70.548 Y71.342 E2.16693
G1 X70.548 Y72.901 E2.19592
G1 X74.011 Y76.364 E2.28697
G1 X71.438 Y78.936 E2.35461
G1 X71.364 Y79.970 F7800.000
G1 X67.620 Y76.226 F1890.000 E2.45305
