; generated by Slic3r 0.9.2 on 2012-10-04 at 21:22:32

; layer_height = 0.05
; perimeters = 1
; solid_layers = 3
; fill_density = 1
; perimeter_speed = 45
; infill_speed = 70
; travel_speed = 130
; scale = 1
; nozzle_diameter = 0.5
; filament_diameter = 3
; extrusion_multiplier = 1
; single wall width = 0.70mm
; first layer single wall width = 0.60mm

M190 S55 ; wait for bed temperature to be reached
M104 S188 ; set temperature
G28 ; home all axes
M109 S188 ; wait for temperature to be reached
G90 ; use absolute coordinates
G21 ; set units to millimeters
G92 E0
M82 ; use absolute distances for extrusion
G1 Z0.300 F7800.000
G1 X52.103 Y56.943
G1 F1800.000 E1.00000
G1 X59.443 Y49.673 F1350.000 E1.25367
G1 X60.183 Y49.083 E1.27690
G1 X60.723 Y48.743 E1.29257
G1 X62.123 Y48.083 E1.33058
G1 X62.413 Y47.973 E1.33819
G1 X63.003 Y47.793 E1.35334
G1 X63.603 Y47.663 E1.36841
G1 X64.523 Y47.573 E1.39111
G1 X64.833 Y47.563 E1.39873
G1 X66.163 Y47.653 E1.43146
G1 X66.563 Y47.713 E1.44139
G1 X66.583 Y47.713 E1.44188
G1 X66.693 Y47.733 E1.44463
G1 X66.733 Y47.743 E1.44564
G1 X66.933 Y47.783 E1.45065
G1 X66.963 Y47.793 E1.45142
G1 X67.403 Y47.903 E1.46256
G1 X67.383 Y47.903 E1.46305
G1 X67.743 Y48.013 E1.47229
G1 X68.173 Y48.183 E1.48365
G1 X68.203 Y48.193 E1.48442
G1 X68.733 Y48.443 E1.49881
G1 X68.843 Y48.503 E1.50189
G1 X70.023 Y49.273 E1.53648
G1 X70.703 Y49.803 E1.55765
G1 X71.373 Y50.403 E1.57974
G1 X85.223 Y64.343 E2.06224
G1 X85.883 Y65.173 E2.08828
G1 X86.243 Y65.713 E2.10421
G1 X86.553 Y66.273 E2.11993
G1 X86.763 Y66.723 E2.13212
G1 X87.083 Y67.633 E2.15581
G1 X87.233 Y68.163 E2.16933
G1 X87.303 Y68.493 E2.17761
G1 X87.393 Y69.153 E2.19397
G1 X87.423 Y70.203 E2.21976
G1 X87.363 Y71.113 E2.24215
G1 X87.323 Y71.413 E2.24959
G1 X87.113 Y72.293 E2.27180
G1 X86.673 Y73.473 E2.30272
G1 X86.253 Y74.343 E2.32644
G1 X85.903 Y74.893 E2.34245
G1 X85.513 Y75.403 E2.35821
G1 X85.083 Y75.883 E2.37404
G1 X70.593 Y90.223 E2.87460
G1 X70.073 Y90.683 E2.89165
G1 X69.803 Y90.893 E2.90005
G1 X69.223 Y91.273 E2.91707
G1 X68.493 Y91.663 E2.93739
G1 X67.933 Y91.913 E2.95245
G1 X67.043 Y92.183 E2.97529
G1 X66.133 Y92.333 E2.99793
G1 X65.013 Y92.433 E3.02554
G1 X64.423 Y92.423 E3.04003
G1 X63.873 Y92.373 E3.05359
G1 X63.773 Y92.353 E3.05610
G1 X63.663 Y92.343 E3.05881
G1 X63.083 Y92.223 E3.07335
G1 X63.053 Y92.213 E3.07413
G1 X62.783 Y92.143 E3.08098
G1 X62.363 Y92.003 E3.09185
G1 X62.323 Y91.993 E3.09286
G1 X62.153 Y91.923 E3.09737
G1 X60.923 Y91.343 E3.13077
G1 X60.133 Y90.863 E3.15346
G1 X59.653 Y90.493 E3.16834
G1 X59.193 Y90.083 E3.18347
G1 X45.283 Y76.223 E3.66563
G1 X44.303 Y75.073 E3.70272
G1 X43.883 Y74.503 E3.72011
G1 X43.523 Y73.893 E3.73750
G1 X43.293 Y73.433 E3.75013
G1 X42.903 Y72.363 E3.77809
G1 X42.753 Y71.833 E3.79162
G1 X42.683 Y71.503 E3.79990
G1 X42.593 Y70.843 E3.81626
G1 X42.563 Y69.793 E3.84205
G1 X42.623 Y68.853 E3.86518
G1 X42.733 Y68.233 E3.88064
G1 X43.003 Y67.323 E3.90394
G1 X43.493 Y66.143 E3.93532
G1 X43.783 Y65.593 E3.95058
G1 X44.113 Y65.073 E3.96571
G1 X44.493 Y64.573 E3.98113
G1 X47.133 Y61.883 E4.07367
G1 X47.523 Y61.503 E4.08704
G1 X50.343 Y58.683 E4.18496
G1 X50.363 Y58.673 E4.18551
G1 X52.039 Y57.006 E4.24355
G1 X52.513 Y57.363 F7800.000
G1 X59.833 Y50.113 F1350.000 E4.49652
G1 X60.283 Y49.743 E4.51083
G1 X60.763 Y49.413 E4.52513
G1 X61.273 Y49.123 E4.53954
G1 X62.343 Y48.633 E4.56843
G1 X63.153 Y48.363 E4.58940
G1 X63.703 Y48.243 E4.60322
G1 X64.263 Y48.173 E4.61708
G1 X64.833 Y48.153 E4.63108
G1 X65.963 Y48.233 E4.65890
G1 X65.983 Y48.233 E4.65939
G1 X66.213 Y48.253 E4.66506
G1 X66.743 Y48.343 E4.67826
G1 X67.253 Y48.473 E4.69118
G1 X67.463 Y48.543 E4.69661
G1 X67.473 Y48.543 E4.69686
G1 X68.193 Y48.833 E4.71592
G1 X68.303 Y48.893 E4.71900
G1 X68.473 Y48.973 E4.72361
G1 X68.613 Y49.053 E4.72757
G1 X68.653 Y49.073 E4.72867
G1 X69.693 Y49.763 E4.75931
G1 X70.313 Y50.243 E4.77856
G1 X84.313 Y64.213 E5.26419
G1 X85.233 Y65.293 E5.29902
G1 X85.643 Y65.863 E5.31626
G1 X86.003 Y66.483 E5.33387
G1 X86.223 Y66.963 E5.34683
G1 X86.523 Y67.793 E5.36850
G1 X86.723 Y68.593 E5.38875
G1 X86.773 Y68.903 E5.39646
G1 X86.833 Y69.813 E5.41885
G1 X86.803 Y70.833 E5.44391
G1 X86.713 Y71.453 E5.45929
G1 X86.563 Y72.063 E5.47472
G1 X86.363 Y72.653 E5.49001
G1 X86.003 Y73.523 E5.51313
G1 X85.733 Y74.053 E5.52774
G1 X85.423 Y74.553 E5.54218
G1 X85.063 Y75.023 E5.55672
G1 X83.673 Y76.453 E5.60568
G1 X83.573 Y76.543 E5.60899
G1 X82.433 Y77.683 E5.64857
G1 X82.333 Y77.773 E5.65188
G1 X81.193 Y78.913 E5.69146
G1 X81.093 Y79.003 E5.69477
G1 X69.943 Y90.023 E6.07970
G1 X69.453 Y90.423 E6.09523
G1 X68.923 Y90.773 E6.11082
G1 X68.213 Y91.153 E6.13060
G1 X67.623 Y91.393 E6.14623
G1 X67.013 Y91.583 E6.16192
G1 X66.703 Y91.653 E6.16973
G1 X65.663 Y91.783 E6.19546
G1 X65.613 Y91.793 E6.19671
G1 X65.353 Y91.823 E6.20314
G1 X65.303 Y91.823 E6.20437
G1 X65.233 Y91.833 E6.20610
G1 X64.973 Y91.843 E6.21249
G1 X64.453 Y91.833 E6.22526
G1 X64.353 Y91.823 E6.22773
G1 X64.293 Y91.823 E6.22920
G1 X64.223 Y91.813 E6.23094
G1 X64.193 Y91.813 E6.23168
G1 X63.933 Y91.783 E6.23810
G1 X63.923 Y91.783 E6.23835
G1 X63.763 Y91.763 E6.24231
G1 X63.243 Y91.653 E6.25536
G1 X62.733 Y91.503 E6.26841
G1 X62.363 Y91.373 E6.27804
G1 X61.443 Y90.953 E6.30287
G1 X60.603 Y90.473 E6.32663
G1 X60.343 Y90.293 E6.33439
G1 X59.843 Y89.883 E6.35027
G1 X45.703 Y75.803 E6.84023
G1 X44.563 Y74.443 E6.88381
G1 X44.373 Y74.183 E6.89171
G1 X44.043 Y73.623 E6.90767
G1 X43.833 Y73.183 E6.91965
G1 X43.463 Y72.203 E6.94537
G1 X43.263 Y71.403 E6.96561
G1 X43.213 Y71.093 E6.97332
G1 X43.153 Y70.183 E6.99572
G1 X43.163 Y69.503 E7.01242
G1 X43.253 Y68.643 E7.03365
G1 X43.463 Y67.803 E7.05491
G1 X43.553 Y67.523 E7.06213
G1 X44.023 Y66.393 E7.09218
G1 X44.443 Y65.643 E7.11329
G1 X44.943 Y64.953 E7.13421
G1 X47.553 Y62.303 E7.22554
G1 X47.653 Y62.213 E7.22884
G1 X47.953 Y61.913 E7.23926
G1 X48.043 Y61.813 E7.24256
G1 X49.283 Y60.573 E7.28562
G1 X49.383 Y60.483 E7.28892
G1 X49.683 Y60.183 E7.29934
G1 X49.773 Y60.083 E7.30264
G1 X50.023 Y59.833 E7.31133
G1 X50.123 Y59.743 E7.31463
G1 X52.449 Y57.426 E7.39524
G1 F1800.000 E6.39524
G92 E0
G1 X49.994 Y69.233 F7800.000
G1 F1800.000 E1.00000
G1 X64.267 Y55.000 F1350.000 E1.49492
G1 X64.814 Y54.745 E1.50975
G1 X65.376 Y54.794 E1.52361
G1 X65.977 Y55.205 E1.54147
G1 X79.644 Y68.864 E2.01592
G1 X80.118 Y69.449 E2.03441
G1 X80.248 Y69.816 E2.04397
G1 X80.244 Y70.205 E2.05353
G1 X80.006 Y70.767 E2.06851
G1 X65.551 Y85.118 E2.56865
G1 X64.814 Y85.255 E2.58705
G1 X64.271 Y84.994 E2.60185
G1 X50.357 Y71.137 E3.08403
G1 X49.882 Y70.551 E3.10254
G1 X49.752 Y70.184 E3.11210
G1 X49.756 Y69.795 E3.12165
G1 X49.959 Y69.316 E3.13443
M104 S185 ; set temperature
M140 S50 ; set bed temperature
G1 F1800.000 E2.13443
G92 E0
G1 Z0.350 F7800.000
G1 X43.363 Y66.433
G1 F1800.000 E1.00000
G1 X43.633 Y65.863 F2700.000 E1.00308
G1 X44.113 Y65.073 E1.00758
G1 X44.493 Y64.573 E1.01064
G1 X47.133 Y61.883 E1.02902
G1 X47.523 Y61.503 E1.03168
G1 X50.343 Y58.683 E1.05112
G1 X50.363 Y58.673 E1.05123
G1 X59.443 Y49.673 E1.11356
G1 X60.183 Y49.083 E1.11818
G1 X60.723 Y48.743 E1.12129
G1 X62.123 Y48.083 E1.12883
G1 X62.413 Y47.973 E1.13034
G1 X63.003 Y47.793 E1.13335
G1 X63.603 Y47.663 E1.13635
G1 X64.523 Y47.573 E1.14085
G1 X64.833 Y47.563 E1.14236
G1 X66.163 Y47.653 E1.14886
G1 X66.563 Y47.713 E1.15084
G1 X66.583 Y47.713 E1.15093
G1 X66.693 Y47.733 E1.15148
G1 X66.733 Y47.743 E1.15168
G1 X66.933 Y47.783 E1.15267
G1 X66.963 Y47.793 E1.15283
G1 X67.403 Y47.903 E1.15504
G1 X67.383 Y47.903 E1.15514
G1 X67.743 Y48.013 E1.15697
G1 X68.173 Y48.183 E1.15923
G1 X68.203 Y48.193 E1.15938
G1 X68.733 Y48.443 E1.16224
G1 X68.843 Y48.503 E1.16285
G1 X70.023 Y49.273 E1.16972
G1 X70.703 Y49.803 E1.17392
G1 X71.373 Y50.403 E1.17831
G1 X85.223 Y64.343 E1.27412
G1 X85.883 Y65.173 E1.27929
G1 X86.243 Y65.713 E1.28245
G1 X86.553 Y66.273 E1.28557
G1 X86.763 Y66.723 E1.28799
G1 X87.083 Y67.633 E1.29270
G1 X87.233 Y68.163 E1.29538
G1 X87.303 Y68.493 E1.29703
G1 X87.393 Y69.153 E1.30027
G1 X87.423 Y70.203 E1.30539
G1 X87.363 Y71.113 E1.30984
G1 X87.323 Y71.413 E1.31132
G1 X87.113 Y72.293 E1.31573
G1 X86.673 Y73.473 E1.32187
G1 X86.253 Y74.343 E1.32658
G1 X85.903 Y74.893 E1.32976
G1 X85.513 Y75.403 E1.33289
G1 X85.083 Y75.883 E1.33603
G1 X70.593 Y90.223 E1.43542
G1 X70.073 Y90.683 E1.43881
G1 X69.803 Y90.893 E1.44048
G1 X69.223 Y91.273 E1.44386
G1 X68.493 Y91.663 E1.44789
G1 X67.933 Y91.913 E1.45088
G1 X67.043 Y92.183 E1.45542
G1 X66.133 Y92.333 E1.45991
G1 X65.013 Y92.433 E1.46540
G1 X64.423 Y92.423 E1.46827
G1 X63.873 Y92.373 E1.47097
G1 X63.773 Y92.353 E1.47146
G1 X63.663 Y92.343 E1.47200
G1 X63.083 Y92.223 E1.47489
G1 X63.053 Y92.213 E1.47504
G1 X62.783 Y92.143 E1.47640
G1 X62.363 Y92.003 E1.47856
G1 X62.323 Y91.993 E1.47876
G1 X62.153 Y91.923 E1.47966
G1 X60.923 Y91.343 E1.48629
G1 X60.133 Y90.863 E1.49080
G1 X59.653 Y90.493 E1.49375
G1 X59.193 Y90.083 E1.49676
G1 X45.283 Y76.223 E1.59249
G1 X44.303 Y75.073 E1.59986
G1 X43.883 Y74.503 E1.60331
G1 X43.523 Y73.893 E1.60677
G1 X43.293 Y73.433 E1.60927
G1 X42.903 Y72.363 E1.61483
G1 X42.753 Y71.833 E1.61751
G1 X42.683 Y71.503 E1.61916
G1 X42.593 Y70.843 E1.62240
G1 X42.563 Y69.793 E1.62753
G1 X42.623 Y68.853 E1.63212
G1 X42.733 Y68.233 E1.63519
G1 X43.003 Y67.323 E1.63982
G1 X43.322 Y66.530 E1.64398
G1 X43.913 Y66.663 F7800.000
G1 X44.023 Y66.393 F2700.000 E1.64541
G1 X44.443 Y65.643 E1.64960
G1 X44.943 Y64.953 E1.65375
G1 X47.553 Y62.303 E1.67189
G1 X47.653 Y62.213 E1.67254
G1 X47.953 Y61.913 E1.67461
G1 X48.043 Y61.813 E1.67527
G1 X49.283 Y60.573 E1.68382
G1 X49.383 Y60.483 E1.68447
G1 X49.683 Y60.183 E1.68654
G1 X49.773 Y60.083 E1.68720
G1 X50.023 Y59.833 E1.68892
G1 X50.123 Y59.743 E1.68958
G1 X59.833 Y50.113 E1.75625
G1 X60.283 Y49.743 E1.75909
G1 X60.763 Y49.413 E1.76193
G1 X61.273 Y49.123 E1.76479
G1 X62.343 Y48.633 E1.77053
G1 X63.153 Y48.363 E1.77470
G1 X63.703 Y48.243 E1.77744
G1 X64.263 Y48.173 E1.78019
G1 X64.833 Y48.153 E1.78297
G1 X65.963 Y48.233 E1.78850
G1 X65.983 Y48.233 E1.78859
G1 X66.213 Y48.253 E1.78972
G1 X66.743 Y48.343 E1.79234
G1 X67.253 Y48.473 E1.79491
G1 X67.463 Y48.543 E1.79598
G1 X67.473 Y48.543 E1.79603
G1 X68.193 Y48.833 E1.79982
G1 X68.303 Y48.893 E1.80043
G1 X68.473 Y48.973 E1.80135
G1 X68.613 Y49.053 E1.80213
G1 X68.653 Y49.073 E1.80235
G1 X69.693 Y49.763 E1.80843
G1 X70.313 Y50.243 E1.81226
G1 X84.313 Y64.213 E1.90869
G1 X85.233 Y65.293 E1.91560
G1 X85.643 Y65.863 E1.91903
G1 X86.003 Y66.483 E1.92252
G1 X86.223 Y66.963 E1.92510
G1 X86.523 Y67.793 E1.92940
G1 X86.723 Y68.593 E1.93342
G1 X86.773 Y68.903 E1.93495
G1 X86.833 Y69.813 E1.93940
G1 X86.803 Y70.833 E1.94437
G1 X86.713 Y71.453 E1.94743
G1 X86.563 Y72.063 E1.95049
G1 X86.363 Y72.653 E1.95353
G1 X86.003 Y73.523 E1.95812
G1 X85.733 Y74.053 E1.96102
G1 X85.423 Y74.553 E1.96389
G1 X85.063 Y75.023 E1.96677
G1 X83.673 Y76.453 E1.97650
G1 X83.573 Y76.543 E1.97715
G1 X82.433 Y77.683 E1.98501
G1 X82.333 Y77.773 E1.98567
G1 X81.193 Y78.913 E1.99353
G1 X81.093 Y79.003 E1.99418
G1 X69.943 Y90.023 E2.07062
G1 X69.453 Y90.423 E2.07370
G1 X68.923 Y90.773 E2.07680
G1 X68.213 Y91.153 E2.08072
G1 X67.623 Y91.393 E2.08383
G1 X67.013 Y91.583 E2.08695
G1 X66.703 Y91.653 E2.08849
G1 X65.663 Y91.783 E2.09360
G1 X65.613 Y91.793 E2.09385
G1 X65.353 Y91.823 E2.09513
G1 X65.303 Y91.823 E2.09537
G1 X65.233 Y91.833 E2.09572
G1 X64.973 Y91.843 E2.09699
G1 X64.453 Y91.833 E2.09952
G1 X64.353 Y91.823 E2.10001
G1 X64.293 Y91.823 E2.10030
G1 X64.223 Y91.813 E2.10065
G1 X64.193 Y91.813 E2.10080
G1 X63.933 Y91.783 E2.10207
G1 X63.923 Y91.783 E2.10212
G1 X63.763 Y91.763 E2.10291
G1 X63.243 Y91.653 E2.10550
G1 X62.733 Y91.503 E2.10809
G1 X62.363 Y91.373 E2.11000
G1 X61.443 Y90.953 E2.11493
G1 X60.603 Y90.473 E2.11965
G1 X60.343 Y90.293 E2.12119
G1 X59.843 Y89.883 E2.12434
G1 X45.703 Y75.803 E2.22163
G1 X44.563 Y74.443 E2.23029
G1 X44.373 Y74.183 E2.23186
G1 X44.043 Y73.623 E2.23503
G1 X43.833 Y73.183 E2.23740
G1 X43.463 Y72.203 E2.24251
G1 X43.263 Y71.403 E2.24653
G1 X43.213 Y71.093 E2.24806
G1 X43.153 Y70.183 E2.25251
G1 X43.163 Y69.503 E2.25582
G1 X43.253 Y68.643 E2.26004
G1 X43.463 Y67.803 E2.26426
G1 X43.553 Y67.523 E2.26570
G1 X43.872 Y66.760 E2.26973
G1 F1800.000 E1.26973
G92 E0
G1 X49.995 Y69.197 F7800.000
G1 F1800.000 E1.00000
G1 X50.722 Y68.645 F2700.000 E1.00445
G1 X50.735 Y68.454 E1.00538
G1 X50.966 Y68.402 E1.00654
G1 X50.981 Y68.207 E1.00749
G1 X51.210 Y68.158 E1.00863
G1 X51.228 Y67.959 E1.00961
G1 X51.454 Y67.914 E1.01073
G1 X51.475 Y67.712 E1.01172
G1 X51.698 Y67.670 E1.01283
G1 X51.722 Y67.465 E1.01383
G1 X51.942 Y67.426 E1.01492
G1 X51.969 Y67.217 E1.01595
G1 X52.185 Y67.182 E1.01702
G1 X52.216 Y66.970 E1.01807
G1 X52.429 Y66.938 E1.01912
G1 X52.463 Y66.723 E1.02018
G1 X52.673 Y66.694 E1.02121
G1 X52.710 Y66.476 E1.02229
G1 X52.916 Y66.450 E1.02331
G1 X52.957 Y66.229 E1.02441
G1 X53.160 Y66.206 E1.02540
G1 X53.204 Y65.982 E1.02651
G1 X53.403 Y65.962 E1.02749
G1 X53.451 Y65.735 E1.02862
G1 X53.646 Y65.718 E1.02957
G1 X53.699 Y65.489 E1.03072
G1 X53.890 Y65.473 E1.03165
G1 X53.946 Y65.242 E1.03281
G1 X54.133 Y65.229 E1.03373
G1 X54.194 Y64.995 E1.03490
G1 X54.376 Y64.984 E1.03579
G1 X54.441 Y64.749 E1.03699
G1 X54.619 Y64.740 E1.03785
G1 X54.689 Y64.502 E1.03906
G1 X54.862 Y64.495 E1.03991
G1 X54.936 Y64.256 E1.04113
G1 X55.105 Y64.250 E1.04195
G1 X55.184 Y64.009 E1.04319
G1 X55.348 Y64.006 E1.04399
G1 X55.432 Y63.763 E1.04525
G1 X55.591 Y63.761 E1.04602
G1 X64.267 Y55.000 E1.10614
G1 X64.816 Y54.752 E1.10907
G1 X65.376 Y54.794 E1.11181
G1 X66.300 Y55.487 E1.11744
G1 X66.326 Y55.696 E1.11847
G1 X66.547 Y55.734 E1.11956
G1 X66.570 Y55.940 E1.12057
G1 X66.794 Y55.981 E1.12168
G1 X66.815 Y56.184 E1.12268
G1 X67.041 Y56.228 E1.12380
G1 X67.060 Y56.428 E1.12478
G1 X67.288 Y56.475 E1.12591
G1 X67.304 Y56.672 E1.12688
G1 X67.534 Y56.723 E1.12802
G1 X67.549 Y56.916 E1.12897
G1 X68.275 Y57.465 E1.13340
G1 X68.284 Y57.647 E1.13429
G1 X68.521 Y57.712 E1.13549
G1 X68.529 Y57.890 E1.13636
G1 X68.768 Y57.960 E1.13758
G1 X68.774 Y58.134 E1.13843
G1 X69.015 Y58.207 E1.13965
G1 X69.019 Y58.378 E1.14049
G1 X69.261 Y58.455 E1.14172
G1 X69.264 Y58.621 E1.14254
G1 X69.508 Y58.703 E1.14379
G1 X69.509 Y58.865 E1.14458
G1 X69.754 Y58.950 E1.14584
G1 X69.755 Y59.108 E1.14661
G1 X70.000 Y59.198 E1.14789
G1 X70.000 Y59.352 E1.14864
G1 X70.247 Y59.446 E1.14993
G1 X70.245 Y59.595 E1.15065
G1 X70.493 Y59.694 E1.15196
G1 X70.490 Y59.838 E1.15266
G1 X70.739 Y59.941 E1.15398
G1 X70.736 Y60.082 E1.15466
G1 X79.372 Y68.604 E1.21382
G1 X80.192 Y69.606 E1.22013
G1 X80.252 Y70.206 E1.22307
G1 X80.005 Y70.803 E1.22622
G1 X79.546 Y71.093 E1.22886
G1 X79.513 Y71.300 E1.22988
G1 X79.304 Y71.326 E1.23091
G1 X79.266 Y71.546 E1.23200
G1 X79.060 Y71.570 E1.23301
G1 X79.018 Y71.793 E1.23412
G1 X78.816 Y71.814 E1.23511
G1 X78.770 Y72.039 E1.23623
G1 X78.572 Y72.059 E1.23720
G1 X78.522 Y72.285 E1.23833
G1 X78.328 Y72.304 E1.23928
G1 X78.275 Y72.532 E1.24042
G1 X78.084 Y72.548 E1.24136
G1 X78.027 Y72.778 E1.24251
G1 X77.840 Y72.793 E1.24343
G1 X77.779 Y73.024 E1.24459
G1 X77.596 Y73.037 E1.24549
G1 X77.531 Y73.270 E1.24667
G1 X77.352 Y73.282 E1.24754
G1 X77.283 Y73.516 E1.24873
G1 X77.108 Y73.527 E1.24958
G1 X77.035 Y73.762 E1.25079
G1 X76.864 Y73.772 E1.25162
G1 X76.786 Y74.008 E1.25283
G1 X76.620 Y74.016 E1.25364
G1 X76.538 Y74.254 E1.25487
G1 X76.377 Y74.261 E1.25566
G1 X76.290 Y74.500 E1.25690
G1 X76.133 Y74.506 E1.25767
G1 X76.042 Y74.746 E1.25892
G1 X75.889 Y74.751 E1.25966
G1 X75.794 Y74.992 E1.26093
G1 X75.646 Y74.996 E1.26165
G1 X75.545 Y75.238 E1.26293
G1 X65.396 Y85.199 E1.33226
G1 X64.814 Y85.255 E1.33511
G1 X64.267 Y85.000 E1.33805
G1 X50.627 Y71.394 E1.43198
G1 X49.808 Y70.394 E1.43829
G1 X49.748 Y69.794 E1.44123
G1 X49.955 Y69.294 E1.44386
G1 F1800.000 E0.44386
G92 E0
G1 Z0.400 F7800.000
G1 X49.995 Y69.198
G1 F1800.000 E1.00000
G1 X50.722 Y68.645 F2700.000 E1.00445
G1 X50.731 Y68.460 E1.00536
G1 X50.966 Y68.401 E1.00653
G1 X50.977 Y68.214 E1.00745
G1 X51.209 Y68.157 E1.00861
G1 X51.222 Y67.967 E1.00954
G1 X51.453 Y67.913 E1.01070
G1 X51.468 Y67.721 E1.01164
G1 X51.697 Y67.670 E1.01278
