; generated by Slic3r 0.9.2 on 2012-10-05 at 20:08:20

; layer_height = 0.2
; perimeters = 1
; solid_layers = 2
; fill_density = 0.1
; perimeter_speed = 45
; infill_speed = 70
; travel_speed = 130
; scale = 1
; nozzle_diameter = 0.5
; filament_diameter = 3
; extrusion_multiplier = 1
; single wall width = 0.70mm
; first layer single wall width = 0.60mm

M190 S55 ; wait for bed temperature to be reached
M104 S188 ; set temperature
G28 ; home all axes
M109 S188 ; wait for temperature to be reached
G90 ; use absolute coordinates
G21 ; set units to millimeters
G92 E0
M82 ; use absolute distances for extrusion
G1 Z0.300 F7800.000
G1 X49.100 Y54.170
G1 F1800.000 E1.00000
G1 X49.620 Y53.680 F1350.000 E1.01754
G1 X50.130 Y53.270 E1.03361
G1 X50.400 Y53.080 E1.04172
G1 X50.970 Y52.740 E1.05801
G1 X52.450 Y52.090 E1.09770
G1 X53.050 Y51.900 E1.11316
G1 X53.360 Y51.820 E1.12102
G1 X54.310 Y51.670 E1.14463
G1 X54.950 Y51.640 E1.16037
G1 X56.140 Y51.640 E1.18959
G1 X56.490 Y51.630 E1.19818
G1 X74.860 Y51.660 E1.64924
G1 X75.780 Y51.720 E1.67188
G1 X76.010 Y51.750 E1.67757
G1 X76.910 Y51.930 E1.70011
G1 X77.580 Y52.110 E1.71714
G1 X78.170 Y52.320 E1.73252
G1 X78.450 Y52.440 E1.74000
G1 X79.270 Y52.880 E1.76285
G1 X80.120 Y53.470 E1.78826
G1 X80.630 Y53.900 E1.80464
G1 X81.100 Y54.370 E1.82096
G1 X81.670 Y55.070 E1.84312
G1 X82.060 Y55.640 E1.86008
G1 X82.390 Y56.250 E1.87711
G1 X82.900 Y57.450 E1.90912
G1 X83.090 Y58.050 E1.92458
G1 X83.170 Y58.360 E1.93244
G1 X83.320 Y59.310 E1.95605
G1 X83.330 Y79.860 E2.46064
G1 X83.270 Y80.780 E2.48328
G1 X83.240 Y81.010 E2.48897
G1 X83.060 Y81.910 E2.51151
G1 X82.880 Y82.580 E2.52854
G1 X82.670 Y83.170 E2.54392
G1 X82.550 Y83.450 E2.55140
G1 X82.110 Y84.270 E2.57425
G1 X81.520 Y85.120 E2.59966
G1 X81.090 Y85.630 E2.61604
G1 X80.620 Y86.100 E2.63236
G1 X79.920 Y86.670 E2.65452
G1 X79.360 Y87.060 E2.67128
G1 X79.060 Y87.230 E2.67974
G1 X78.440 Y87.530 E2.69666
G1 X77.280 Y87.960 E2.72703
G1 X76.980 Y88.050 E2.73472
G1 X76.360 Y88.190 E2.75033
G1 X76.040 Y88.240 E2.75828
G1 X75.090 Y88.300 E2.78166
G1 X54.590 Y88.290 E3.28501
G1 X53.960 Y88.240 E3.30053
G1 X53.650 Y88.190 E3.30824
G1 X53.030 Y88.050 E3.32385
G1 X51.860 Y87.650 E3.35421
G1 X51.280 Y87.400 E3.36972
G1 X50.460 Y86.950 E3.39268
G1 X49.950 Y86.590 E3.40801
G1 X49.380 Y86.110 E3.42631
G1 X49.010 Y85.750 E3.43898
G1 X48.320 Y84.920 E3.46549
G1 X47.930 Y84.350 E3.48244
G1 X47.600 Y83.740 E3.49947
G1 X47.090 Y82.540 E3.53149
G1 X46.900 Y81.940 E3.54694
G1 X46.820 Y81.630 E3.55480
G1 X46.670 Y80.680 E3.57842
G1 X46.660 Y60.130 E4.08300
G1 X46.720 Y59.210 E4.10564
G1 X46.750 Y58.980 E4.11134
G1 X46.930 Y58.080 E4.13387
G1 X47.220 Y57.090 E4.15920
G1 X47.330 Y56.790 E4.16705
G1 X47.600 Y56.210 E4.18276
G1 X48.040 Y55.460 E4.20411
G1 X48.230 Y55.180 E4.21242
G1 X48.640 Y54.660 E4.22868
G1 X48.860 Y54.410 E4.23685
G1 X49.036 Y54.234 E4.24298
G1 X49.510 Y54.600 F7800.000
G1 X50.010 Y54.120 F1350.000 E4.25999
G1 X50.480 Y53.740 E4.27484
G1 X50.980 Y53.410 E4.28954
G1 X51.240 Y53.260 E4.29692
G1 X52.650 Y52.640 E4.33474
G1 X53.210 Y52.460 E4.34918
G1 X53.780 Y52.330 E4.36353
G1 X54.360 Y52.260 E4.37788
G1 X54.950 Y52.230 E4.39238
G1 X56.160 Y52.230 E4.42209
G1 X56.510 Y52.220 E4.43069
G1 X74.860 Y52.250 E4.88126
G1 X75.700 Y52.310 E4.90194
G1 X75.930 Y52.340 E4.90763
G1 X76.760 Y52.500 E4.92839
G1 X77.760 Y52.790 E4.95395
G1 X78.060 Y52.910 E4.96189
G1 X78.640 Y53.200 E4.97781
G1 X78.920 Y53.360 E4.98573
G1 X79.760 Y53.940 E5.01079
G1 X80.230 Y54.330 E5.02579
G1 X80.670 Y54.770 E5.04107
G1 X81.010 Y55.170 E5.05396
G1 X81.560 Y55.940 E5.07719
G1 X81.860 Y56.500 E5.09279
G1 X82.350 Y57.650 E5.12348
G1 X82.530 Y58.210 E5.13793
G1 X82.660 Y58.780 E5.15228
G1 X82.730 Y59.360 E5.16663
G1 X82.740 Y79.860 E5.66998
G1 X82.680 Y80.700 E5.69066
G1 X82.650 Y80.930 E5.69636
G1 X82.490 Y81.760 E5.71711
G1 X82.200 Y82.760 E5.74268
G1 X82.080 Y83.060 E5.75061
G1 X81.790 Y83.640 E5.76653
G1 X81.630 Y83.920 E5.77445
G1 X81.050 Y84.760 E5.79951
G1 X80.660 Y85.230 E5.81451
G1 X80.220 Y85.670 E5.82979
G1 X79.820 Y86.010 E5.84268
G1 X79.050 Y86.550 E5.86577
G1 X78.780 Y86.710 E5.87348
G1 X77.920 Y87.100 E5.89667
G1 X76.820 Y87.480 E5.92524
G1 X76.250 Y87.610 E5.93960
G1 X75.380 Y87.700 E5.96107
G1 X75.090 Y87.710 E5.96820
G1 X54.620 Y87.700 E6.47082
G1 X53.750 Y87.610 E6.49229
G1 X52.910 Y87.400 E6.51355
G1 X51.460 Y86.840 E6.55172
G1 X50.880 Y86.520 E6.56798
G1 X50.340 Y86.150 E6.58406
G1 X49.950 Y85.830 E6.59644
G1 X49.600 Y85.510 E6.60809
G1 X49.120 Y84.990 E6.62547
G1 X48.790 Y84.570 E6.63858
G1 X48.430 Y84.050 E6.65411
G1 X48.130 Y83.490 E6.66971
G1 X47.640 Y82.340 E6.70040
G1 X47.460 Y81.780 E6.71485
G1 X47.330 Y81.210 E6.72920
G1 X47.260 Y80.630 E6.74354
G1 X47.250 Y60.130 E7.24690
G1 X47.310 Y59.290 E7.26758
G1 X47.340 Y59.060 E7.27327
G1 X47.500 Y58.230 E7.29403
G1 X47.810 Y57.180 E7.32091
G1 X48.100 Y56.540 E7.33816
G1 X48.540 Y55.780 E7.35973
G1 X48.710 Y55.520 E7.36735
G1 X49.290 Y54.810 E7.38987
G1 X49.445 Y54.662 E7.39512
G1 F1800.000 E6.39512
G92 E0
G1 X54.366 Y59.076 F7800.000
G1 F1800.000 E1.00000
G1 X54.932 Y58.847 F1350.000 E1.01498
G1 X74.851 Y58.842 E1.50409
G1 X75.464 Y58.980 E1.51950
G1 X75.924 Y59.366 E1.53426
G1 X76.153 Y59.932 E1.54924
G1 X76.158 Y79.851 E2.03835
G1 X76.020 Y80.464 E2.05376
G1 X75.634 Y80.924 E2.06853
G1 X75.098 Y81.125 E2.08257
G1 X67.687 Y81.125 E2.26456
G1 X54.912 Y81.125 E2.57823
G1 X54.348 Y80.912 E2.59302
G1 X54.076 Y80.634 E2.60258
G1 X53.847 Y80.068 E2.61756
G1 X53.842 Y60.149 E3.10667
G1 X53.980 Y59.536 E3.12208
G1 X54.308 Y59.145 E3.13463
M104 S185 ; set temperature
M140 S50 ; set bed temperature
G1 F1800.000 E2.13463
G92 E0
G1 Z0.500 F7800.000
G1 X49.380 Y53.900
G1 F1800.000 E1.00000
G1 X49.870 Y53.470 F2700.000 E1.01212
G1 X50.400 Y53.080 E1.02435
G1 X50.970 Y52.740 E1.03669
G1 X52.450 Y52.090 E1.06675
G1 X53.050 Y51.900 E1.07845
G1 X53.360 Y51.820 E1.08440
G1 X54.310 Y51.670 E1.10228
G1 X54.950 Y51.640 E1.11419
G1 X56.140 Y51.640 E1.13631
G1 X56.490 Y51.630 E1.14282
G1 X74.860 Y51.660 E1.48435
G1 X75.780 Y51.720 E1.50149
G1 X76.010 Y51.750 E1.50580
G1 X76.910 Y51.930 E1.52287
G1 X77.580 Y52.110 E1.53577
G1 X78.170 Y52.320 E1.54741
G1 X78.450 Y52.440 E1.55307
G1 X79.270 Y52.880 E1.57037
G1 X80.120 Y53.470 E1.58961
G1 X80.630 Y53.900 E1.60201
G1 X81.100 Y54.370 E1.61437
G1 X81.670 Y55.070 E1.63115
G1 X82.060 Y55.640 E1.64399
G1 X82.390 Y56.250 E1.65689
G1 X82.900 Y57.450 E1.68113
G1 X83.090 Y58.050 E1.69283
G1 X83.170 Y58.360 E1.69878
G1 X83.320 Y59.310 E1.71666
G1 X83.330 Y79.860 E2.09872
G1 X83.270 Y80.780 E2.11586
G1 X83.240 Y81.010 E2.12017
G1 X83.060 Y81.910 E2.13724
G1 X82.880 Y82.580 E2.15013
G1 X82.670 Y83.170 E2.16178
G1 X82.550 Y83.450 E2.16744
G1 X82.110 Y84.270 E2.18474
G1 X81.520 Y85.120 E2.20398
G1 X81.090 Y85.630 E2.21638
G1 X80.620 Y86.100 E2.22874
G1 X79.920 Y86.670 E2.24552
G1 X79.360 Y87.060 E2.25821
G1 X79.060 Y87.230 E2.26462
G1 X78.440 Y87.530 E2.27742
G1 X77.280 Y87.960 E2.30042
G1 X76.980 Y88.050 E2.30625
G1 X76.360 Y88.190 E2.31806
G1 X76.040 Y88.240 E2.32409
G1 X75.090 Y88.300 E2.34178
G1 X54.590 Y88.290 E2.72291
G1 X53.960 Y88.240 E2.73466
G1 X53.650 Y88.190 E2.74050
G1 X53.030 Y88.050 E2.75231
G1 X51.860 Y87.650 E2.77530
G1 X51.280 Y87.400 E2.78704
G1 X50.460 Y86.950 E2.80443
G1 X49.950 Y86.590 E2.81604
G1 X49.380 Y86.110 E2.82989
G1 X49.010 Y85.750 E2.83949
G1 X48.320 Y84.920 E2.85956
G1 X47.930 Y84.350 E2.87240
G1 X47.600 Y83.740 E2.88529
G1 X47.090 Y82.540 E2.90953
G1 X46.900 Y81.940 E2.92124
G1 X46.820 Y81.630 E2.92719
G1 X46.670 Y80.680 E2.94507
G1 X46.660 Y60.130 E3.32712
G1 X46.720 Y59.210 E3.34426
G1 X46.750 Y58.980 E3.34858
G1 X46.930 Y58.080 E3.36564
G1 X47.220 Y57.090 E3.38482
G1 X47.330 Y56.790 E3.39076
G1 X47.600 Y56.210 E3.40265
G1 X48.040 Y55.460 E3.41882
G1 X48.230 Y55.180 E3.42511
G1 X48.640 Y54.660 E3.43742
G1 X48.860 Y54.410 E3.44361
G1 X49.304 Y53.973 E3.45520
G1 X49.790 Y54.330 F7800.000
G1 X50.010 Y54.120 F2700.000 E3.46086
G1 X50.480 Y53.740 E3.47209
G1 X50.980 Y53.410 E3.48323
G1 X51.240 Y53.260 E3.48881
G1 X52.650 Y52.640 E3.51745
G1 X53.210 Y52.460 E3.52839
G1 X53.780 Y52.330 E3.53925
G1 X54.360 Y52.260 E3.55012
G1 X54.950 Y52.230 E3.56110
G1 X56.160 Y52.230 E3.58360
G1 X56.510 Y52.220 E3.59010
G1 X74.860 Y52.250 E3.93126
G1 X75.700 Y52.310 E3.94692
G1 X75.930 Y52.340 E3.95123
G1 X76.760 Y52.500 E3.96694
G1 X77.760 Y52.790 E3.98630
G1 X78.060 Y52.910 E3.99231
G1 X78.640 Y53.200 E4.00436
G1 X78.920 Y53.360 E4.01036
G1 X79.760 Y53.940 E4.02934
G1 X80.230 Y54.330 E4.04069
G1 X80.670 Y54.770 E4.05226
G1 X81.010 Y55.170 E4.06202
G1 X81.560 Y55.940 E4.07961
G1 X81.860 Y56.500 E4.09143
G1 X82.350 Y57.650 E4.11467
G1 X82.530 Y58.210 E4.12560
G1 X82.660 Y58.780 E4.13647
G1 X82.730 Y59.360 E4.14733
G1 X82.740 Y79.860 E4.52846
G1 X82.680 Y80.700 E4.54412
G1 X82.650 Y80.930 E4.54843
G1 X82.490 Y81.760 E4.56414
G1 X82.200 Y82.760 E4.58350
G1 X82.080 Y83.060 E4.58951
G1 X81.790 Y83.640 E4.60156
G1 X81.630 Y83.920 E4.60756
G1 X81.050 Y84.760 E4.62654
G1 X80.660 Y85.230 E4.63789
G1 X80.220 Y85.670 E4.64946
G1 X79.820 Y86.010 E4.65922
G1 X79.050 Y86.550 E4.67671
G1 X78.780 Y86.710 E4.68254
G1 X77.920 Y87.100 E4.70010
G1 X76.820 Y87.480 E4.72173
G1 X76.250 Y87.610 E4.73260
G1 X75.380 Y87.700 E4.74886
G1 X75.090 Y87.710 E4.75426
G1 X54.620 Y87.700 E5.13483
G1 X53.750 Y87.610 E5.15109
G1 X52.910 Y87.400 E5.16719
G1 X51.460 Y86.840 E5.19608
G1 X50.880 Y86.520 E5.20840
G1 X50.340 Y86.150 E5.22057
G1 X49.950 Y85.830 E5.22995
G1 X49.600 Y85.510 E5.23876
G1 X49.120 Y84.990 E5.25192
G1 X48.790 Y84.570 E5.26185
G1 X48.430 Y84.050 E5.27361
G1 X48.130 Y83.490 E5.28542
G1 X47.640 Y82.340 E5.30866
G1 X47.460 Y81.780 E5.31960
G1 X47.330 Y81.210 E5.33047
G1 X47.260 Y80.630 E5.34133
G1 X47.250 Y60.130 E5.72246
G1 X47.310 Y59.290 E5.73811
G1 X47.340 Y59.060 E5.74242
G1 X47.500 Y58.230 E5.75814
G1 X47.810 Y57.180 E5.77849
G1 X48.100 Y56.540 E5.79156
G1 X48.540 Y55.780 E5.80788
G1 X48.710 Y55.520 E5.81366
G1 X49.290 Y54.810 E5.83070
G1 X49.714 Y54.403 E5.84164
G1 F1800.000 E4.84164
G92 E0
G1 X54.088 Y59.348 F7800.000
G1 F1800.000 E1.00000
G1 X54.339 Y59.155 F2700.000 E1.00587
G1 X54.957 Y58.823 E1.01894
G1 X55.862 Y58.946 E1.03591
G1 X56.003 Y58.821 E1.03941
G1 X56.207 Y58.946 E1.04386
G1 X56.352 Y58.820 E1.04743
G1 X56.552 Y58.946 E1.05183
G1 X56.700 Y58.820 E1.05545
G1 X56.897 Y58.946 E1.05980
G1 X57.049 Y58.819 E1.06348
G1 X57.241 Y58.946 E1.06777
G1 X57.397 Y58.819 E1.07152
G1 X57.586 Y58.946 E1.07576
G1 X57.746 Y58.818 E1.07956
G1 X57.931 Y58.946 E1.08374
G1 X58.094 Y58.818 E1.08760
G1 X58.276 Y58.946 E1.09173
G1 X58.443 Y58.818 E1.09564
G1 X58.621 Y58.946 E1.09972
G1 X58.792 Y58.818 E1.10369
G1 X58.966 Y58.946 E1.10770
G1 X59.140 Y58.818 E1.11172
G1 X59.310 Y58.946 E1.11568
G1 X59.489 Y58.818 E1.11976
G1 X59.655 Y58.945 E1.12365
G1 X59.837 Y58.818 E1.12778
G1 X60.000 Y58.945 E1.13162
G1 X60.186 Y58.818 E1.13580
G1 X60.345 Y58.944 E1.13958
G1 X60.534 Y58.818 E1.14381
G1 X60.690 Y58.944 E1.14752
G1 X60.883 Y58.818 E1.15181
G1 X61.034 Y58.943 E1.15546
G1 X61.232 Y58.819 E1.15979
G1 X61.379 Y58.943 E1.16338
G1 X61.580 Y58.819 E1.16776
G1 X61.724 Y58.942 E1.17128
G1 X61.929 Y58.819 E1.17571
G1 X62.069 Y58.941 E1.17916
G1 X62.277 Y58.820 E1.18364
G1 X62.414 Y58.940 E1.18703
G1 X63.672 Y58.822 E1.21051
G1 X63.793 Y58.937 E1.21362
G1 X64.020 Y58.823 E1.21833
G1 X64.138 Y58.935 E1.22136
G1 X64.369 Y58.824 E1.22613
G1 X64.483 Y58.934 E1.22908
G1 X64.717 Y58.825 E1.23389
G1 X64.828 Y58.933 E1.23677
G1 X65.066 Y58.826 E1.24163
G1 X65.172 Y58.932 E1.24443
G1 X65.414 Y58.827 E1.24933
G1 X65.517 Y58.930 E1.25205
G1 X65.763 Y58.828 E1.25700
G1 X65.862 Y58.929 E1.25964
G1 X75.088 Y58.875 E1.43117
G1 X75.786 Y59.199 E1.44548
G1 X76.177 Y59.957 E1.46135
G1 X76.054 Y60.862 E1.47832
G1 X76.179 Y61.003 E1.48182
G1 X76.054 Y61.207 E1.48627
G1 X76.180 Y61.352 E1.48984
G1 X76.054 Y61.552 E1.49424
G1 X76.180 Y61.700 E1.49786
G1 X76.054 Y61.897 E1.50221
G1 X76.181 Y62.049 E1.50589
G1 X76.054 Y62.241 E1.51018
G1 X76.181 Y62.397 E1.51393
G1 X76.054 Y62.586 E1.51817
G1 X76.182 Y62.746 E1.52197
G1 X76.054 Y62.931 E1.52615
G1 X76.182 Y63.094 E1.53001
G1 X76.054 Y63.276 E1.53414
G1 X76.182 Y63.443 E1.53806
G1 X76.054 Y63.621 E1.54213
G1 X76.182 Y63.792 E1.54610
G1 X76.054 Y63.966 E1.55011
G1 X76.182 Y64.140 E1.55413
G1 X76.054 Y64.310 E1.55809
G1 X76.182 Y64.489 E1.56217
G1 X76.055 Y64.655 E1.56606
G1 X76.182 Y64.837 E1.57019
G1 X76.055 Y65.000 E1.57403
G1 X76.182 Y65.186 E1.57821
G1 X76.056 Y65.345 E1.58199
G1 X76.182 Y65.534 E1.58622
G1 X76.056 Y65.690 E1.58993
G1 X76.182 Y65.883 E1.59422
G1 X76.057 Y66.034 E1.59787
G1 X76.181 Y66.232 E1.60220
G1 X76.057 Y66.379 E1.60579
G1 X76.181 Y66.580 E1.61017
G1 X76.058 Y66.724 E1.61369
G1 X76.181 Y66.929 E1.61812
G1 X76.059 Y67.069 E1.62157
G1 X76.180 Y67.277 E1.62605
G1 X76.060 Y67.414 E1.62944
G1 X76.180 Y67.626 E1.63397
G1 X76.061 Y67.759 E1.63728
G1 X76.179 Y67.974 E1.64186
G1 X76.061 Y68.103 E1.64511
G1 X76.178 Y68.323 E1.64973
G1 X76.062 Y68.448 E1.65290
G1 X76.178 Y68.672 E1.65757
G1 X76.063 Y68.793 E1.66068
G1 X76.177 Y69.020 E1.66539
G1 X76.065 Y69.138 E1.66842
G1 X76.176 Y69.369 E1.67319
G1 X76.066 Y69.483 E1.67614
G1 X76.175 Y69.717 E1.68095
G1 X76.067 Y69.828 E1.68383
G1 X76.174 Y70.066 E1.68869
G1 X76.068 Y70.172 E1.69148
G1 X76.173 Y70.414 E1.69639
G1 X76.070 Y70.517 E1.69911
G1 X76.172 Y70.763 E1.70406
G1 X76.071 Y70.862 E1.70670
G1 X76.125 Y80.088 E1.87823
G1 X75.801 Y80.786 E1.89254
G1 X75.098 Y81.125 E1.90704
G1 X54.912 Y81.125 E2.28234
G1 X54.214 Y80.801 E2.29665
G1 X53.823 Y80.043 E2.31252
G1 X53.945 Y79.828 E2.31712
G1 X53.822 Y79.694 E2.32049
G1 X53.945 Y79.483 E2.32505
G1 X53.821 Y79.346 E2.32848
G1 X53.946 Y79.138 E2.33298
G1 X53.821 Y78.997 E2.33649
G1 X53.946 Y78.793 E2.34094
G1 X53.820 Y78.648 E2.34450
G1 X53.946 Y78.448 E2.34890
G1 X53.820 Y78.300 E2.35252
G1 X53.946 Y78.103 E2.35687
G1 X53.819 Y77.951 E2.36055
G1 X53.946 Y77.759 E2.36485
G1 X53.819 Y77.603 E2.36859
G1 X53.946 Y77.414 E2.37283
G1 X53.818 Y77.254 E2.37663
G1 X53.946 Y77.069 E2.38082
G1 X53.818 Y76.906 E2.38467
G1 X53.946 Y76.724 E2.38880
G1 X53.818 Y76.557 E2.39272
G1 X53.946 Y76.379 E2.39679
G1 X53.818 Y76.208 E2.40076
G1 X53.946 Y76.034 E2.40477
G1 X53.818 Y75.860 E2.40880
G1 X53.946 Y75.690 E2.41275
G1 X53.818 Y75.511 E2.41683
G1 X53.945 Y75.345 E2.42073
G1 X53.818 Y75.163 E2.42486
G1 X53.945 Y75.000 E2.42869
G1 X53.818 Y74.814 E2.43288
G1 X53.944 Y74.655 E2.43665
G1 X53.818 Y74.466 E2.44088
G1 X53.944 Y74.310 E2.44460
G1 X53.818 Y74.117 E2.44888
G1 X53.943 Y73.966 E2.45253
G1 X53.819 Y73.768 E2.45686
G1 X53.943 Y73.621 E2.46045
G1 X53.819 Y73.420 E2.46483
G1 X53.942 Y73.276 E2.46835
G1 X53.819 Y73.071 E2.47278
G1 X53.941 Y72.931 E2.47624
G1 X53.820 Y72.723 E2.48072
G1 X53.940 Y72.586 E2.48410
G1 X53.820 Y72.374 E2.48863
G1 X53.939 Y72.241 E2.49195
G1 X53.821 Y72.026 E2.49652
G1 X53.939 Y71.897 E2.49977
G1 X53.822 Y71.677 E2.50439
G1 X53.938 Y71.552 E2.50757
G1 X53.822 Y71.328 E2.51224
G1 X53.937 Y71.207 E2.51534
G1 X53.823 Y70.980 E2.52006
G1 X53.935 Y70.862 E2.52308
G1 X53.824 Y70.631 E2.52785
G1 X53.934 Y70.517 E2.53080
G1 X53.825 Y70.283 E2.53561
G1 X53.933 Y70.172 E2.53849
G1 X53.826 Y69.934 E2.54335
G1 X53.932 Y69.828 E2.54615
G1 X53.827 Y69.586 E2.55105
G1 X53.930 Y69.483 E2.55377
G1 X53.828 Y69.237 E2.55873
G1 X53.929 Y69.138 E2.56136
G1 X53.875 Y59.912 E2.73289
G1 X54.051 Y59.446 E2.74214
G1 F1800.000 E1.74214
G92 E0
G1 Z0.700 F7800.000
G1 X54.195 Y59.209
G1 F1800.000 E1.00000
