; generated by Slic3r 0.9.2 on 2012-11-04 at 19:38:54

; layer_height = 0.2
; perimeters = 2
; solid_layers = 2
; fill_density = 0.2
; perimeter_speed = 40
; infill_speed = 50
; travel_speed = 80
; scale = 1
; nozzle_diameter = 0.5
; filament_diameter = 3.12
; extrusion_multiplier = 1
; single wall width = 0.70mm
; first layer single wall width = 0.80mm

M190 S55 ; wait for bed temperature to be reached
M104 S190 ; set temperature
G28 ; home all axes
M109 S190 ; wait for temperature to be reached
G90 ; use absolute coordinates
G21 ; set units to millimeters
G92 E0
M82 ; use absolute distances for extrusion
G1 Z0.400 F4800.000
G1 X43.340 Y49.590
G1 F1800.000 E1.00000
G1 X43.460 Y48.720 F720.000 E1.03380
G1 X43.530 Y48.430 E1.04528
G1 X43.720 Y47.880 E1.06768
G1 X44.270 Y46.670 E1.11883
G1 X44.530 Y46.220 E1.13883
G1 X44.680 Y46.000 E1.14908
G1 X45.000 Y45.590 E1.16910
G1 X45.180 Y45.390 E1.17946
G1 X45.360 Y45.210 E1.18925
G1 X45.560 Y45.030 E1.19961
G1 X45.970 Y44.710 E1.21963
G1 X46.410 Y44.420 E1.23991
G1 X47.670 Y43.770 E1.29447
G1 X48.160 Y43.570 E1.31484
G1 X48.670 Y43.420 E1.33530
G1 X49.190 Y43.320 E1.35568
G1 X49.720 Y43.270 E1.37617
G1 X49.980 Y43.260 E1.38618
G1 X55.920 Y43.260 E1.61480
G1 X56.320 Y43.280 E1.63021
G1 X56.320 Y43.270 E1.63060
G1 X59.090 Y43.270 E1.73720
G1 X59.490 Y43.290 E1.75262
G1 X59.490 Y43.280 E1.75300
G1 X70.400 Y43.340 E2.17290
G1 X71.270 Y43.460 E2.20670
G1 X71.560 Y43.530 E2.21819
G1 X72.110 Y43.720 E2.24058
G1 X73.320 Y44.270 E2.29174
G1 X73.770 Y44.530 E2.31174
G1 X73.990 Y44.680 E2.32199
G1 X74.400 Y45.000 E2.34200
G1 X74.600 Y45.180 E2.35236
G1 X74.780 Y45.360 E2.36216
G1 X74.960 Y45.560 E2.37251
G1 X75.280 Y45.970 E2.39253
G1 X75.570 Y46.410 E2.41281
G1 X76.220 Y47.670 E2.46738
G1 X76.420 Y48.160 E2.48775
G1 X76.570 Y48.670 E2.50820
G1 X76.670 Y49.190 E2.52858
G1 X76.720 Y49.720 E2.54907
G1 X76.730 Y55.920 E2.78769
G1 X76.710 Y56.320 E2.80311
G1 X76.720 Y56.320 E2.80349
G1 X76.720 Y59.090 E2.91010
G1 X76.700 Y59.490 E2.92552
G1 X76.710 Y59.490 E2.92590
G1 X76.650 Y70.400 E3.34580
G1 X76.530 Y71.270 E3.37960
G1 X76.460 Y71.560 E3.39108
G1 X76.270 Y72.110 E3.41348
G1 X75.600 Y73.540 E3.47426
G1 X75.470 Y73.760 E3.48409
G1 X75.170 Y74.180 E3.50395
G1 X75.010 Y74.380 E3.51381
G1 X74.840 Y74.570 E3.52362
G1 X74.660 Y74.750 E3.53342
G1 X74.070 Y75.250 E3.56319
G1 X73.420 Y75.660 E3.59276
G1 X72.240 Y76.220 E3.64303
G1 X71.740 Y76.410 E3.66362
G1 X71.220 Y76.540 E3.68425
G1 X70.960 Y76.590 E3.69444
G1 X70.430 Y76.650 E3.71497
G1 X65.370 Y76.720 E3.90973
G1 X64.890 Y76.720 E3.92820
G1 X64.890 Y76.710 E3.92859
G1 X64.480 Y76.730 E3.94439
G1 X63.260 Y76.730 E3.99134
G1 X63.260 Y76.720 E3.99173
G1 X62.850 Y76.740 E4.00752
G1 X57.140 Y76.740 E4.22729
G1 X56.730 Y76.720 E4.24308
G1 X56.730 Y76.730 E4.24347
G1 X55.510 Y76.730 E4.29042
G1 X55.100 Y76.710 E4.30622
G1 X55.100 Y76.720 E4.30661
G1 X49.840 Y76.660 E4.50906
G1 X49.270 Y76.620 E4.53105
G1 X48.980 Y76.580 E4.54232
G1 X48.140 Y76.370 E4.57564
G1 X47.870 Y76.270 E4.58672
G1 X46.670 Y75.720 E4.63753
G1 X46.220 Y75.460 E4.65753
G1 X46.000 Y75.310 E4.66778
G1 X45.590 Y74.990 E4.68780
G1 X45.390 Y74.810 E4.69815
G1 X45.210 Y74.630 E4.70795
G1 X45.030 Y74.430 E4.71830
G1 X44.710 Y74.020 E4.73832
G1 X44.420 Y73.580 E4.75860
G1 X43.770 Y72.320 E4.81317
G1 X43.570 Y71.830 E4.83354
G1 X43.420 Y71.320 E4.85400
G1 X43.320 Y70.800 E4.87438
G1 X43.270 Y70.270 E4.89487
G1 X43.260 Y64.070 E5.13349
G1 X43.280 Y63.670 E5.14890
G1 X43.270 Y63.670 E5.14929
G1 X43.270 Y60.900 E5.25589
G1 X43.290 Y60.500 E5.27131
G1 X43.280 Y60.500 E5.27169
G1 X43.336 Y49.710 E5.68698
G1 X44.110 Y49.630 F4800.000
G1 X44.130 Y49.380 F720.000 E5.69663
G1 X44.210 Y48.880 E5.71612
G1 X44.270 Y48.640 E5.72564
G1 X44.430 Y48.160 E5.74511
G1 X44.960 Y47.010 E5.79385
G1 X45.210 Y46.590 E5.81266
G1 X45.490 Y46.200 E5.83113
G1 X45.650 Y46.010 E5.84069
G1 X46.180 Y45.510 E5.86874
G1 X46.370 Y45.360 E5.87805
G1 X46.570 Y45.220 E5.88745
G1 X48.010 Y44.460 E5.95012
G1 X48.480 Y44.270 E5.96963
G1 X48.970 Y44.140 E5.98914
G1 X49.220 Y44.090 E5.99895
G1 X49.730 Y44.040 E6.01867
G1 X49.980 Y44.030 E6.02830
G1 X70.360 Y44.110 E6.81267
G1 X70.610 Y44.130 E6.82233
G1 X71.110 Y44.210 E6.84182
G1 X71.350 Y44.270 E6.85134
G1 X71.830 Y44.430 E6.87081
G1 X72.980 Y44.960 E6.91954
G1 X73.400 Y45.210 E6.93836
G1 X73.790 Y45.490 E6.95683
G1 X73.980 Y45.650 E6.96639
G1 X74.480 Y46.180 E6.99444
G1 X74.630 Y46.370 E7.00375
G1 X74.770 Y46.570 E7.01315
G1 X75.530 Y48.010 E7.07581
G1 X75.720 Y48.480 E7.09533
G1 X75.850 Y48.970 E7.11484
G1 X75.900 Y49.220 E7.12465
G1 X75.950 Y49.730 E7.14437
G1 X75.880 Y70.360 E7.93836
G1 X75.860 Y70.610 E7.94802
G1 X75.780 Y71.110 E7.96750
G1 X75.720 Y71.350 E7.97702
G1 X75.560 Y71.830 E7.99650
G1 X75.030 Y72.980 E8.04523
G1 X74.920 Y73.180 E8.05402
G1 X74.660 Y73.580 E8.07238
G1 X74.520 Y73.770 E8.08146
G1 X74.030 Y74.290 E8.10896
G1 X73.670 Y74.590 E8.12700
G1 X73.280 Y74.850 E8.14504
G1 X72.860 Y75.080 E8.16347
G1 X71.910 Y75.530 E8.20392
G1 X71.430 Y75.700 E8.22352
G1 X70.920 Y75.810 E8.24360
G1 X70.410 Y75.880 E8.26341
G1 X65.360 Y75.950 E8.45779
G1 X65.010 Y75.950 E8.47126
G1 X64.600 Y75.960 E8.48705
G1 X63.380 Y75.960 E8.53400
G1 X62.970 Y75.970 E8.54978
G1 X49.600 Y75.880 E9.06437
G1 X49.360 Y75.860 E9.07364
G1 X48.870 Y75.770 E9.09281
G1 X48.390 Y75.640 E9.11195
G1 X47.930 Y75.460 E9.13096
G1 X47.010 Y75.030 E9.17005
G1 X46.590 Y74.780 E9.18886
G1 X46.200 Y74.500 E9.20733
G1 X46.010 Y74.340 E9.21689
G1 X45.510 Y73.810 E9.24494
G1 X45.360 Y73.620 E9.25425
G1 X45.220 Y73.420 E9.26365
G1 X44.460 Y71.980 E9.32632
G1 X44.270 Y71.510 E9.34583
G1 X44.140 Y71.020 E9.36534
G1 X44.090 Y70.770 E9.37515
G1 X44.040 Y70.260 E9.39487
G1 X44.105 Y49.750 E10.18425
G1 F1800.000 E9.18425
G92 E0
G1 X71.200 Y49.981 F4800.000
G1 F1800.000 E1.00000
G1 X71.030 Y50.200 F720.000 E1.01066
G1 X71.200 Y50.378 E1.02010
G1 X71.031 Y50.600 E1.03084
G1 X71.199 Y50.774 E1.04016
G1 X71.032 Y51.000 E1.05099
G1 X71.199 Y51.170 E1.06018
G1 X71.032 Y51.400 E1.07110
G1 X71.198 Y51.567 E1.08015
G1 X71.033 Y51.800 E1.09115
G1 X71.198 Y51.963 E1.10008
G1 X71.034 Y52.200 E1.11116
G1 X71.197 Y52.360 E1.11995
G1 X71.035 Y52.600 E1.13111
G1 X71.197 Y52.756 E1.13977
G1 X71.036 Y53.000 E1.15101
G1 X71.196 Y53.152 E1.15952
G1 X71.037 Y53.400 E1.17084
G1 X71.195 Y53.549 E1.17921
G1 X71.038 Y53.800 E1.19062
G1 X71.195 Y53.945 E1.19884
G1 X71.039 Y54.200 E1.21032
G1 X71.194 Y54.342 E1.21839
G1 X71.040 Y54.600 E1.22996
G1 X71.193 Y54.738 E1.23788
G1 X71.042 Y55.000 E1.24952
G1 X71.192 Y55.135 E1.25729
G1 X71.043 Y55.400 E1.26900
G1 X71.191 Y55.531 E1.27662
G1 X71.044 Y55.800 E1.28841
G1 X71.190 Y55.927 E1.29586
G1 X71.046 Y56.200 E1.30774
G1 X71.189 Y56.324 E1.31503
G1 X71.047 Y56.600 E1.32698
G1 X71.188 Y56.720 E1.33411
G1 X71.049 Y57.000 E1.34614
G1 X71.187 Y57.117 E1.35309
G1 X71.050 Y57.400 E1.36520
G1 X71.186 Y57.513 E1.37199
G1 X71.052 Y57.800 E1.38418
G1 X71.184 Y57.909 E1.39079
G1 X71.054 Y58.200 E1.40306
G1 X71.183 Y58.306 E1.40950
G1 X71.055 Y58.600 E1.42184
G1 X71.182 Y58.702 E1.42811
G1 X71.057 Y59.000 E1.44053
G1 X71.180 Y59.099 E1.44661
G1 X71.059 Y59.400 E1.45912
G1 X71.179 Y59.495 E1.46502
G1 X71.061 Y59.800 E1.47760
G1 X71.177 Y59.892 E1.48331
G1 X71.125 Y70.088 E1.87576
G1 X70.801 Y70.786 E1.90537
G1 X70.098 Y71.125 E1.93540
G1 X65.400 Y71.069 E2.11625
G1 X65.306 Y71.186 E2.12200
G1 X65.000 Y71.066 E2.13466
G1 X64.898 Y71.189 E2.14082
G1 X64.600 Y71.063 E2.15327
G1 X64.490 Y71.192 E2.15982
G1 X64.200 Y71.060 E2.17208
G1 X64.082 Y71.195 E2.17900
G1 X63.800 Y71.057 E2.19107
G1 X63.673 Y71.198 E2.19835
G1 X63.400 Y71.055 E2.21022
G1 X63.265 Y71.200 E2.21784
G1 X63.000 Y71.052 E2.22952
G1 X62.857 Y71.202 E2.23747
G1 X62.600 Y71.051 E2.24895
G1 X62.449 Y71.203 E2.25722
G1 X62.200 Y71.049 E2.26850
G1 X62.041 Y71.205 E2.27708
G1 X61.800 Y71.048 E2.28815
G1 X61.633 Y71.206 E2.29702
G1 X61.400 Y71.047 E2.30787
G1 X61.224 Y71.207 E2.31703
G1 X61.000 Y71.046 E2.32766
G1 X60.816 Y71.208 E2.33709
G1 X60.600 Y71.045 E2.34750
G1 X60.408 Y71.208 E2.35718
G1 X60.200 Y71.045 E2.36736
G1 X60.000 Y71.208 E2.37730
G1 X59.800 Y71.045 E2.38724
G1 X59.592 Y71.208 E2.39742
G1 X59.400 Y71.045 E2.40710
G1 X59.184 Y71.208 E2.41751
G1 X59.000 Y71.046 E2.42694
G1 X58.776 Y71.207 E2.43757
G1 X58.600 Y71.047 E2.44673
G1 X58.367 Y71.206 E2.45758
G1 X58.200 Y71.048 E2.46645
G1 X57.959 Y71.205 E2.47752
G1 X57.800 Y71.049 E2.48610
G1 X57.551 Y71.204 E2.49738
G1 X57.400 Y71.051 E2.50565
G1 X57.143 Y71.202 E2.51713
G1 X57.000 Y71.052 E2.52508
G1 X56.735 Y71.200 E2.53676
G1 X56.600 Y71.055 E2.54438
G1 X56.327 Y71.198 E2.55625
G1 X56.200 Y71.057 E2.56353
G1 X55.918 Y71.195 E2.57560
G1 X55.800 Y71.060 E2.58252
G1 X55.510 Y71.192 E2.59478
G1 X55.400 Y71.063 E2.60133
G1 X55.102 Y71.189 E2.61379
G1 X55.000 Y71.066 E2.61995
G1 X54.694 Y71.186 E2.63260
G1 X54.600 Y71.069 E2.63836
G1 X49.912 Y71.125 E2.81880
G1 X49.214 Y70.801 E2.84842
G1 X48.800 Y70.019 E2.88248
G1 X48.970 Y69.800 E2.89314
G1 X48.800 Y69.622 E2.90258
G1 X48.969 Y69.400 E2.91333
G1 X48.801 Y69.226 E2.92264
G1 X48.968 Y69.000 E2.93347
G1 X48.801 Y68.830 E2.94266
G1 X48.968 Y68.600 E2.95358
G1 X48.802 Y68.433 E2.96264
G1 X48.967 Y68.200 E2.97364
G1 X48.802 Y68.037 E2.98256
G1 X48.966 Y67.800 E2.99364
G1 X48.803 Y67.640 E3.00243
G1 X48.965 Y67.400 E3.01360
G1 X48.803 Y67.244 E3.02225
G1 X48.964 Y67.000 E3.03349
G1 X48.804 Y66.848 E3.04200
G1 X48.963 Y66.600 E3.05333
G1 X48.805 Y66.451 E3.06170
G1 X48.962 Y66.200 E3.07310
G1 X48.805 Y66.055 E3.08132
G1 X48.961 Y65.800 E3.09280
G1 X48.806 Y65.658 E3.10088
G1 X48.960 Y65.400 E3.11244
G1 X48.807 Y65.262 E3.12036
G1 X48.958 Y65.000 E3.13200
G1 X48.808 Y64.865 E3.13977
G1 X48.957 Y64.600 E3.15149
G1 X48.809 Y64.469 E3.15910
G1 X48.956 Y64.200 E3.17089
G1 X48.810 Y64.073 E3.17835
G1 X48.954 Y63.800 E3.19022
G1 X48.811 Y63.676 E3.19751
G1 X48.953 Y63.400 E3.20946
G1 X48.812 Y63.280 E3.21659
G1 X48.951 Y63.000 E3.22862
G1 X48.813 Y62.883 E3.23558
G1 X48.950 Y62.600 E3.24769
G1 X48.814 Y62.487 E3.25447
G1 X48.948 Y62.200 E3.26666
G1 X48.816 Y62.091 E3.27328
G1 X48.946 Y61.800 E3.28554
G1 X48.817 Y61.694 E3.29198
G1 X48.945 Y61.400 E3.30433
G1 X48.818 Y61.298 E3.31059
G1 X48.943 Y61.000 E3.32301
G1 X48.820 Y60.901 E3.32910
G1 X48.941 Y60.600 E3.34160
G1 X48.821 Y60.505 E3.34750
G1 X48.939 Y60.200 E3.36009
G1 X48.823 Y60.108 E3.36580
G1 X48.875 Y49.912 E3.75824
G1 X49.199 Y49.214 E3.78785
G1 X49.981 Y48.800 E3.82192
G1 X50.200 Y48.970 E3.83258
G1 X50.378 Y48.800 E3.84202
G1 X50.600 Y48.969 E3.85276
G1 X50.774 Y48.801 E3.86208
G1 X51.000 Y48.968 E3.87291
G1 X51.170 Y48.801 E3.88210
G1 X51.400 Y48.968 E3.89302
G1 X51.567 Y48.802 E3.90208
G1 X51.800 Y48.967 E3.91307
G1 X51.963 Y48.802 E3.92200
G1 X52.200 Y48.966 E3.93308
G1 X52.360 Y48.803 E3.94187
G1 X52.600 Y48.965 E3.95303
G1 X52.756 Y48.803 E3.96169
G1 X53.000 Y48.964 E3.97293
G1 X53.152 Y48.804 E3.98144
G1 X53.400 Y48.963 E3.99277
G1 X53.549 Y48.805 E4.00113
G1 X53.800 Y48.962 E4.01254
G1 X53.945 Y48.805 E4.02076
G1 X54.200 Y48.961 E4.03224
G1 X54.342 Y48.806 E4.04031
G1 X54.600 Y48.960 E4.05188
G1 X54.738 Y48.807 E4.05980
G1 X55.000 Y48.958 E4.07144
G1 X55.135 Y48.808 E4.07921
G1 X55.400 Y48.957 E4.09093
G1 X55.531 Y48.809 E4.09854
G1 X55.800 Y48.956 E4.11033
G1 X55.927 Y48.810 E4.11779
G1 X56.200 Y48.954 E4.12966
G1 X56.324 Y48.811 E4.13695
G1 X56.600 Y48.953 E4.14890
G1 X56.720 Y48.812 E4.15603
G1 X57.000 Y48.951 E4.16806
G1 X57.117 Y48.813 E4.17502
G1 X57.400 Y48.950 E4.18712
G1 X57.513 Y48.814 E4.19391
G1 X57.800 Y48.948 E4.20610
G1 X57.909 Y48.816 E4.21271
G1 X58.200 Y48.946 E4.22498
G1 X58.306 Y48.817 E4.23142
G1 X58.600 Y48.945 E4.24376
G1 X58.702 Y48.818 E4.25003
G1 X59.000 Y48.943 E4.26245
G1 X59.099 Y48.820 E4.26853
G1 X59.400 Y48.941 E4.28104
G1 X59.495 Y48.821 E4.28694
G1 X59.800 Y48.939 E4.29952
G1 X59.892 Y48.823 E4.30524
G1 X70.088 Y48.875 E4.69768
G1 X70.786 Y49.199 E4.72729
G1 X71.144 Y49.875 E4.75674
M104 S175 ; set temperature
M140 S45 ; set bed temperature
G1 F1800.000 E3.75674
G92 E0
G1 Z0.600 F4800.000
G1 X71.177 Y49.957
G1 F1800.000 E1.00000
G1 X71.054 Y50.862 F2400.000 E1.01570
G1 X71.179 Y51.003 E1.01893
G1 X71.054 Y51.207 E1.02305
G1 X71.180 Y51.352 E1.02634
G1 X71.054 Y51.552 E1.03041
G1 X71.180 Y51.700 E1.03376
G1 X71.054 Y51.897 E1.03778
G1 X71.181 Y52.049 E1.04119
G1 X71.054 Y52.241 E1.04515
G1 X71.181 Y52.397 E1.04862
G1 X71.054 Y52.586 E1.05253
G1 X71.182 Y52.746 E1.05605
G1 X71.054 Y52.931 E1.05992
G1 X71.182 Y53.094 E1.06349
G1 X71.054 Y53.276 E1.06730
G1 X71.182 Y53.443 E1.07092
G1 X71.054 Y53.621 E1.07469
G1 X71.182 Y53.792 E1.07836
G1 X71.054 Y53.966 E1.08207
G1 X71.182 Y54.140 E1.08579
G1 X71.054 Y54.310 E1.08945
G1 X71.182 Y54.489 E1.09322
G1 X71.055 Y54.655 E1.09682
G1 X71.182 Y54.837 E1.10064
G1 X71.055 Y55.000 E1.10418
G1 X71.182 Y55.186 E1.10805
G1 X71.056 Y55.345 E1.11154
G1 X71.182 Y55.534 E1.11545
G1 X71.056 Y55.690 E1.11889
G1 X71.182 Y55.883 E1.12285
G1 X71.057 Y56.034 E1.12622
G1 X71.181 Y56.232 E1.13023
G1 X71.057 Y56.379 E1.13354
G1 X71.181 Y56.580 E1.13760
G1 X71.058 Y56.724 E1.14085
G1 X71.181 Y56.929 E1.14495
G1 X71.059 Y57.069 E1.14814
G1 X71.180 Y57.277 E1.15228
G1 X71.060 Y57.414 E1.15541
G1 X71.180 Y57.626 E1.15960
G1 X71.061 Y57.759 E1.16266
G1 X71.179 Y57.974 E1.16689
G1 X71.061 Y58.103 E1.16990
G1 X71.178 Y58.323 E1.17417
G1 X71.062 Y58.448 E1.17711
G1 X71.178 Y58.672 E1.18142
G1 X71.063 Y58.793 E1.18429
G1 X71.177 Y59.020 E1.18865
G1 X71.065 Y59.138 E1.19145
G1 X71.176 Y59.369 E1.19586
G1 X71.066 Y59.483 E1.19859
G1 X71.175 Y59.717 E1.20304
G1 X71.067 Y59.828 E1.20570
G1 X71.174 Y60.066 E1.21019
G1 X71.068 Y60.172 E1.21278
G1 X71.173 Y60.414 E1.21731
G1 X71.070 Y60.517 E1.21983
G1 X71.172 Y60.763 E1.22441
G1 X71.071 Y60.862 E1.22685
G1 X71.125 Y70.088 E1.38543
G1 X70.801 Y70.786 E1.39866
G1 X70.098 Y71.125 E1.41207
G1 X49.912 Y71.125 E1.75906
G1 X49.214 Y70.801 E1.77229
G1 X48.823 Y70.043 E1.78696
G1 X48.945 Y69.828 E1.79121
G1 X48.822 Y69.694 E1.79433
G1 X48.945 Y69.483 E1.79854
G1 X48.821 Y69.346 E1.80172
G1 X48.946 Y69.138 E1.80588
G1 X48.821 Y68.997 E1.80912
G1 X48.946 Y68.793 E1.81323
G1 X48.820 Y68.648 E1.81653
G1 X48.946 Y68.448 E1.82059
G1 X48.820 Y68.300 E1.82394
G1 X48.946 Y68.103 E1.82796
G1 X48.819 Y67.951 E1.83137
G1 X48.946 Y67.759 E1.83534
G1 X48.819 Y67.603 E1.83880
G1 X48.946 Y67.414 E1.84272
G1 X48.818 Y67.254 E1.84623
G1 X48.946 Y67.069 E1.85010
G1 X48.818 Y66.906 E1.85367
G1 X48.946 Y66.724 E1.85749
G1 X48.818 Y66.557 E1.86111
G1 X48.946 Y66.379 E1.86487
G1 X48.818 Y66.208 E1.86854
G1 X48.946 Y66.034 E1.87225
G1 X48.818 Y65.860 E1.87597
G1 X48.946 Y65.690 E1.87963
G1 X48.818 Y65.511 E1.88340
G1 X48.945 Y65.345 E1.88700
G1 X48.818 Y65.163 E1.89082
G1 X48.945 Y65.000 E1.89437
G1 X48.818 Y64.814 E1.89823
G1 X48.944 Y64.655 E1.90172
G1 X48.818 Y64.466 E1.90564
G1 X48.944 Y64.310 E1.90907
G1 X48.818 Y64.117 E1.91303
G1 X48.943 Y63.966 E1.91640
G1 X48.819 Y63.768 E1.92041
G1 X48.943 Y63.621 E1.92373
G1 X48.819 Y63.420 E1.92778
G1 X48.942 Y63.276 E1.93103
G1 X48.819 Y63.071 E1.93513
G1 X48.941 Y62.931 E1.93832
G1 X48.820 Y62.723 E1.94246
G1 X48.940 Y62.586 E1.94559
G1 X48.820 Y62.374 E1.94978
G1 X48.939 Y62.241 E1.95285
G1 X48.821 Y62.026 E1.95708
G1 X48.939 Y61.897 E1.96008
G1 X48.822 Y61.677 E1.96435
G1 X48.938 Y61.552 E1.96729
G1 X48.822 Y61.328 E1.97161
G1 X48.937 Y61.207 E1.97448
G1 X48.823 Y60.980 E1.97884
G1 X48.935 Y60.862 E1.98164
G1 X48.824 Y60.631 E1.98604
G1 X48.934 Y60.517 E1.98877
G1 X48.825 Y60.283 E1.99322
G1 X48.933 Y60.172 E1.99588
G1 X48.826 Y59.934 E2.00037
G1 X48.932 Y59.828 E2.00296
G1 X48.827 Y59.586 E2.00750
G1 X48.930 Y59.483 E2.01001
G1 X48.828 Y59.237 E2.01459
G1 X48.929 Y59.138 E2.01703
G1 X48.875 Y49.912 E2.17562
G1 X49.088 Y49.348 E2.18598
G1 X49.339 Y49.155 E2.19141
G1 X49.957 Y48.823 E2.20348
G1 X50.862 Y48.946 E2.21918
G1 X51.003 Y48.821 E2.22242
G1 X51.207 Y48.946 E2.22653
G1 X51.352 Y48.820 E2.22983
G1 X51.552 Y48.946 E2.23389
G1 X51.700 Y48.820 E2.23724
G1 X51.897 Y48.946 E2.24126
G1 X52.049 Y48.819 E2.24467
G1 X52.241 Y48.946 E2.24864
