; generated by Slic3r 0.9.2 on 2012-11-09 at 20:29:06

; layer_height = 0.3
; perimeters = 1
; solid_layers = 3
; fill_density = 0.3
; perimeter_speed = 60
; infill_speed = 70
; travel_speed = 90
; scale = 1
; nozzle_diameter = 0.5
; filament_diameter = 3
; extrusion_multiplier = 1
; single wall width = 0.70mm
; first layer single wall width = 0.60mm

M190 S55 ; wait for bed temperature to be reached
M104 S175 ; set temperature
G28 ; home all axes
M109 S175 ; wait for temperature to be reached
G90 ; use absolute coordinates
G21 ; set units to millimeters
G92 E0
M82 ; use absolute distances for extrusion
G1 Z0.200 F5400.000
G1 X37.168 Y56.132
G1 F1800.000 E1.00000
G1 X48.032 Y56.132 F1080.000 E1.26677
G1 X49.068 Y57.168 E1.30273
G1 X49.068 Y68.032 E1.56949
G1 X48.032 Y69.068 E1.60545
G1 X37.168 Y69.068 E1.87222
G1 X36.132 Y68.032 E1.90818
G1 X36.132 Y57.168 E2.17495
G1 X37.104 Y56.196 E2.20870
G1 F1800.000 E1.20870
G92 E0
G1 X70.932 Y51.968 F5400.000
G1 F1800.000 E1.00000
G1 X71.968 Y50.932 F1080.000 E1.03596
G1 X82.832 Y50.932 E1.30273
G1 X83.868 Y51.968 E1.33869
G1 X83.868 Y62.832 E1.60545
G1 X82.832 Y63.868 E1.64141
G1 X71.968 Y63.868 E1.90818
G1 X70.932 Y62.832 E1.94414
G1 X70.932 Y52.058 E2.20870
G1 F1800.000 E1.20870
G92 E0
G1 X48.479 Y57.412 F5400.000
G1 F1800.000 E1.00000
G1 X48.479 Y67.788 F1080.000 E1.25478
G1 X47.788 Y68.479 E1.27875
G1 X37.412 Y68.479 E1.53353
G1 X36.721 Y67.788 E1.55751
G1 X36.721 Y57.412 E1.81229
G1 X37.412 Y56.721 E1.83626
G1 X47.788 Y56.721 E2.09104
G1 X48.415 Y57.348 E2.11280
G1 F1800.000 E1.11280
G92 E0
G1 X71.521 Y52.212 F5400.000
G1 F1800.000 E1.00000
G1 X72.212 Y51.521 F1080.000 E1.02397
G1 X82.588 Y51.521 E1.27875
G1 X83.279 Y52.212 E1.30273
G1 X83.279 Y62.588 E1.55751
G1 X82.588 Y63.279 E1.58148
G1 X72.212 Y63.279 E1.83626
G1 X71.521 Y62.588 E1.86023
G1 X71.521 Y52.302 E2.11280
G1 F1800.000 E1.11280
G92 E0
G1 X47.889 Y57.656 F5400.000
G1 F1800.000 E1.00000
G1 X47.889 Y67.544 F1080.000 E1.24279
G1 X47.544 Y67.889 E1.25478
G1 X37.656 Y67.889 E1.49757
G1 X37.311 Y67.544 E1.50956
G1 X37.311 Y57.656 E1.75235
G1 X37.656 Y57.311 E1.76434
G1 X47.544 Y57.311 E2.00714
G1 X47.826 Y57.592 E2.01691
G1 F1800.000 E1.01691
G92 E0
G1 X72.111 Y62.344 F5400.000
G1 F1800.000 E1.00000
G1 X72.111 Y52.456 F1080.000 E1.24279
G1 X72.456 Y52.111 E1.25478
G1 X82.344 Y52.111 E1.49757
G1 X82.689 Y52.456 E1.50956
G1 X82.689 Y62.344 E1.75235
G1 X82.344 Y62.689 E1.76434
G1 X72.456 Y62.689 E2.00714
G1 X72.174 Y62.408 E2.01691
G1 F1800.000 E1.01691
G92 E0
G1 X46.711 Y66.711 F5400.000
G1 F1800.000 E1.00000
G1 X38.489 Y66.711 F648.000 E1.20187
G1 X38.489 Y58.489 E1.40374
G1 X46.711 Y58.489 E1.60561
G1 X46.711 Y66.621 E1.80527
G1 X47.300 Y67.300 F5400.000
G1 X37.900 Y67.300 F648.000 E2.03608
G1 X37.900 Y57.900 E2.26688
G1 X47.300 Y57.900 E2.49769
G1 X47.300 Y67.210 E2.72629
G1 F1800.000 E1.72629
G92 E0
G1 X39.248 Y66.291 F5400.000
G1 F1800.000 E1.00000
G1 X38.909 Y65.952 F720.000 E1.01239
G1 X38.909 Y65.071 E1.03510
G1 X40.129 Y66.291 E1.07960
G1 X41.009 Y66.291 E1.10231
G1 X38.909 Y64.191 E1.17894
G1 X38.909 Y63.311 E1.20165
G1 X41.889 Y66.291 E1.31038
G1 X42.770 Y66.291 E1.33309
G1 X38.909 Y62.430 E1.47394
G1 X38.909 Y61.550 E1.49666
G1 X43.650 Y66.291 E1.66962
G1 X44.531 Y66.291 E1.69233
G1 X38.909 Y60.669 E1.89742
G1 X38.909 Y59.789 E1.92012
G1 X45.411 Y66.291 E2.15732
G1 X46.291 Y66.291 E2.18003
G1 X38.909 Y58.909 E2.44934
G1 X39.789 Y58.909 E2.47205
G1 X46.291 Y65.411 E2.70924
G1 X46.291 Y64.531 E2.73195
G1 X40.669 Y58.909 E2.93704
G1 X41.550 Y58.909 E2.95975
G1 X46.291 Y63.650 E3.13272
G1 X46.291 Y62.770 E3.15542
G1 X42.430 Y58.909 E3.29628
G1 X43.311 Y58.909 E3.31899
G1 X46.291 Y61.889 E3.42772
G1 X46.291 Y61.009 E3.45043
G1 X44.191 Y58.909 E3.52706
G1 X45.071 Y58.909 E3.54977
G1 X46.291 Y60.129 E3.59427
G1 X46.291 Y59.248 E3.61698
G1 X45.952 Y58.909 E3.62936
G1 F1800.000 E2.62936
G92 E0
G1 X81.511 Y53.289 F5400.000
G1 F1800.000 E1.00000
G1 X81.511 Y61.511 F648.000 E1.20187
G1 X73.289 Y61.511 E1.40374
G1 X73.289 Y53.289 E1.60561
G1 X81.421 Y53.289 E1.80527
G1 X82.100 Y52.700 F5400.000
G1 X82.100 Y62.100 F648.000 E2.03608
G1 X72.700 Y62.100 E2.26688
G1 X72.700 Y52.700 E2.49769
G1 X82.010 Y52.700 E2.72629
G1 X80.752 Y53.709 F5400.000
G1 X81.091 Y54.048 F720.000 E2.73868
G1 X81.091 Y54.929 E2.76138
G1 X79.871 Y53.709 E2.80589
G1 X78.991 Y53.709 E2.82860
G1 X81.091 Y55.809 E2.90522
G1 X81.091 Y56.689 E2.92793
G1 X78.111 Y53.709 E3.03667
G1 X77.230 Y53.709 E3.05938
G1 X81.091 Y57.570 E3.20023
G1 X81.091 Y58.450 E3.22294
G1 X76.350 Y53.709 E3.39591
G1 X75.469 Y53.709 E3.41862
G1 X81.091 Y59.331 E3.62370
G1 X81.091 Y60.211 E3.64641
G1 X74.589 Y53.709 E3.88361
G1 X73.709 Y53.709 E3.90631
G1 X81.091 Y61.091 E4.17562
G1 X80.211 Y61.091 E4.19833
G1 X73.709 Y54.589 E4.43553
G1 X73.709 Y55.469 E4.45824
G1 X79.331 Y61.091 E4.66332
G1 X78.450 Y61.091 E4.68603
G1 X73.709 Y56.350 E4.85900
G1 X73.709 Y57.230 E4.88171
G1 X77.570 Y61.091 E5.02256
G1 X76.689 Y61.091 E5.04527
G1 X73.709 Y58.111 E5.15401
G1 X73.709 Y58.991 E5.17672
G1 X75.809 Y61.091 E5.25334
G1 X74.929 Y61.091 E5.27605
G1 X73.709 Y59.871 E5.32056
G1 X73.709 Y60.752 E5.34327
G1 X74.048 Y61.091 E5.35565
M140 S50 ; set bed temperature
G1 F1800.000 E4.35565
G92 E0
G1 Z0.500 F5400.000
G1 X37.948 Y67.252
G1 F1800.000 E1.00000
G1 X37.948 Y57.948 F2160.000 E1.25842
G1 X47.252 Y57.948 E1.51685
G1 X47.252 Y67.252 E1.77527
G1 X38.053 Y67.252 E2.03080
G1 F1800.000 E1.03080
G92 E0
G1 X38.427 Y58.821 F5400.000
G1 F1800.000 E1.00000
G1 X38.821 Y58.427 F2400.000 E1.01606
G1 X39.815 Y58.427 E1.04468
G1 X38.427 Y59.815 E1.10122
G1 X38.427 Y60.809 E1.12985
G1 X40.809 Y58.427 E1.22686
G1 X41.803 Y58.427 E1.25549
G1 X38.427 Y61.803 E1.39299
G1 X38.427 Y62.797 E1.42162
G1 X42.797 Y58.427 E1.59959
G1 X43.791 Y58.427 E1.62822
G1 X38.427 Y63.791 E1.84668
G1 X38.427 Y64.786 E1.87530
G1 X44.786 Y58.427 E2.13424
G1 X45.779 Y58.426 E2.16285
G1 X38.426 Y65.779 E2.46227
G1 X38.427 Y66.773 E2.49089
G1 X46.773 Y58.427 E2.83078
G1 X46.773 Y59.421 E2.85940
G1 X39.421 Y66.773 E3.15882
G1 X40.415 Y66.773 E3.18745
G1 X46.773 Y60.415 E3.44639
G1 X46.773 Y61.409 E3.47501
G1 X41.409 Y66.773 E3.69347
G1 X42.403 Y66.773 E3.72210
G1 X46.773 Y62.403 E3.90007
G1 X46.773 Y63.397 E3.92870
G1 X43.397 Y66.773 E4.06620
G1 X44.391 Y66.774 E4.09482
G1 X46.774 Y64.391 E4.19184
G1 X46.773 Y65.385 E4.22045
G1 X45.385 Y66.773 E4.27698
G1 X46.379 Y66.773 E4.30561
G1 X46.773 Y66.379 E4.32167
G1 F1800.000 E3.32167
G92 E0
G1 X82.052 Y62.052 F5400.000
G1 F1800.000 E1.00000
G1 X72.748 Y62.052 F2160.000 E1.25842
G1 X72.748 Y52.748 E1.51685
G1 X82.052 Y52.748 E1.77527
G1 X82.052 Y61.947 E2.03080
G1 X81.573 Y61.179 F5400.000
G1 X81.179 Y61.573 F2400.000 E2.04685
G1 X80.185 Y61.573 E2.07548
G1 X81.573 Y60.185 E2.13202
G1 X81.574 Y59.191 E2.16062
G1 X79.191 Y61.574 E2.25764
G1 X78.197 Y61.573 E2.28627
G1 X81.573 Y58.197 E2.42377
G1 X81.573 Y57.203 E2.45239
G1 X77.203 Y61.573 E2.63037
G1 X76.209 Y61.573 E2.65899
G1 X81.573 Y56.209 E2.87745
G1 X81.573 Y55.215 E2.90608
G1 X75.215 Y61.573 E3.16502
G1 X74.221 Y61.573 E3.19364
G1 X81.573 Y54.221 E3.49306
G1 X81.573 Y53.227 E3.52168
G1 X73.227 Y61.573 E3.86157
G1 X73.226 Y60.579 E3.89020
G1 X80.579 Y53.226 E4.18962
G1 X79.586 Y53.227 E4.21822
G1 X73.227 Y59.586 E4.47716
G1 X73.227 Y58.591 E4.50579
G1 X78.591 Y53.227 E4.72424
G1 X77.597 Y53.227 E4.75287
G1 X73.227 Y57.597 E4.93085
G1 X73.227 Y56.603 E4.95947
G1 X76.603 Y53.227 E5.09697
G1 X75.609 Y53.227 E5.12560
G1 X73.227 Y55.609 E5.22262
G1 X73.227 Y54.615 E5.25124
G1 X74.615 Y53.227 E5.30778
G1 X73.621 Y53.227 E5.33641
G1 X73.227 Y53.621 E5.35246
G1 F1800.000 E4.35246
G92 E0
G1 Z0.800 F5400.000
G1 X37.948 Y57.948
G1 F1800.000 E1.00000
G1 X47.252 Y57.948 F2160.000 E1.25842
G1 X47.252 Y67.252 E1.51685
G1 X37.948 Y67.252 E1.77527
G1 X37.948 Y58.053 E2.03080
G1 F1800.000 E1.03080
G92 E0
G1 X46.379 Y58.427 F5400.000
G1 F1800.000 E1.00000
G1 X46.773 Y58.821 F2400.000 E1.01606
G1 X46.773 Y59.815 E1.04468
G1 X45.385 Y58.427 E1.10122
G1 X44.391 Y58.427 E1.12984
G1 X46.773 Y60.809 E1.22686
G1 X46.773 Y61.803 E1.25548
G1 X43.397 Y58.427 E1.39298
G1 X42.403 Y58.427 E1.42161
G1 X46.773 Y62.797 E1.59958
G1 X46.773 Y63.791 E1.62821
G1 X41.409 Y58.427 E1.84666
G1 X40.415 Y58.427 E1.87529
G1 X46.773 Y64.785 E2.13423
G1 X46.773 Y65.779 E2.16285
G1 X39.421 Y58.427 E2.46227
G1 X38.427 Y58.427 E2.49089
G1 X46.773 Y66.773 E2.83078
G1 X45.779 Y66.773 E2.85940
G1 X38.427 Y59.421 E3.15882
G1 X38.427 Y60.415 E3.18744
G1 X44.785 Y66.773 E3.44638
G1 X43.791 Y66.773 E3.47500
G1 X38.427 Y61.409 E3.69346
G1 X38.427 Y62.403 E3.72209
G1 X42.797 Y66.773 E3.90006
G1 X41.803 Y66.773 E3.92868
G1 X38.427 Y63.397 E4.06618
G1 X38.427 Y64.391 E4.09481
G1 X40.809 Y66.773 E4.19182
G1 X39.815 Y66.773 E4.22045
G1 X38.427 Y65.385 E4.27699
G1 X38.427 Y66.379 E4.30561
G1 X38.821 Y66.773 E4.32167
G1 F1800.000 E3.32167
G92 E0
G1 X72.748 Y62.052 F5400.000
G1 F1800.000 E1.00000
G1 X72.748 Y52.748 F2160.000 E1.25842
G1 X82.052 Y52.748 E1.51685
G1 X82.052 Y62.052 E1.77527
G1 X72.853 Y62.052 E2.03080
G1 X73.621 Y61.573 F5400.000
G1 X73.227 Y61.179 F2400.000 E2.04685
G1 X73.227 Y60.185 E2.07548
G1 X74.615 Y61.573 E2.13201
G1 X75.609 Y61.573 E2.16064
G1 X73.227 Y59.191 E2.25766
G1 X73.227 Y58.197 E2.28628
G1 X76.603 Y61.573 E2.42378
G1 X77.597 Y61.573 E2.45240
G1 X73.227 Y57.203 E2.63038
G1 X73.227 Y56.209 E2.65900
G1 X78.591 Y61.573 E2.87746
G1 X79.585 Y61.573 E2.90608
G1 X73.227 Y55.215 E3.16502
G1 X73.227 Y54.221 E3.19364
G1 X80.579 Y61.573 E3.49306
G1 X81.573 Y61.573 E3.52168
G1 X73.227 Y53.227 E3.86157
G1 X74.221 Y53.227 E3.89019
G1 X81.573 Y60.579 E4.18961
G1 X81.573 Y59.585 E4.21824
G1 X75.215 Y53.227 E4.47717
G1 X76.209 Y53.227 E4.50580
G1 X81.573 Y58.591 E4.72426
G1 X81.573 Y57.597 E4.75288
G1 X77.203 Y53.227 E4.93086
G1 X78.197 Y53.227 E4.95948
G1 X81.573 Y56.603 E5.09698
G1 X81.573 Y55.609 E5.12560
G1 X79.191 Y53.227 E5.22262
G1 X80.185 Y53.227 E5.25125
G1 X81.573 Y54.615 E5.30778
G1 X81.573 Y53.621 E5.33641
G1 X81.179 Y53.227 E5.35246
G1 F1800.000 E4.35246
G92 E0
G1 Z1.100 F5400.000
G1 X47.252 Y57.948
G1 F1800.000 E1.00000
G1 X47.252 Y67.252 F2160.000 E1.25842
G1 X37.948 Y67.252 E1.51685
G1 X37.948 Y57.948 E1.77527
G1 X47.147 Y57.948 E2.03080
G1 F1800.000 E1.03080
G92 E0
G1 X46.773 Y66.379 F5400.000
G1 F1800.000 E1.00000
G1 X46.379 Y66.773 F2400.000 E1.01606
G1 X45.385 Y66.773 E1.04468
G1 X46.773 Y65.385 E1.10122
G1 X46.774 Y64.391 E1.12983
G1 X44.391 Y66.774 E1.22684
G1 X43.397 Y66.773 E1.25547
G1 X46.773 Y63.397 E1.39297
G1 X46.773 Y62.403 E1.42159
G1 X42.403 Y66.773 E1.59957
G1 X41.409 Y66.773 E1.62820
G1 X46.773 Y61.409 E1.84665
G1 X46.773 Y60.415 E1.87528
G1 X40.415 Y66.773 E2.13422
G1 X39.421 Y66.773 E2.16284
G1 X46.773 Y59.421 E2.46226
G1 X46.773 Y58.427 E2.49088
G1 X38.427 Y66.773 E2.83077
G1 X38.427 Y65.779 E2.85939
G1 X45.779 Y58.427 E3.15881
G1 X44.786 Y58.427 E3.18741
G1 X38.427 Y64.786 E3.44635
G1 X38.427 Y63.791 E3.47497
G1 X43.791 Y58.427 E3.69343
G1 X42.797 Y58.427 E3.72206
G1 X38.427 Y62.797 E3.90003
G1 X38.427 Y61.803 E3.92866
G1 X41.803 Y58.427 E4.06616
G1 X40.809 Y58.427 E4.09478
G1 X38.427 Y60.809 E4.19180
G1 X38.427 Y59.815 E4.22043
G1 X39.815 Y58.427 E4.27697
G1 X38.821 Y58.427 E4.30559
G1 X38.427 Y58.821 E4.32165
G1 F1800.000 E3.32165
G92 E0
G1 X72.748 Y52.748 F5400.000
G1 F1800.000 E1.00000
G1 X82.052 Y52.748 F2160.000 E1.25842
G1 X82.052 Y62.052 E1.51685
G1 X72.748 Y62.052 E1.77527
G1 X72.748 Y52.853 E2.03080
G1 X73.227 Y53.621 F5400.000
G1 X73.621 Y53.227 F2400.000 E2.04685
G1 X74.615 Y53.227 E2.07548
G1 X73.227 Y54.615 E2.13201
G1 X73.227 Y55.609 E2.16064
G1 X75.609 Y53.227 E2.25766
G1 X76.603 Y53.227 E2.28629
G1 X73.227 Y56.603 E2.42379
G1 X73.227 Y57.597 E2.45241
G1 X77.597 Y53.227 E2.63039
G1 X78.591 Y53.227 E2.65901
G1 X73.227 Y58.591 E2.87747
G1 X73.227 Y59.586 E2.90610
G1 X79.586 Y53.227 E3.16503
G1 X80.579 Y53.227 E3.19364
G1 X73.227 Y60.579 E3.49305
G1 X73.227 Y61.573 E3.52168
G1 X81.573 Y53.227 E3.86156
G1 X81.573 Y54.221 E3.89019
G1 X74.221 Y61.573 E4.18960
G1 X75.215 Y61.573 E4.21823
G1 X81.573 Y55.215 E4.47716
G1 X81.573 Y56.209 E4.50579
G1 X76.209 Y61.573 E4.72425
G1 X77.203 Y61.573 E4.75287
G1 X81.573 Y57.203 E4.93085
G1 X81.573 Y58.197 E4.95947
G1 X78.197 Y61.573 E5.09697
G1 X79.191 Y61.574 E5.12560
G1 X81.574 Y59.191 E5.22262
G1 X81.573 Y60.185 E5.25122
G1 X80.185 Y61.573 E5.30776
G1 X81.179 Y61.573 E5.33639
G1 X81.573 Y61.179 E5.35244
G1 F1800.000 E4.35244
G92 E0
G1 Z1.400 F5400.000
G1 X47.252 Y67.252
G1 F1800.000 E1.00000
G1 X37.948 Y67.252 F2160.000 E1.25842
G1 X37.948 Y57.948 E1.51685
G1 X47.252 Y57.948 E1.77527
G1 X47.252 Y67.147 E2.03080
G1 F1800.000 E1.03080
G92 E0
G1 X38.821 Y66.773 F5400.000
G1 F1800.000 E1.00000
G1 X38.427 Y66.379 F2400.000 E1.01606
G1 X38.427 Y65.385 E1.04468
G1 X39.815 Y66.773 E1.10122
G1 X40.809 Y66.773 E1.12984
G1 X38.427 Y64.391 E1.22686
G1 X38.427 Y63.397 E1.25548
G1 X41.803 Y66.773 E1.39298
G1 X42.797 Y66.773 E1.42161
G1 X38.427 Y62.403 E1.59958
G1 X38.427 Y61.409 E1.62820
G1 X43.791 Y66.773 E1.84666
G1 X44.785 Y66.773 E1.87529
G1 X38.427 Y60.415 E2.13422
G1 X38.427 Y59.421 E2.16284
G1 X45.779 Y66.773 E2.46226
G1 X46.773 Y66.773 E2.49088
G1 X38.427 Y58.427 E2.83077
G1 X39.421 Y58.427 E2.85939
G1 X46.773 Y65.779 E3.15880
G1 X46.773 Y64.785 E3.18742
G1 X40.415 Y58.427 E3.44636
G1 X41.409 Y58.427 E3.47499
G1 X46.773 Y63.791 E3.69344
G1 X46.773 Y62.797 E3.72207
G1 X42.403 Y58.427 E3.90004
G1 X43.397 Y58.427 E3.92867
G1 X46.773 Y61.803 E4.06617
G1 X46.773 Y60.809 E4.09479
G1 X44.391 Y58.427 E4.19181
G1 X45.385 Y58.427 E4.22043
G1 X46.773 Y59.815 E4.27697
G1 X46.773 Y58.821 E4.30559
G1 X46.379 Y58.427 E4.32165
G1 F1800.000 E3.32165
G92 E0
G1 X82.052 Y52.748 F5400.000
G1 F1800.000 E1.00000
G1 X82.052 Y62.052 F2160.000 E1.25842
G1 X72.748 Y62.052 E1.51685
G1 X72.748 Y52.748 E1.77527
G1 X81.947 Y52.748 E2.03080
G1 X81.179 Y53.227 F5400.000
G1 X81.573 Y53.621 F2400.000 E2.04685
G1 X81.573 Y54.615 E2.07548
G1 X80.185 Y53.227 E2.13201
G1 X79.191 Y53.227 E2.16064
G1 X81.573 Y55.609 E2.25766
G1 X81.573 Y56.603 E2.28628
G1 X78.197 Y53.227 E2.42378
G1 X77.203 Y53.227 E2.45240
G1 X81.573 Y57.597 E2.63038
G1 X81.573 Y58.591 E2.65900
G1 X76.209 Y53.227 E2.87746
G1 X75.215 Y53.227 E2.90608
G1 X81.573 Y59.585 E3.16502
G1 X81.573 Y60.579 E3.19364
G1 X74.221 Y53.227 E3.49305
G1 X73.227 Y53.227 E3.52168
G1 X81.573 Y61.573 E3.86156
G1 X80.579 Y61.573 E3.89019
G1 X73.227 Y54.221 E4.18960
G1 X73.227 Y55.215 E4.21822
G1 X79.585 Y61.573 E4.47716
G1 X78.591 Y61.573 E4.50578
G1 X73.227 Y56.209 E4.72424
G1 X73.227 Y57.203 E4.75286
G1 X77.597 Y61.573 E4.93084
G1 X76.603 Y61.573 E4.95946
G1 X73.227 Y58.197 E5.09696
G1 X73.227 Y59.191 E5.12558
G1 X75.609 Y61.573 E5.22260
G1 X74.615 Y61.573 E5.25123
G1 X73.227 Y60.185 E5.30776
G1 X73.227 Y61.179 E5.33639
G1 X73.621 Y61.573 E5.35244
G1 F1800.000 E4.35244
G92 E0
G1 Z1.700 F5400.000
G1 X37.948 Y67.252
G1 F1800.000 E1.00000
G1 X37.948 Y57.948 F2160.000 E1.25842
G1 X47.252 Y57.948 E1.51685
G1 X47.252 Y67.252 E1.77527
G1 X38.053 Y67.252 E2.03080
G1 F1800.000 E1.03080
G92 E0
G1 X38.427 Y58.821 F5400.000
G1 F1800.000 E1.00000
G1 X38.821 Y58.427 F2400.000 E1.01606
G1 X39.815 Y58.427 E1.04468
G1 X38.427 Y59.815 E1.10122
G1 X38.427 Y60.809 E1.12985
G1 X40.809 Y58.427 E1.22686
G1 X41.803 Y58.427 E1.25549
G1 X38.427 Y61.803 E1.39299
G1 X38.427 Y62.797 E1.42162
G1 X42.797 Y58.427 E1.59959
G1 X43.791 Y58.427 E1.62822
G1 X38.427 Y63.791 E1.84667
G1 X38.427 Y64.786 E1.87530
G1 X44.786 Y58.427 E2.13424
G1 X45.779 Y58.427 E2.16284
G1 X38.427 Y65.779 E2.46226
G1 X38.427 Y66.773 E2.49088
G1 X46.773 Y58.427 E2.83077
G1 X46.773 Y59.421 E2.85939
G1 X39.421 Y66.773 E3.15881
G1 X40.415 Y66.773 E3.18743
G1 X46.773 Y60.415 E3.44637
G1 X46.773 Y61.409 E3.47500
G1 X41.409 Y66.773 E3.69345
G1 X42.403 Y66.773 E3.72208
G1 X46.773 Y62.403 E3.90005
G1 X46.773 Y63.397 E3.92868
G1 X43.397 Y66.773 E4.06618
G1 X44.391 Y66.774 E4.09480
G1 X46.774 Y64.391 E4.19182
G1 X46.773 Y65.385 E4.22043
G1 X45.385 Y66.773 E4.27697
G1 X46.379 Y66.773 E4.30559
G1 X46.773 Y66.379 E4.32165
G1 F1800.000 E3.32165
