; generated by Slic3r 0.9.2 on 2012-10-04 at 19:29:36

; layer_height = 0.2
; perimeters = 1
; solid_layers = 3
; fill_density = 1
; perimeter_speed = 45
; infill_speed = 70
; travel_speed = 130
; scale = 1
; nozzle_diameter = 0.5
; filament_diameter = 3
; extrusion_multiplier = 1
; single wall width = 0.70mm
; first layer single wall width = 0.60mm

M190 S60 ; wait for bed temperature to be reached
G28 ; home all axes
G90 ; use absolute coordinates
G21 ; set units to millimeters
G92 E0
M82 ; use absolute distances for extrusion
G1 Z0.300 F7800.000
G1 X55.120 Y60.310
G1 F1800.000 E1.00000
G1 X55.510 Y59.930 F1350.000 E1.01337
G1 X55.940 Y59.580 E1.02698
G1 X56.390 Y59.260 E1.04054
G1 X56.860 Y58.980 E1.05397
G1 X57.350 Y58.740 E1.06737
G1 X57.860 Y58.530 E1.08091
G1 X58.650 Y58.300 E1.10112
G1 X58.920 Y58.240 E1.10791
G1 X59.740 Y58.130 E1.12822
G1 X60.290 Y58.110 E1.14174
G1 X70.240 Y58.130 E1.38605
G1 X71.060 Y58.240 E1.40636
G1 X72.120 Y58.530 E1.43335
G1 X72.630 Y58.740 E1.44689
G1 X73.120 Y58.980 E1.46029
G1 X73.590 Y59.260 E1.47372
G1 X74.260 Y59.750 E1.49410
G1 X74.860 Y60.310 E1.51425
G1 X75.230 Y60.720 E1.52782
G1 X75.720 Y61.390 E1.54820
G1 X76.000 Y61.860 E1.56163
G1 X76.240 Y62.350 E1.57503
G1 X76.450 Y62.860 E1.58857
G1 X76.680 Y63.650 E1.60877
G1 X76.740 Y63.920 E1.61556
G1 X76.850 Y64.740 E1.63588
G1 X76.850 Y75.240 E1.89369
G1 X76.740 Y76.060 E1.91401
G1 X76.450 Y77.120 E1.94099
G1 X76.240 Y77.630 E1.95454
G1 X76.000 Y78.120 E1.96793
G1 X75.720 Y78.590 E1.98137
G1 X75.230 Y79.260 E2.00175
G1 X74.670 Y79.860 E2.02190
G1 X74.260 Y80.230 E2.03546
G1 X73.590 Y80.720 E2.05584
G1 X73.120 Y81.000 E2.06927
G1 X72.630 Y81.240 E2.08267
G1 X72.120 Y81.450 E2.09621
G1 X71.330 Y81.680 E2.11642
G1 X71.060 Y81.740 E2.12321
G1 X70.240 Y81.850 E2.14352
G1 X69.690 Y81.870 E2.15704
G1 X59.740 Y81.850 E2.40135
G1 X58.920 Y81.740 E2.42166
G1 X57.860 Y81.450 E2.44865
G1 X57.350 Y81.240 E2.46219
G1 X56.860 Y81.000 E2.47559
G1 X56.390 Y80.720 E2.48902
G1 X55.720 Y80.230 E2.50940
G1 X55.120 Y79.670 E2.52955
G1 X54.750 Y79.260 E2.54311
G1 X54.260 Y78.590 E2.56350
G1 X53.980 Y78.120 E2.57693
G1 X53.740 Y77.630 E2.59033
G1 X53.530 Y77.120 E2.60387
G1 X53.300 Y76.330 E2.62407
G1 X53.240 Y76.060 E2.63086
G1 X53.130 Y75.240 E2.65118
G1 X53.130 Y64.740 E2.90899
G1 X53.240 Y63.920 E2.92931
G1 X53.530 Y62.860 E2.95629
G1 X53.740 Y62.350 E2.96984
G1 X53.980 Y61.860 E2.98323
G1 X54.260 Y61.390 E2.99667
G1 X54.750 Y60.720 E3.01705
G1 X55.058 Y60.375 E3.02840
G1 X55.540 Y60.730 F7800.000
G1 X55.920 Y60.360 F1350.000 E3.04142
G1 X56.330 Y60.020 E3.05450
G1 X57.000 Y59.580 E3.07418
G1 X57.710 Y59.230 E3.09362
G1 X58.200 Y59.040 E3.10652
G1 X58.710 Y58.890 E3.11957
G1 X58.970 Y58.830 E3.12613
G1 X59.760 Y58.720 E3.14571
G1 X60.290 Y58.700 E3.15873
G1 X70.220 Y58.720 E3.40256
G1 X71.010 Y58.830 E3.42214
G1 X71.780 Y59.040 E3.44174
G1 X72.270 Y59.230 E3.45464
G1 X72.980 Y59.580 E3.47408
G1 X73.650 Y60.020 E3.49376
G1 X74.060 Y60.360 E3.50684
G1 X74.620 Y60.920 E3.52628
G1 X74.960 Y61.330 E3.53936
G1 X75.400 Y62.000 E3.55904
G1 X75.750 Y62.710 E3.57848
G1 X75.940 Y63.200 E3.59138
G1 X76.090 Y63.710 E3.60444
G1 X76.150 Y63.970 E3.61099
G1 X76.260 Y64.760 E3.63057
G1 X76.260 Y75.220 E3.88741
G1 X76.150 Y76.010 E3.90699
G1 X75.940 Y76.780 E3.92659
G1 X75.750 Y77.270 E3.93950
G1 X75.400 Y77.980 E3.95893
G1 X74.960 Y78.650 E3.97861
G1 X74.620 Y79.060 E3.99169
G1 X74.060 Y79.620 E4.01114
G1 X73.650 Y79.960 E4.02422
G1 X72.980 Y80.400 E4.04390
G1 X72.270 Y80.750 E4.06333
G1 X71.780 Y80.940 E4.07624
G1 X71.270 Y81.090 E4.08929
G1 X71.010 Y81.150 E4.09584
G1 X70.220 Y81.260 E4.11543
G1 X69.690 Y81.280 E4.12845
G1 X59.760 Y81.260 E4.37227
G1 X58.970 Y81.150 E4.39186
G1 X58.200 Y80.940 E4.41145
G1 X57.710 Y80.750 E4.42436
G1 X57.000 Y80.400 E4.44379
G1 X56.330 Y79.960 E4.46348
G1 X55.920 Y79.620 E4.47655
G1 X55.360 Y79.060 E4.49600
G1 X55.020 Y78.650 E4.50908
G1 X54.580 Y77.980 E4.52876
G1 X54.230 Y77.270 E4.54820
G1 X54.040 Y76.780 E4.56110
G1 X53.890 Y76.270 E4.57415
G1 X53.830 Y76.010 E4.58071
G1 X53.720 Y75.220 E4.60029
G1 X53.720 Y64.760 E4.85712
G1 X53.830 Y63.970 E4.87671
G1 X54.040 Y63.200 E4.89631
G1 X54.230 Y62.710 E4.90921
G1 X54.580 Y62.000 E4.92865
G1 X55.020 Y61.330 E4.94833
G1 X55.360 Y60.920 E4.96141
G1 X55.478 Y60.795 E4.96562
G1 F1800.000 E3.96562
G92 E0
G1 X60.889 Y65.889 F7800.000
G1 F1800.000 E1.00000
G1 X69.111 Y65.889 F900.000 E1.20187
G1 X69.111 Y74.111 E1.40374
G1 X60.889 Y74.111 E1.60561
G1 X60.889 Y65.979 E1.80527
G1 X60.300 Y65.300 F7800.000
G1 X69.700 Y65.300 F900.000 E2.03608
G1 X69.700 Y74.700 E2.26688
G1 X60.300 Y74.700 E2.49769
G1 X60.300 Y65.390 E2.72629
G1 F1800.000 E1.72629
G92 E0
G1 X68.352 Y66.309 F7800.000
G1 F1800.000 E1.00000
G1 X68.691 Y66.648 F1200.000 E1.01239
G1 X68.691 Y67.529 E1.03510
G1 X67.471 Y66.309 E1.07960
G1 X66.591 Y66.309 E1.10231
G1 X68.691 Y68.409 E1.17893
G1 X68.691 Y69.289 E1.20164
G1 X65.711 Y66.309 E1.31038
G1 X64.830 Y66.309 E1.33309
G1 X68.691 Y70.170 E1.47394
G1 X68.691 Y71.050 E1.49665
G1 X63.950 Y66.309 E1.66962
G1 X63.069 Y66.309 E1.69233
G1 X68.691 Y71.931 E1.89741
G1 X68.691 Y72.811 E1.92012
G1 X62.189 Y66.309 E2.15732
G1 X61.309 Y66.309 E2.18003
G1 X68.691 Y73.691 E2.44934
G1 X67.811 Y73.691 E2.47204
G1 X61.309 Y67.189 E2.70924
G1 X61.309 Y68.069 E2.73195
G1 X66.931 Y73.691 E2.93704
G1 X66.050 Y73.691 E2.95975
G1 X61.309 Y68.950 E3.13272
G1 X61.309 Y69.830 E3.15543
G1 X65.170 Y73.691 E3.29628
G1 X64.289 Y73.691 E3.31899
G1 X61.309 Y70.711 E3.42773
G1 X61.309 Y71.591 E3.45044
G1 X63.409 Y73.691 E3.52706
G1 X62.529 Y73.691 E3.54977
G1 X61.309 Y72.471 E3.59427
G1 X61.309 Y73.352 E3.61698
G1 X61.648 Y73.691 E3.62937
M140 S50 ; set bed temperature
G1 F1800.000 E2.62937
G92 E0
G1 Z0.500 F7800.000
G1 X60.290 Y81.870
G1 F1800.000 E1.00000
G1 X59.740 Y81.850 F2700.000 E1.01023
G1 X58.920 Y81.740 E1.02561
G1 X57.860 Y81.450 E1.04604
G1 X57.350 Y81.240 E1.05630
G1 X56.860 Y81.000 E1.06644
G1 X56.390 Y80.720 E1.07661
G1 X55.720 Y80.230 E1.09205
G1 X55.120 Y79.670 E1.10730
G1 X54.750 Y79.260 E1.11757
G1 X54.260 Y78.590 E1.13300
G1 X53.980 Y78.120 E1.14318
G1 X53.740 Y77.630 E1.15332
G1 X53.530 Y77.120 E1.16357
G1 X53.300 Y76.330 E1.17887
G1 X53.240 Y76.060 E1.18401
G1 X53.130 Y75.240 E1.19939
G1 X53.130 Y64.740 E1.39461
G1 X53.240 Y63.920 E1.40999
G1 X53.530 Y62.860 E1.43042
G1 X53.740 Y62.350 E1.44067
G1 X53.980 Y61.860 E1.45082
G1 X54.260 Y61.390 E1.46099
G1 X54.750 Y60.720 E1.47642
G1 X55.310 Y60.120 E1.49168
G1 X55.720 Y59.750 E1.50195
G1 X56.390 Y59.260 E1.51738
G1 X56.860 Y58.980 E1.52755
G1 X57.350 Y58.740 E1.53769
G1 X57.860 Y58.530 E1.54795
G1 X58.650 Y58.300 E1.56324
G1 X58.920 Y58.240 E1.56839
G1 X59.740 Y58.130 E1.58377
G1 X60.290 Y58.110 E1.59400
G1 X70.240 Y58.130 E1.77899
G1 X71.060 Y58.240 E1.79437
G1 X72.120 Y58.530 E1.81480
G1 X72.630 Y58.740 E1.82505
G1 X73.120 Y58.980 E1.83520
G1 X73.590 Y59.260 E1.84537
G1 X74.260 Y59.750 E1.86080
G1 X74.860 Y60.310 E1.87606
G1 X75.230 Y60.720 E1.88633
G1 X75.720 Y61.390 E1.90176
G1 X76.000 Y61.860 E1.91193
G1 X76.240 Y62.350 E1.92207
G1 X76.450 Y62.860 E1.93233
G1 X76.680 Y63.650 E1.94763
G1 X76.740 Y63.920 E1.95277
G1 X76.850 Y64.740 E1.96815
G1 X76.850 Y75.240 E2.16336
G1 X76.740 Y76.060 E2.17874
G1 X76.450 Y77.120 E2.19917
G1 X76.240 Y77.630 E2.20943
G1 X76.000 Y78.120 E2.21957
G1 X75.720 Y78.590 E2.22974
G1 X75.230 Y79.260 E2.24517
G1 X74.670 Y79.860 E2.26043
G1 X74.260 Y80.230 E2.27070
G1 X73.590 Y80.720 E2.28613
G1 X73.120 Y81.000 E2.29630
G1 X72.630 Y81.240 E2.30645
G1 X72.120 Y81.450 E2.31670
G1 X71.330 Y81.680 E2.33200
G1 X71.060 Y81.740 E2.33714
G1 X70.240 Y81.850 E2.35252
G1 X69.690 Y81.870 E2.36275
G1 X60.395 Y81.870 E2.53556
G1 X60.290 Y81.280 F7800.000
G1 X59.760 Y81.260 F2700.000 E2.54542
G1 X58.970 Y81.150 E2.56025
G1 X58.200 Y80.940 E2.57509
G1 X57.710 Y80.750 E2.58486
G1 X57.000 Y80.400 E2.59958
G1 X56.330 Y79.960 E2.61448
G1 X55.920 Y79.620 E2.62438
G1 X55.360 Y79.060 E2.63911
G1 X55.020 Y78.650 E2.64901
G1 X54.580 Y77.980 E2.66391
G1 X54.230 Y77.270 E2.67863
G1 X54.040 Y76.780 E2.68840
G1 X53.890 Y76.270 E2.69828
G1 X53.830 Y76.010 E2.70324
G1 X53.720 Y75.220 E2.71807
G1 X53.720 Y64.760 E2.91254
G1 X53.830 Y63.970 E2.92737
G1 X54.040 Y63.200 E2.94221
G1 X54.230 Y62.710 E2.95198
G1 X54.580 Y62.000 E2.96669
G1 X55.020 Y61.330 E2.98160
G1 X55.360 Y60.920 E2.99150
G1 X55.920 Y60.360 E3.00622
G1 X56.330 Y60.020 E3.01613
G1 X57.000 Y59.580 E3.03103
G1 X57.710 Y59.230 E3.04574
G1 X58.200 Y59.040 E3.05552
G1 X58.710 Y58.890 E3.06540
G1 X58.970 Y58.830 E3.07036
G1 X59.760 Y58.720 E3.08519
G1 X60.290 Y58.700 E3.09505
G1 X70.220 Y58.720 E3.27966
G1 X71.010 Y58.830 E3.29449
G1 X71.780 Y59.040 E3.30933
G1 X72.270 Y59.230 E3.31910
G1 X72.980 Y59.580 E3.33382
G1 X73.650 Y60.020 E3.34872
G1 X74.060 Y60.360 E3.35862
G1 X74.620 Y60.920 E3.37335
G1 X74.960 Y61.330 E3.38325
G1 X75.400 Y62.000 E3.39815
G1 X75.750 Y62.710 E3.41287
G1 X75.940 Y63.200 E3.42264
G1 X76.090 Y63.710 E3.43252
G1 X76.150 Y63.970 E3.43748
G1 X76.260 Y64.760 E3.45231
G1 X76.260 Y75.220 E3.64678
G1 X76.150 Y76.010 E3.66161
G1 X75.940 Y76.780 E3.67645
G1 X75.750 Y77.270 E3.68622
G1 X75.400 Y77.980 E3.70093
G1 X74.960 Y78.650 E3.71584
G1 X74.620 Y79.060 E3.72574
G1 X74.060 Y79.620 E3.74046
G1 X73.650 Y79.960 E3.75037
G1 X72.980 Y80.400 E3.76527
G1 X72.270 Y80.750 E3.77998
G1 X71.780 Y80.940 E3.78976
G1 X71.270 Y81.090 E3.79964
G1 X71.010 Y81.150 E3.80460
G1 X70.220 Y81.260 E3.81943
G1 X69.690 Y81.280 E3.82929
G1 X60.395 Y81.280 E4.00210
G1 F1800.000 E3.00210
G92 E0
G1 X60.350 Y74.650 F7800.000
G1 F1800.000 E1.00000
G1 X60.350 Y65.350 F1800.000 E1.17290
G1 X69.650 Y65.350 E1.34580
G1 X69.650 Y74.650 E1.51870
G1 X60.455 Y74.650 E1.68965
G1 F1800.000 E0.68965
G92 E0
G1 X60.830 Y66.227 F7800.000
G1 F1800.000 E1.00000
G1 X61.227 Y65.830 F2400.000 E1.01079
G1 X62.219 Y65.830 E1.02991
G1 X60.830 Y67.219 E1.06774
G1 X60.830 Y68.212 E1.08686
G1 X63.212 Y65.830 E1.15173
G1 X64.205 Y65.830 E1.17085
G1 X60.830 Y69.205 E1.26275
G1 X60.830 Y70.198 E1.28187
G1 X65.198 Y65.830 E1.40082
G1 X66.191 Y65.830 E1.41994
G1 X60.830 Y71.191 E1.56593
G1 X60.830 Y72.184 E1.58505
G1 X67.184 Y65.830 E1.75808
G1 X68.177 Y65.830 E1.77720
G1 X60.830 Y73.177 E1.97726
G1 X60.831 Y74.169 E1.99638
G1 X69.169 Y65.831 E2.22348
G1 X69.170 Y66.823 E2.24260
G1 X61.823 Y74.170 E2.44267
G1 X62.816 Y74.170 E2.46179
G1 X69.170 Y67.816 E2.63481
G1 X69.170 Y68.809 E2.65393
G1 X63.809 Y74.170 E2.79992
G1 X64.802 Y74.170 E2.81904
G1 X69.170 Y69.802 E2.93799
G1 X69.170 Y70.795 E2.95711
G1 X65.795 Y74.170 E3.04902
G1 X66.788 Y74.170 E3.06813
G1 X69.170 Y71.788 E3.13300
G1 X69.170 Y72.781 E3.15212
G1 X67.781 Y74.170 E3.18995
G1 X68.773 Y74.170 E3.20907
G1 X69.170 Y73.773 E3.21986
G1 F1800.000 E2.21986
G92 E0
G1 Z0.700 F7800.000
G1 X69.650 Y74.650
G1 F1800.000 E1.00000
G1 X60.350 Y74.650 F1800.000 E1.17290
G1 X60.350 Y65.350 E1.34580
G1 X69.650 Y65.350 E1.51870
G1 X69.650 Y74.545 E1.68965
G1 F1800.000 E0.68965
G92 E0
G1 X61.227 Y74.170 F7800.000
G1 F1800.000 E1.00000
G1 X60.830 Y73.773 F2400.000 E1.01079
G1 X60.830 Y72.781 E1.02991
G1 X62.219 Y74.170 E1.06774
G1 X63.212 Y74.170 E1.08686
G1 X60.830 Y71.788 E1.15173
G1 X60.830 Y70.795 E1.17085
G1 X64.205 Y74.170 E1.26276
G1 X65.198 Y74.170 E1.28187
G1 X60.830 Y69.802 E1.40082
G1 X60.830 Y68.809 E1.41994
G1 X66.191 Y74.170 E1.56593
G1 X67.184 Y74.170 E1.58505
G1 X60.830 Y67.816 E1.75808
G1 X60.830 Y66.823 E1.77720
G1 X68.177 Y74.170 E1.97726
G1 X69.170 Y74.170 E1.99638
G1 X60.831 Y65.831 E2.22349
G1 X61.823 Y65.830 E2.24260
G1 X69.170 Y73.177 E2.44267
G1 X69.170 Y72.184 E2.46179
G1 X62.816 Y65.830 E2.63482
G1 X63.809 Y65.830 E2.65394
G1 X69.170 Y71.191 E2.79992
G1 X69.170 Y70.198 E2.81904
G1 X64.802 Y65.830 E2.93799
G1 X65.795 Y65.830 E2.95711
G1 X69.170 Y69.205 E3.04902
G1 X69.170 Y68.212 E3.06814
G1 X66.788 Y65.830 E3.13301
G1 X67.781 Y65.830 E3.15213
G1 X69.170 Y67.219 E3.18996
G1 X69.170 Y66.227 E3.20908
G1 X68.773 Y65.830 E3.21987
G1 F1800.000 E2.21987
G92 E0
G1 Z0.900 F7800.000
G1 X69.650 Y65.350
G1 F1800.000 E1.00000
G1 X69.650 Y74.650 F1800.000 E1.17290
G1 X60.350 Y74.650 E1.34580
G1 X60.350 Y65.350 E1.51870
G1 X69.545 Y65.350 E1.68965
G1 F1800.000 E0.68965
G92 E0
G1 X69.170 Y73.773 F7800.000
G1 F1800.000 E1.00000
G1 X68.773 Y74.170 F2400.000 E1.01079
G1 X67.781 Y74.170 E1.02991
G1 X69.170 Y72.781 E1.06774
G1 X69.170 Y71.788 E1.08686
G1 X66.788 Y74.170 E1.15173
G1 X65.795 Y74.170 E1.17085
G1 X69.170 Y70.795 E1.26275
G1 X69.170 Y69.802 E1.28187
G1 X64.802 Y74.170 E1.40082
G1 X63.809 Y74.170 E1.41994
G1 X69.170 Y68.809 E1.56593
G1 X69.170 Y67.816 E1.58505
G1 X62.816 Y74.170 E1.75807
G1 X61.823 Y74.170 E1.77719
G1 X69.170 Y66.823 E1.97726
G1 X69.169 Y65.831 E1.99638
G1 X60.831 Y74.169 E2.22348
G1 X60.830 Y73.177 E2.24259
G1 X68.177 Y65.830 E2.44266
G1 X67.184 Y65.830 E2.46178
G1 X60.830 Y72.184 E2.63481
G1 X60.830 Y71.191 E2.65393
G1 X66.191 Y65.830 E2.79991
G1 X65.198 Y65.830 E2.81903
G1 X60.830 Y70.198 E2.93798
G1 X60.830 Y69.205 E2.95710
G1 X64.205 Y65.830 E3.04901
G1 X63.212 Y65.830 E3.06812
G1 X60.830 Y68.212 E3.13299
G1 X60.830 Y67.219 E3.15211
G1 X62.219 Y65.830 E3.18994
G1 X61.227 Y65.830 E3.20906
G1 X60.830 Y66.227 E3.21985
G1 F1800.000 E2.21985
G92 E0
G1 Z1.100 F7800.000
G1 X60.350 Y65.350
G1 F1800.000 E1.00000
G1 X69.650 Y65.350 F1800.000 E1.17290
G1 X69.650 Y74.650 E1.34580
G1 X60.350 Y74.650 E1.51870
G1 X60.350 Y65.455 E1.68965
G1 F1800.000 E0.68965
G92 E0
G1 X68.773 Y65.830 F7800.000
G1 F1800.000 E1.00000
G1 X69.170 Y66.227 F2400.000 E1.01079
G1 X69.170 Y67.219 E1.02991
G1 X67.781 Y65.830 E1.06774
G1 X66.788 Y65.830 E1.08686
G1 X69.170 Y68.212 E1.15172
G1 X69.170 Y69.205 E1.17084
G1 X65.795 Y65.830 E1.26275
G1 X64.802 Y65.830 E1.28187
G1 X69.170 Y70.198 E1.40082
G1 X69.170 Y71.191 E1.41994
G1 X63.809 Y65.830 E1.56593
G1 X62.816 Y65.830 E1.58505
G1 X69.170 Y72.184 E1.75807
G1 X69.170 Y73.177 E1.77719
G1 X61.823 Y65.830 E1.97726
G1 X60.831 Y65.831 E1.99638
G1 X69.169 Y74.169 E2.22348
G1 X68.177 Y74.170 E2.24259
G1 X60.830 Y66.823 E2.44266
G1 X60.830 Y67.816 E2.46178
G1 X67.184 Y74.170 E2.63481
G1 X66.191 Y74.170 E2.65393
G1 X60.830 Y68.809 E2.79991
G1 X60.830 Y69.802 E2.81903
G1 X65.198 Y74.170 E2.93798
G1 X64.205 Y74.170 E2.95710
G1 X60.830 Y70.795 E3.04901
G1 X60.830 Y71.788 E3.06813
G1 X63.212 Y74.170 E3.13300
G1 X62.219 Y74.170 E3.15212
G1 X60.830 Y72.780 E3.18994
G1 X60.830 Y73.773 E3.20906
G1 X61.227 Y74.170 E3.21985
G1 F1800.000 E2.21985
G92 E0
G1 Z1.300 F7800.000
G1 X60.350 Y74.650
G1 F1800.000 E1.00000
G1 X60.350 Y65.350 F1800.000 E1.17290
G1 X69.650 Y65.350 E1.34580
G1 X69.650 Y74.650 E1.51870
G1 X60.455 Y74.650 E1.68965
G1 F1800.000 E0.68965
G92 E0
G1 X60.830 Y66.227 F7800.000
G1 F1800.000 E1.00000
G1 X61.227 Y65.830 F2400.000 E1.01079
G1 X62.219 Y65.830 E1.02991
G1 X60.830 Y67.219 E1.06774
G1 X60.830 Y68.212 E1.08686
G1 X63.212 Y65.830 E1.15173
G1 X64.205 Y65.830 E1.17085
G1 X60.830 Y69.205 E1.26275
G1 X60.830 Y70.198 E1.28187
G1 X65.198 Y65.830 E1.40082
G1 X66.191 Y65.830 E1.41994
G1 X60.830 Y71.191 E1.56592
G1 X60.830 Y72.184 E1.58504
G1 X67.184 Y65.830 E1.75807
G1 X68.177 Y65.830 E1.77719
G1 X60.830 Y73.177 E1.97726
G1 X60.831 Y74.169 E1.99637
G1 X69.169 Y65.831 E2.22347
G1 X69.170 Y66.823 E2.24259
G1 X61.823 Y74.170 E2.44266
G1 X62.816 Y74.170 E2.46178
G1 X69.170 Y67.816 E2.63480
G1 X69.170 Y68.809 E2.65392
G1 X63.809 Y74.170 E2.79991
G1 X64.802 Y74.170 E2.81903
G1 X69.170 Y69.802 E2.93798
G1 X69.170 Y70.795 E2.95710
G1 X65.795 Y74.170 E3.04901
G1 X66.788 Y74.170 E3.06812
G1 X69.170 Y71.788 E3.13299
G1 X69.170 Y72.781 E3.15211
G1 X67.781 Y74.170 E3.18994
G1 X68.773 Y74.170 E3.20906
G1 X69.170 Y73.773 E3.21985
G1 F1800.000 E2.21985
G92 E0
G1 Z1.500 F7800.000
G1 X69.650 Y74.650
G1 F1800.000 E1.00000
G1 X60.350 Y74.650 F1800.000 E1.17290
G1 X60.350 Y65.350 E1.34580
G1 X69.650 Y65.350 E1.51870
G1 X69.650 Y74.545 E1.68965
G1 F1800.000 E0.68965
G92 E0
G1 X61.227 Y74.170 F7800.000
G1 F1800.000 E1.00000
G1 X60.830 Y73.773 F2400.000 E1.01079
G1 X60.830 Y72.780 E1.02991
G1 X62.219 Y74.170 E1.06774
G1 X63.212 Y74.170 E1.08686
