; generated by Slic3r 0.9.2 on 2012-10-02 at 21:10:04

; layer_height = 0.1
; perimeters = 1
; solid_layers = 3
; fill_density = 0.05
; perimeter_speed = 20
; infill_speed = 20
; travel_speed = 70
; scale = 1
; nozzle_diameter = 0.5
; filament_diameter = 3
; extrusion_multiplier = 1
; single wall width = 0.70mm
; first layer single wall width = 0.60mm

M190 S60 ; wait for bed temperature to be reached
M104 S185 ; set temperature
G28 ; home all axes
M109 S185 ; wait for temperature to be reached
G90 ; use absolute coordinates
G21 ; set units to millimeters
G92 E0
M82 ; use absolute distances for extrusion
G1 Z0.300 F4200.000
G1 X64.104 Y53.971
G1 F1800.000 E1.00000
G1 X64.864 Y53.591 F600.000 E1.02086
G1 X65.274 Y53.421 E1.03176
G1 X66.104 Y53.161 E1.05312
G1 X66.954 Y53.011 E1.07431
G1 X67.824 Y52.951 E1.09572
G1 X68.404 Y52.971 E1.10997
G1 X69.264 Y53.091 E1.13130
G1 X69.824 Y53.231 E1.14547
G1 X70.644 Y53.521 E1.16682
G1 X71.424 Y53.911 E1.18824
G1 X75.064 Y56.021 E1.29154
G1 X75.544 Y56.351 E1.30585
G1 X75.764 Y56.521 E1.31267
G1 X76.204 Y56.911 E1.32711
G1 X76.604 Y57.321 E1.34118
G1 X77.134 Y58.001 E1.36234
G1 X77.444 Y58.491 E1.37658
G1 X77.714 Y59.001 E1.39075
G1 X77.834 Y59.261 E1.39778
G1 X78.124 Y60.071 E1.41891
G1 X78.264 Y60.631 E1.43308
G1 X78.374 Y61.361 E1.45121
G1 X78.434 Y62.251 E1.47311
G1 X78.434 Y77.741 E1.85345
G1 X78.374 Y78.691 E1.87682
G1 X78.254 Y79.401 E1.89450
G1 X78.114 Y79.951 E1.90844
G1 X78.024 Y80.231 E1.91566
G1 X77.814 Y80.761 E1.92966
G1 X77.564 Y81.271 E1.94361
G1 X77.274 Y81.771 E1.95780
G1 X76.954 Y82.231 E1.97156
G1 X76.774 Y82.461 E1.97873
G1 X76.394 Y82.881 E1.99264
G1 X75.974 Y83.281 E2.00688
G1 X75.534 Y83.641 E2.02084
G1 X74.824 Y84.111 E2.04174
G1 X71.174 Y86.211 E2.14514
G1 X70.664 Y86.451 E2.15898
G1 X69.864 Y86.741 E2.17987
G1 X69.044 Y86.931 E2.20054
G1 X68.194 Y87.021 E2.22153
G1 X67.914 Y87.031 E2.22841
G1 X67.634 Y87.031 E2.23528
G1 X67.064 Y86.991 E2.24931
G1 X66.514 Y86.911 E2.26296
G1 X65.954 Y86.781 E2.27708
G1 X65.034 Y86.471 E2.30091
G1 X64.564 Y86.261 E2.31355
G1 X50.684 Y78.271 E2.70680
G1 X49.674 Y77.561 E2.73711
G1 X49.344 Y77.281 E2.74774
G1 X48.934 Y76.881 E2.76180
G1 X48.554 Y76.451 E2.77589
G1 X48.214 Y75.991 E2.78994
G1 X47.914 Y75.501 E2.80404
G1 X47.534 Y74.731 E2.82513
G1 X47.334 Y74.201 E2.83904
G1 X47.114 Y73.371 E2.86012
G1 X47.024 Y72.811 E2.87405
G1 X46.994 Y72.521 E2.88121
G1 X46.994 Y67.451 E3.00570
G1 X47.064 Y66.881 E3.01980
G1 X47.184 Y66.311 E3.03410
G1 X47.344 Y65.751 E3.04840
G1 X47.554 Y65.211 E3.06263
G1 X47.804 Y64.691 E3.07679
G1 X48.084 Y64.191 E3.09086
G1 X48.414 Y63.711 E3.10517
G1 X48.984 Y63.051 E3.12658
G1 X49.394 Y62.651 E3.14064
G1 X49.964 Y62.201 E3.15848
G1 X50.684 Y61.721 E3.17972
G1 X64.026 Y54.016 E3.55803
G1 X64.394 Y54.481 F4200.000
G1 X65.094 Y54.131 F600.000 E3.57724
G1 X66.024 Y53.791 E3.60156
G1 X66.564 Y53.661 E3.61520
G1 X67.114 Y53.581 E3.62884
G1 X67.664 Y53.541 E3.64238
G1 X68.224 Y53.551 E3.65613
G1 X68.504 Y53.571 E3.66303
G1 X69.054 Y53.651 E3.67667
G1 X69.594 Y53.781 E3.69031
G1 X70.124 Y53.951 E3.70398
G1 X70.634 Y54.161 E3.71752
G1 X74.764 Y56.521 E3.83432
G1 X75.434 Y57.011 E3.85470
G1 X75.844 Y57.381 E3.86826
G1 X76.224 Y57.781 E3.88181
G1 X76.724 Y58.451 E3.90233
G1 X77.014 Y58.921 E3.91589
G1 X77.254 Y59.411 E3.92929
G1 X77.364 Y59.671 E3.93622
G1 X77.544 Y60.191 E3.94973
G1 X77.684 Y60.731 E3.96343
G1 X77.794 Y61.431 E3.98083
G1 X77.844 Y62.251 E4.00100
G1 X77.844 Y77.741 E4.38134
G1 X77.784 Y78.611 E4.40276
G1 X77.674 Y79.301 E4.41991
G1 X77.534 Y79.831 E4.43337
G1 X77.244 Y80.601 E4.45358
G1 X76.994 Y81.091 E4.46708
G1 X76.554 Y81.781 E4.48718
G1 X76.214 Y82.211 E4.50064
G1 X75.634 Y82.801 E4.52095
G1 X74.984 Y83.311 E4.54124
G1 X74.764 Y83.461 E4.54778
G1 X70.884 Y85.691 E4.65766
G1 X70.394 Y85.921 E4.67095
G1 X69.884 Y86.111 E4.68431
G1 X69.364 Y86.261 E4.69760
G1 X69.094 Y86.321 E4.70439
G1 X68.564 Y86.401 E4.71755
G1 X68.024 Y86.441 E4.73085
G1 X67.474 Y86.431 E4.74436
G1 X66.934 Y86.381 E4.75767
G1 X66.664 Y86.341 E4.76438
G1 X66.134 Y86.221 E4.77772
G1 X65.474 Y86.011 E4.79472
G1 X65.034 Y85.831 E4.80640
G1 X64.394 Y85.511 E4.82397
G1 X50.974 Y77.761 E5.20448
G1 X50.054 Y77.111 E5.23214
G1 X49.724 Y76.831 E5.24277
G1 X49.334 Y76.451 E5.25614
G1 X48.974 Y76.031 E5.26972
G1 X48.654 Y75.581 E5.28328
G1 X48.244 Y74.871 E5.30341
G1 X47.924 Y74.111 E5.32366
G1 X47.704 Y73.311 E5.34403
G1 X47.614 Y72.771 E5.35747
G1 X47.584 Y72.501 E5.36414
G1 X47.584 Y67.481 E5.48740
G1 X47.654 Y66.921 E5.50126
G1 X47.774 Y66.381 E5.51484
G1 X47.934 Y65.851 E5.52844
G1 X48.144 Y65.331 E5.54221
G1 X48.394 Y64.841 E5.55571
G1 X48.684 Y64.361 E5.56948
G1 X48.834 Y64.141 E5.57602
G1 X49.184 Y63.701 E5.58983
G1 X49.564 Y63.301 E5.60337
G1 X49.984 Y62.931 E5.61712
G1 X50.324 Y62.671 E5.62763
G1 X50.974 Y62.231 E5.64690
G1 X64.316 Y54.526 E6.02520
G1 F1800.000 E5.02520
G92 E0
G1 X64.411 Y73.294 F4200.000
G1 F1800.000 E1.00000
G1 X63.726 Y73.222 F600.000 E1.01691
G1 X63.218 Y73.057 E1.03002
G1 X63.218 Y73.057 E1.03002
G1 X62.579 Y72.849 E1.04652
G1 X62.579 Y72.759 E1.04875
G1 X61.963 Y72.204 E1.06910
G1 X61.558 Y71.647 E1.08601
G1 X61.278 Y71.018 E1.10292
G1 X61.135 Y70.344 E1.11983
G1 X61.135 Y69.656 E1.13674
G1 X61.278 Y68.982 E1.15365
G1 X61.558 Y68.353 E1.17056
G1 X61.963 Y67.796 E1.18747
G1 X62.579 Y67.241 E1.20782
G1 X62.579 Y67.151 E1.21005
G1 X63.073 Y66.990 E1.22282
G1 X63.073 Y66.990 E1.22282
G1 X63.326 Y66.908 E1.22934
G1 X63.326 Y66.820 E1.23150
G1 X64.411 Y66.706 E1.25828
G1 X65.096 Y66.778 E1.27519
G1 X65.751 Y66.991 E1.29210
G1 X66.347 Y67.335 E1.30901
G1 X66.859 Y67.796 E1.32592
G1 X67.264 Y68.353 E1.34283
G1 X67.544 Y68.982 E1.35974
G1 X67.687 Y69.656 E1.37665
G1 X67.687 Y70.344 E1.39356
G1 X67.544 Y71.018 E1.41046
G1 X67.264 Y71.647 E1.42738
G1 X66.859 Y72.204 E1.44428
G1 X66.347 Y72.665 E1.46119
G1 X65.751 Y73.009 E1.47810
G1 X65.218 Y73.182 E1.49186
G1 X65.218 Y73.182 E1.49186
G1 X65.096 Y73.222 E1.49501
G1 X64.864 Y73.247 E1.50073
G1 X64.864 Y73.247 E1.50073
G1 X64.500 Y73.285 E1.50971
G1 X64.411 Y72.702 F4200.000
G1 X63.849 Y72.643 F600.000 E1.52358
G1 X63.311 Y72.468 E1.53747
G1 X63.311 Y72.468 E1.53747
G1 X63.168 Y72.421 E1.54116
G1 X63.168 Y72.385 E1.54205
G1 X62.823 Y72.186 E1.55184
G1 X62.403 Y71.808 E1.56571
G1 X62.071 Y71.351 E1.57958
G1 X61.841 Y70.835 E1.59345
G1 X61.724 Y70.282 E1.60732
G1 X61.724 Y69.718 E1.62118
G1 X61.841 Y69.165 E1.63505
G1 X62.071 Y68.649 E1.64892
G1 X62.403 Y68.192 E1.66279
G1 X62.823 Y67.814 E1.67666
G1 X63.168 Y67.615 E1.68645
G1 X63.168 Y67.579 E1.68734
G1 X63.311 Y67.532 E1.69104
G1 X63.311 Y67.532 E1.69104
G1 X63.849 Y67.357 E1.70492
G1 X63.915 Y67.350 E1.70656
G1 X63.915 Y67.350 E1.70656
G1 X64.411 Y67.298 E1.71879
G1 X64.972 Y67.357 E1.73266
G1 X65.510 Y67.532 E1.74652
G1 X65.999 Y67.814 E1.76039
G1 X66.418 Y68.192 E1.77426
G1 X66.750 Y68.649 E1.78813
G1 X66.980 Y69.165 E1.80200
G1 X67.098 Y69.718 E1.81586
G1 X67.098 Y70.282 E1.82973
G1 X66.980 Y70.835 E1.84360
G1 X66.750 Y71.351 E1.85747
G1 X66.418 Y71.808 E1.87134
G1 X65.999 Y72.186 E1.88521
G1 X65.510 Y72.468 E1.89907
G1 X64.972 Y72.643 E1.91294
G1 X64.500 Y72.692 E1.92460
G1 F1800.000 E0.92460
G92 E0
G1 X67.840 Y79.179 F4200.000
G1 F1800.000 E1.00000
G1 X54.746 Y71.620 F600.000 E1.37124
G1 X54.746 Y68.380 E1.45078
G1 X54.835 Y68.329 E1.45330
G1 X54.835 Y68.329 E1.45330
G1 X67.210 Y61.184 E1.80415
G1 X67.210 Y61.184 E1.80415
G1 X67.840 Y60.821 E1.82202
G1 X70.646 Y62.440 E1.90156
G1 X70.646 Y77.560 E2.27280
G1 X67.918 Y79.134 E2.35013
G1 X67.587 Y79.713 F4200.000
G1 X54.157 Y71.960 F420.000 E2.73088
G1 X54.157 Y68.040 E2.82713
G1 X54.246 Y67.989 E2.82965
G1 X54.246 Y67.989 E2.82965
G1 X67.649 Y60.251 E3.20966
G1 X67.649 Y60.251 E3.20966
G1 X67.840 Y60.140 E3.21508
G1 X71.235 Y62.100 E3.31132
G1 X71.235 Y77.900 E3.69927
G1 X67.840 Y79.860 E3.79552
G1 X67.664 Y79.758 E3.80050
G1 F1800.000 E2.80050
G92 E0
G1 X65.679 Y77.323 F4200.000
G1 F1800.000 E1.00000
G1 X56.270 Y67.914 F600.000 E1.33610
G1 X55.724 Y68.228 E1.35200
G1 X63.645 Y76.149 E1.63491
G1 F1800.000 E0.63491
G92 E0
G1 X61.610 Y74.974 F4200.000
G1 F1800.000 E1.00000
G1 X55.179 Y68.543 F600.000 E1.22970
G1 X55.166 Y69.390 E1.25108
G1 X59.575 Y73.799 E1.40857
G1 X57.540 Y72.624 E1.46792
G1 X55.166 Y70.250 E1.55273
G1 X55.166 Y71.110 E1.57445
G1 X55.506 Y71.449 E1.58659
G1 F1800.000 E0.58659
G92 E0
G1 X61.123 Y71.906 F4200.000
G1 F1800.000 E1.00000
G1 X56.815 Y67.599 F600.000 E1.15387
G1 X57.360 Y67.284 E1.16977
G1 X60.732 Y70.656 E1.29021
G1 X60.715 Y69.779 E1.31237
G1 X57.905 Y66.969 E1.41273
G1 X58.451 Y66.654 E1.42863
G1 X60.863 Y69.067 E1.51481
G1 X61.112 Y68.456 E1.53147
G1 X58.996 Y66.340 E1.60707
G1 X59.541 Y66.025 E1.62297
G1 X61.437 Y67.921 E1.69069
G1 X61.825 Y67.449 E1.70612
G1 X60.086 Y65.710 E1.76824
G1 X60.631 Y65.395 E1.78414
G1 X62.159 Y66.923 E1.83871
G1 X62.785 Y66.689 E1.85559
G1 X61.177 Y65.081 E1.91304
G1 X61.722 Y64.766 E1.92894
G1 X63.367 Y66.411 E1.98769
G1 X64.145 Y66.329 E2.00746
G1 X62.267 Y64.451 E2.07453
G1 X62.812 Y64.136 E2.09043
G1 X65.004 Y66.328 E2.16871
G1 X66.152 Y66.616 E2.19862
G1 X63.357 Y63.821 E2.29845
G1 X63.903 Y63.507 E2.31435
G1 X70.226 Y69.830 E2.54022
G1 X70.226 Y70.690 E2.56194
G1 X67.754 Y68.219 E2.65022
G1 X68.106 Y69.430 E2.68209
G1 X70.226 Y71.550 E2.75781
G1 X70.226 Y72.410 E2.77953
G1 X68.097 Y70.281 E2.85558
G1 X67.946 Y70.990 E2.87390
G1 X70.226 Y73.270 E2.95533
G1 X70.226 Y74.130 E2.97705
G1 X67.688 Y71.592 E3.06772
G1 X67.356 Y72.120 E3.08347
G1 X70.226 Y74.990 E3.18600
G1 X70.226 Y75.850 E3.20772
G1 X66.960 Y72.584 E3.32439
G1 X66.503 Y72.987 E3.33978
G1 X70.226 Y76.710 E3.47275
G1 X70.112 Y77.455 E3.49180
G1 X65.958 Y73.302 E3.64015
G1 X65.335 Y73.539 E3.65699
G1 X69.566 Y77.770 E3.80812
G1 X69.021 Y78.085 E3.82402
G1 X64.686 Y73.750 E3.97887
G1 X63.740 Y73.664 E4.00285
G1 X68.476 Y78.400 E4.17200
G1 X67.714 Y78.498 E4.19139
G1 X62.567 Y73.350 E4.37526
G1 F1800.000 E3.37526
G92 E0
G1 X70.226 Y68.970 F4200.000
G1 F1800.000 E1.00000
G1 X64.448 Y63.192 F600.000 E1.20639
G1 X64.993 Y62.877 E1.22229
G1 X70.226 Y68.110 E1.40921
G1 X70.226 Y67.250 E1.43093
G1 X65.538 Y62.562 E1.59838
G1 X66.083 Y62.248 E1.61428
G1 X70.226 Y66.390 E1.76225
G1 X70.226 Y65.530 E1.78397
G1 X66.629 Y61.933 E1.91247
G1 X67.174 Y61.618 E1.92837
G1 X70.226 Y64.670 E2.03739
G1 X70.226 Y63.810 E2.05911
G1 X67.852 Y61.436 E2.14393
G1 X69.886 Y62.611 E2.20327
G1 X70.226 Y62.950 E2.21540
M104 S180 ; set temperature
M140 S50 ; set bed temperature
G1 F1800.000 E1.21540
G92 E0
G1 Z0.400 F4200.000
G1 X68.404 Y52.971
G1 F1800.000 E1.00000
G1 X69.264 Y53.091 F1200.000 E1.00834
G1 X69.824 Y53.231 E1.01388
G1 X70.644 Y53.521 E1.02223
G1 X71.424 Y53.911 E1.03060
G1 X75.064 Y56.021 E1.07098
G1 X75.544 Y56.351 E1.07658
G1 X75.764 Y56.521 E1.07925
G1 X76.204 Y56.911 E1.08489
G1 X76.604 Y57.321 E1.09039
G1 X77.134 Y58.001 E1.09866
G1 X77.444 Y58.491 E1.10423
G1 X77.714 Y59.001 E1.10977
G1 X77.834 Y59.261 E1.11252
G1 X78.124 Y60.071 E1.12078
G1 X78.264 Y60.631 E1.12632
G1 X78.374 Y61.361 E1.13340
G1 X78.434 Y62.251 E1.14197
G1 X78.434 Y77.741 E1.29066
G1 X78.374 Y78.691 E1.29980
G1 X78.254 Y79.401 E1.30671
G1 X78.114 Y79.951 E1.31216
G1 X78.024 Y80.231 E1.31498
G1 X77.814 Y80.761 E1.32046
G1 X77.564 Y81.271 E1.32591
G1 X77.274 Y81.771 E1.33146
G1 X76.954 Y82.231 E1.33684
G1 X76.774 Y82.461 E1.33964
G1 X76.394 Y82.881 E1.34508
G1 X75.974 Y83.281 E1.35064
G1 X75.534 Y83.641 E1.35610
G1 X74.824 Y84.111 E1.36427
G1 X71.174 Y86.211 E1.40470
G1 X70.664 Y86.451 E1.41011
G1 X69.864 Y86.741 E1.41828
G1 X69.044 Y86.931 E1.42636
G1 X68.194 Y87.021 E1.43456
G1 X67.914 Y87.031 E1.43725
G1 X67.634 Y87.031 E1.43994
G1 X67.064 Y86.991 E1.44542
G1 X66.514 Y86.911 E1.45076
G1 X65.954 Y86.781 E1.45628
G1 X65.034 Y86.471 E1.46560
G1 X64.564 Y86.261 E1.47054
G1 X50.684 Y78.271 E1.62428
G1 X49.674 Y77.561 E1.63613
G1 X49.344 Y77.281 E1.64028
G1 X48.934 Y76.881 E1.64578
G1 X48.554 Y76.451 E1.65129
G1 X48.214 Y75.991 E1.65678
G1 X47.914 Y75.501 E1.66230
G1 X47.534 Y74.731 E1.67054
G1 X47.334 Y74.201 E1.67598
G1 X47.114 Y73.371 E1.68422
G1 X47.024 Y72.811 E1.68966
G1 X46.994 Y72.521 E1.69246
G1 X46.994 Y67.451 E1.74113
G1 X47.064 Y66.881 E1.74664
G1 X47.184 Y66.311 E1.75224
G1 X47.344 Y65.751 E1.75783
G1 X47.554 Y65.211 E1.76339
G1 X47.804 Y64.691 E1.76893
G1 X48.084 Y64.191 E1.77443
G1 X48.414 Y63.711 E1.78002
G1 X48.984 Y63.051 E1.78839
G1 X49.394 Y62.651 E1.79389
G1 X49.964 Y62.201 E1.80086
G1 X50.684 Y61.721 E1.80917
G1 X64.104 Y53.971 E1.95793
G1 X64.864 Y53.591 E1.96609
G1 X65.274 Y53.421 E1.97035
G1 X66.104 Y53.161 E1.97870
G1 X66.954 Y53.011 E1.98698
G1 X67.824 Y52.951 E1.99535
G1 X68.299 Y52.968 E1.99992
G1 X68.224 Y53.551 F4200.000
G1 X68.504 Y53.571 F1200.000 E2.00261
G1 X69.054 Y53.651 E2.00795
G1 X69.594 Y53.781 E2.01328
G1 X70.124 Y53.951 E2.01862
G1 X70.634 Y54.161 E2.02391
G1 X74.764 Y56.521 E2.06958
G1 X75.434 Y57.011 E2.07754
G1 X75.844 Y57.381 E2.08285
G1 X76.224 Y57.781 E2.08814
G1 X76.724 Y58.451 E2.09617
G1 X77.014 Y58.921 E2.10147
G1 X77.254 Y59.411 E2.10671
G1 X77.364 Y59.671 E2.10942
G1 X77.544 Y60.191 E2.11470
G1 X77.684 Y60.731 E2.12005
G1 X77.794 Y61.431 E2.12686
G1 X77.844 Y62.251 E2.13474
G1 X77.844 Y77.741 E2.28344
G1 X77.784 Y78.611 E2.29181
G1 X77.674 Y79.301 E2.29851
G1 X77.534 Y79.831 E2.30378
G1 X77.244 Y80.601 E2.31168
G1 X76.994 Y81.091 E2.31696
G1 X76.554 Y81.781 E2.32481
G1 X76.214 Y82.211 E2.33007
G1 X75.634 Y82.801 E2.33802
G1 X74.984 Y83.311 E2.34595
G1 X74.764 Y83.461 E2.34850
G1 X70.884 Y85.691 E2.39146
G1 X70.394 Y85.921 E2.39666
G1 X69.884 Y86.111 E2.40188
G1 X69.364 Y86.261 E2.40708
G1 X69.094 Y86.321 E2.40973
G1 X68.564 Y86.401 E2.41488
G1 X68.024 Y86.441 E2.42008
G1 X67.474 Y86.431 E2.42536
G1 X66.934 Y86.381 E2.43056
G1 X66.664 Y86.341 E2.43318
G1 X66.134 Y86.221 E2.43840
G1 X65.474 Y86.011 E2.44505
G1 X65.034 Y85.831 E2.44961
G1 X64.394 Y85.511 E2.45648
G1 X50.974 Y77.761 E2.60524
G1 X50.054 Y77.111 E2.61605
G1 X49.724 Y76.831 E2.62021
G1 X49.334 Y76.451 E2.62544
G1 X48.974 Y76.031 E2.63075
G1 X48.654 Y75.581 E2.63605
G1 X48.244 Y74.871 E2.64392
G1 X47.924 Y74.111 E2.65183
G1 X47.704 Y73.311 E2.65980
G1 X47.614 Y72.771 E2.66505
G1 X47.584 Y72.501 E2.66766
G1 X47.584 Y67.481 E2.71585
G1 X47.654 Y66.921 E2.72127
G1 X47.774 Y66.381 E2.72658
G1 X47.934 Y65.851 E2.73189
G1 X48.144 Y65.331 E2.73727
G1 X48.394 Y64.841 E2.74256
G1 X48.684 Y64.361 E2.74794
G1 X48.834 Y64.141 E2.75049
G1 X49.184 Y63.701 E2.75589
G1 X49.564 Y63.301 E2.76119
G1 X49.984 Y62.931 E2.76656
G1 X50.324 Y62.671 E2.77067
G1 X50.974 Y62.231 E2.77820
G1 X64.394 Y54.481 E2.92697
G1 X65.094 Y54.131 E2.93448
G1 X66.024 Y53.791 E2.94398
G1 X66.564 Y53.661 E2.94932
G1 X67.114 Y53.581 E2.95465
G1 X67.664 Y53.541 E2.95995
G1 X68.119 Y53.548 E2.96431
G1 F1800.000 E1.96431
G92 E0
G1 X65.812 Y73.147 F4200.000
G1 F1800.000 E1.00000
G1 X65.127 Y73.370 F1200.000 E1.00691
G1 X64.411 Y73.445 E1.01383
G1 X63.695 Y73.370 E1.02074
G1 X63.191 Y73.206 E1.02582
G1 X63.191 Y73.206 E1.02582
G1 X63.010 Y73.147 E1.02765
G1 X62.386 Y72.787 E1.03457
G1 X61.993 Y72.433 E1.03964
G1 X61.993 Y72.433 E1.03964
G1 X61.851 Y72.305 E1.04148
G1 X61.427 Y71.723 E1.04839
G1 X61.134 Y71.065 E1.05531
G1 X60.985 Y70.360 E1.06222
G1 X60.985 Y69.640 E1.06913
G1 X61.134 Y68.935 E1.07605
G1 X61.427 Y68.277 E1.08296
G1 X61.851 Y67.695 E1.08988
G1 X61.993 Y67.567 E1.09171
G1 X61.993 Y67.567 E1.09171
G1 X62.386 Y67.213 E1.09679
G1 X63.010 Y66.853 E1.10370
G1 X63.694 Y66.630 E1.11062
G1 X63.885 Y66.610 E1.11245
G1 X63.885 Y66.610 E1.11245
G1 X64.411 Y66.555 E1.11753
G1 X65.127 Y66.630 E1.12444
G1 X65.812 Y66.853 E1.13136
G1 X66.436 Y67.213 E1.13827
G1 X66.971 Y67.695 E1.14518
G1 X67.394 Y68.277 E1.15210
G1 X67.904 Y69.422 E1.16412
G1 X67.837 Y69.422 E1.16476
G1 X67.837 Y70.578 E1.17586
G1 X67.904 Y70.578 E1.17650
G1 X67.394 Y71.723 E1.18853
G1 X66.971 Y72.305 E1.19544
G1 X66.436 Y72.787 E1.20236
G1 X65.903 Y73.095 E1.20826
G1 X65.530 Y72.514 F4200.000
G1 X64.983 Y72.692 F1200.000 E1.21378
G1 X64.411 Y72.752 E1.21931
G1 X63.839 Y72.692 E1.22483
G1 X63.291 Y72.514 E1.23035
