; generated by Slic3r 0.9.2 on 2012-10-02 at 20:30:18

; layer_height = 0.3
; perimeters = 1
; solid_layers = 3
; fill_density = 0.05
; perimeter_speed = 45
; infill_speed = 70
; travel_speed = 130
; scale = 1
; nozzle_diameter = 0.5
; filament_diameter = 3
; extrusion_multiplier = 1
; single wall width = 0.70mm
; first layer single wall width = 0.60mm

G28 ; home all axes
G90 ; use absolute coordinates
G21 ; set units to millimeters
G92 E0
M82 ; use absolute distances for extrusion
G1 Z0.300 F7800.000
G1 X69.006 Y72.975
G1 F1800.000 E1.00000
G1 X69.067 Y72.922 F900.000 E1.00199
G1 X69.067 Y72.922 E1.00199
G1 X69.660 Y72.411 E1.02120
G1 X69.667 Y72.418 E1.02144
G1 X69.967 Y72.213 E1.03037
G1 X70.138 Y72.303 E1.03510
G1 X70.138 Y74.122 E1.07976
G1 X69.967 Y74.212 E1.08449
G1 X69.596 Y73.959 E1.09552
G1 X69.006 Y73.450 E1.11465
G1 X69.006 Y73.065 E1.12410
G1 F1800.000 E0.12410
G92 E0
G1 X71.862 Y72.303 F7800.000
G1 F1800.000 E1.00000
G1 X72.033 Y72.213 F900.000 E1.00473
G1 X72.404 Y72.466 E1.01576
G1 X72.994 Y72.975 E1.03489
G1 X72.994 Y73.450 E1.04655
G1 X72.404 Y73.959 E1.06568
G1 X72.033 Y74.212 E1.07671
G1 X71.862 Y74.122 E1.08144
G1 X71.862 Y72.393 E1.12389
G1 X71.492 Y70.953 F7800.000
G1 X70.508 Y71.109 F900.000 E1.14834
G1 X70.508 Y69.047 E1.19898
G1 X70.990 Y68.971 E1.21095
G1 X70.990 Y68.971 E1.21095
G1 X71.492 Y68.891 E1.22343
G1 X71.492 Y70.863 E1.27183
G1 X71.152 Y71.603 F7800.000
G1 X70.732 Y71.670 F900.000 E1.28227
G1 X70.491 Y71.793 E1.28892
G1 X70.147 Y72.136 E1.30084
G1 X69.919 Y72.041 E1.30691
G1 X69.919 Y67.959 E1.40716
G1 X70.147 Y67.864 E1.41324
G1 X70.491 Y68.207 E1.42516
G1 X70.848 Y68.389 E1.43500
G1 X70.848 Y68.396 E1.43518
G1 X71.003 Y68.372 E1.43905
G1 X71.004 Y68.372 E1.43905
G1 X71.268 Y68.330 E1.44561
G1 X71.509 Y68.207 E1.45226
G1 X71.853 Y67.864 E1.46419
G1 X72.081 Y67.959 E1.47026
G1 X72.081 Y72.041 E1.57051
G1 X71.853 Y72.136 E1.57659
G1 X71.509 Y71.793 E1.58851
G1 X71.225 Y71.648 E1.59633
G1 F1800.000 E0.59633
G92 E0
G1 X72.044 Y67.779 F7800.000
G1 F1800.000 E1.00000
G1 X71.843 Y67.652 F900.000 E1.00584
G1 X71.910 Y67.228 E1.01637
G1 X71.862 Y67.228 E1.01755
G1 X71.862 Y65.878 E1.05070
G1 X72.033 Y65.788 E1.05543
G1 X72.404 Y66.041 E1.06646
G1 X72.994 Y66.550 E1.08559
G1 X72.994 Y67.025 E1.09725
G1 X72.792 Y67.199 E1.10380
G1 X72.792 Y67.199 E1.10380
G1 X72.404 Y67.534 E1.11638
G1 X72.119 Y67.728 E1.12486
G1 X70.138 Y67.697 F7800.000
G1 X69.967 Y67.787 F900.000 E1.12959
G1 X69.596 Y67.534 E1.14062
G1 X69.006 Y67.025 E1.15975
G1 X69.006 Y66.550 E1.17141
G1 X69.462 Y66.157 E1.18620
G1 X69.462 Y66.157 E1.18620
G1 X69.596 Y66.041 E1.19054
G1 X69.967 Y65.788 E1.20157
G1 X70.138 Y65.878 E1.20630
G1 X70.138 Y67.607 E1.24875
G1 F1800.000 E0.24875
G92 E0
G1 X60.994 Y67.025 F7800.000
G1 F1800.000 E1.00000
G1 X60.396 Y67.540 F900.000 E1.01938
G1 X60.395 Y67.540 E1.01941
G1 X60.044 Y67.779 E1.02983
G1 X59.843 Y67.652 E1.03568
G1 X59.910 Y67.228 E1.04621
G1 X59.863 Y67.228 E1.04738
G1 X59.863 Y65.878 E1.08053
G1 X60.033 Y65.788 E1.08526
G1 X60.404 Y66.041 E1.09629
G1 X60.994 Y66.550 E1.11542
G1 X60.994 Y66.935 E1.12488
G1 F1800.000 E0.12488
G92 E0
G1 X58.138 Y67.697 F7800.000
G1 F1800.000 E1.00000
G1 X57.967 Y67.787 F900.000 E1.00473
G1 X57.596 Y67.534 E1.01576
G1 X57.006 Y67.025 E1.03489
G1 X57.006 Y66.550 E1.04655
G1 X57.462 Y66.157 E1.06134
G1 X57.462 Y66.157 E1.06134
G1 X57.596 Y66.041 E1.06568
G1 X57.967 Y65.788 E1.07671
G1 X58.138 Y65.878 E1.08144
G1 X58.138 Y67.607 E1.12389
G1 X58.508 Y69.047 F7800.000
G1 X58.994 Y68.970 F900.000 E1.13596
G1 X58.994 Y68.970 E1.13596
G1 X59.492 Y68.891 E1.14834
G1 X59.492 Y70.652 E1.19159
G1 X59.135 Y71.009 E1.20398
G1 X58.508 Y71.109 E1.21956
G1 X58.508 Y69.137 E1.26798
G1 X58.848 Y68.396 F7800.000
G1 X58.999 Y68.373 F900.000 E1.27174
G1 X58.999 Y68.373 E1.27174
G1 X59.268 Y68.330 E1.27841
G1 X59.509 Y68.207 E1.28506
G1 X59.853 Y67.864 E1.29699
G1 X60.081 Y67.959 E1.30306
G1 X60.081 Y72.041 E1.40331
G1 X59.853 Y72.136 E1.40939
G1 X59.510 Y71.794 E1.42128
G1 X59.510 Y71.794 E1.42128
G1 X59.347 Y71.631 E1.42694
G1 X59.302 Y71.675 E1.42849
G1 X59.000 Y71.627 E1.43600
G1 X58.805 Y71.658 E1.44085
G1 X58.805 Y71.658 E1.44085
G1 X58.732 Y71.670 E1.44266
G1 X58.491 Y71.793 E1.44931
G1 X58.147 Y72.136 E1.46123
G1 X57.919 Y72.041 E1.46730
G1 X57.919 Y67.915 E1.56863
G1 X58.491 Y68.207 E1.58439
G1 X58.491 Y68.207 E1.58440
G1 X58.775 Y68.352 E1.59221
G1 F1800.000 E0.59221
G92 E0
G1 X57.967 Y72.213 F7800.000
G1 F1800.000 E1.00000
G1 X58.138 Y72.303 F900.000 E1.00473
G1 X58.138 Y74.122 E1.04939
G1 X57.967 Y74.212 E1.05412
G1 X57.596 Y73.959 E1.06515
G1 X57.006 Y73.450 E1.08428
G1 X57.006 Y72.975 E1.09595
G1 X57.067 Y72.922 E1.09794
G1 X57.067 Y72.922 E1.09794
G1 X57.660 Y72.411 E1.11715
G1 X57.667 Y72.418 E1.11738
G1 X57.893 Y72.264 E1.12410
G1 X59.863 Y72.303 F7800.000
G1 X60.033 Y72.213 F900.000 E1.12883
G1 X60.404 Y72.466 E1.13986
G1 X60.994 Y72.975 E1.15899
G1 X60.994 Y73.450 E1.17066
G1 X60.404 Y73.959 E1.18979
G1 X60.033 Y74.212 E1.20082
G1 X59.863 Y74.122 E1.20555
G1 X59.863 Y72.393 E1.24799
G1 F1800.000 E0.24799
G92 E0
G1 Z0.600 F7800.000
G1 X58.089 Y72.185
G1 F1800.000 E1.00000
G1 X58.089 Y74.240 F1800.000 E1.05707
G1 X57.852 Y74.348 E1.06432
G1 X57.225 Y73.808 E1.08733
G1 X56.862 Y73.444 E1.10159
G1 X56.862 Y72.981 E1.11443
G1 X57.225 Y72.617 E1.12869
G1 X57.852 Y72.077 E1.15170
G1 X57.994 Y72.142 E1.15605
G1 X58.330 Y71.001 F7800.000
G1 X58.330 Y69.620 F1800.000 E1.19440
G1 X59.670 Y68.937 E1.23619
G1 X59.670 Y71.001 E1.29351
G1 X59.627 Y70.994 E1.29474
G1 X59.627 Y70.994 E1.29474
G1 X59.000 Y70.894 E1.31236
G1 X58.433 Y70.984 E1.32831
G1 X58.717 Y71.623 F7800.000
G1 X58.462 Y71.753 F1800.000 E1.33626
G1 X57.919 Y72.296 E1.35757
G1 X57.654 Y72.186 E1.36555
G1 X57.654 Y67.814 E1.48697
G1 X57.919 Y67.704 E1.49495
G1 X58.462 Y68.247 E1.51626
G1 X58.914 Y68.477 E1.53036
G1 X58.914 Y68.564 E1.53278
G1 X59.283 Y68.377 E1.54426
G1 X59.283 Y68.377 E1.54426
G1 X59.538 Y68.247 E1.55222
G1 X60.081 Y67.704 E1.57352
G1 X60.346 Y67.814 E1.58150
G1 X60.346 Y72.186 E1.70292
G1 X60.081 Y72.296 E1.71090
G1 X59.538 Y71.753 E1.73221
G1 X59.376 Y71.671 E1.73725
G1 X59.376 Y71.671 E1.73725
G1 X59.283 Y71.623 E1.74016
G1 X59.000 Y71.578 E1.74812
G1 X58.820 Y71.607 E1.75317
G1 X59.911 Y72.185 F7800.000
G1 X60.148 Y72.077 F1800.000 E1.76042
G1 X60.775 Y72.617 E1.78343
G1 X61.138 Y72.981 E1.79769
G1 X61.138 Y73.444 E1.81053
G1 X60.775 Y73.808 E1.82479
G1 X60.148 Y74.348 E1.84780
G1 X59.911 Y74.240 E1.85505
G1 X59.911 Y72.290 E1.90921
G1 F1800.000 E0.90921
G92 E0
G1 X60.148 Y67.923 F7800.000
G1 F1800.000 E1.00000
G1 X59.911 Y67.815 F1800.000 E1.00725
G1 X59.911 Y65.760 E1.06432
G1 X60.148 Y65.652 E1.07157
G1 X60.775 Y66.192 E1.09457
G1 X61.138 Y66.556 E1.10883
G1 X61.138 Y67.019 E1.12168
G1 X60.775 Y67.383 E1.13594
G1 X60.227 Y67.855 E1.15605
G1 F1800.000 E0.15605
G92 E0
G1 X58.089 Y67.815 F7800.000
G1 F1800.000 E1.00000
G1 X57.852 Y67.923 F1800.000 E1.00725
G1 X57.225 Y67.383 E1.03026
G1 X56.862 Y67.019 E1.04452
G1 X56.862 Y66.556 E1.05736
G1 X57.225 Y66.192 E1.07162
G1 X57.852 Y65.652 E1.09463
G1 X58.089 Y65.760 E1.10188
G1 X58.089 Y67.710 E1.15605
G1 F1800.000 E0.15605
G92 E0
G1 X68.862 Y67.019 F7800.000
G1 F1800.000 E1.00000
G1 X68.862 Y66.556 F1800.000 E1.01284
G1 X69.225 Y66.192 E1.02710
G1 X69.852 Y65.652 E1.05011
G1 X70.089 Y65.760 E1.05736
G1 X70.089 Y67.815 E1.11443
G1 X69.852 Y67.923 E1.12168
G1 X69.225 Y67.383 E1.14469
G1 X68.936 Y67.093 E1.15605
G1 F1800.000 E0.15605
G92 E0
G1 X71.911 Y67.815 F7800.000
G1 F1800.000 E1.00000
G1 X71.911 Y65.760 F1800.000 E1.05707
G1 X72.148 Y65.652 E1.06432
G1 X72.775 Y66.192 E1.08733
G1 X73.138 Y66.556 E1.10159
G1 X73.138 Y67.019 E1.11443
G1 X72.775 Y67.383 E1.12869
G1 X72.148 Y67.923 E1.15170
G1 X72.006 Y67.858 E1.15605
G1 X71.670 Y68.999 F7800.000
G1 X71.670 Y70.788 F1800.000 E1.20573
G1 X70.330 Y71.001 E1.24343
G1 X70.330 Y69.211 E1.29314
G1 X71.567 Y69.016 E1.32794
G1 X71.283 Y68.377 F7800.000
G1 X71.538 Y68.247 F1800.000 E1.33589
G1 X71.896 Y67.889 E1.34995
G1 X71.896 Y67.889 E1.34995
G1 X72.081 Y67.704 E1.35720
G1 X72.346 Y67.814 E1.36518
G1 X72.346 Y72.186 E1.48660
G1 X72.081 Y72.296 E1.49458
G1 X71.538 Y71.753 E1.51588
G1 X71.283 Y71.623 E1.52384
G1 X71.000 Y71.578 E1.53179
G1 X70.849 Y71.602 E1.53605
G1 X70.849 Y71.602 E1.53605
G1 X70.717 Y71.623 E1.53975
G1 X70.462 Y71.753 E1.54770
G1 X70.350 Y71.865 E1.55209
G1 X70.350 Y71.865 E1.55209
G1 X69.919 Y72.296 E1.56901
G1 X69.654 Y72.186 E1.57699
G1 X69.654 Y67.814 E1.69841
G1 X69.919 Y67.704 E1.70639
G1 X70.462 Y68.247 E1.72770
G1 X70.624 Y68.329 E1.73274
G1 X70.624 Y68.329 E1.73274
G1 X70.717 Y68.377 E1.73565
G1 X71.000 Y68.421 E1.74360
G1 X71.151 Y68.397 E1.74785
G1 X71.151 Y68.397 E1.74785
G1 X71.180 Y68.393 E1.74865
G1 F1800.000 E0.74865
G92 E0
G1 X69.852 Y72.077 F7800.000
G1 F1800.000 E1.00000
G1 X70.089 Y72.185 F1800.000 E1.00725
G1 X70.089 Y74.240 E1.06432
G1 X69.852 Y74.348 E1.07157
G1 X69.225 Y73.808 E1.09457
G1 X68.862 Y73.444 E1.10883
G1 X68.862 Y72.981 E1.12168
G1 X69.225 Y72.617 E1.13594
G1 X69.675 Y72.229 E1.15248
G1 X69.676 Y72.229 E1.15248
G1 X69.773 Y72.145 E1.15605
G1 F1800.000 E0.15605
G92 E0
G1 X71.911 Y72.185 F7800.000
G1 F1800.000 E1.00000
G1 X72.148 Y72.077 F1800.000 E1.00725
G1 X72.775 Y72.617 E1.03026
G1 X73.138 Y72.981 E1.04452
G1 X73.138 Y73.444 E1.05736
G1 X72.775 Y73.808 E1.07162
G1 X72.148 Y74.348 E1.09463
G1 X71.911 Y74.240 E1.10188
G1 X71.911 Y72.290 E1.15605
G1 F1800.000 E0.15605
G92 E0
G1 Z0.900 F7800.000
G1 X61.306 Y72.977
G1 F1800.000 E1.00000
G1 X61.306 Y73.448 F1800.000 E1.01308
G1 X60.177 Y74.583 E1.05755
G1 X59.911 Y74.473 E1.06555
G1 X59.911 Y72.466 E1.12128
G1 X59.832 Y71.969 E1.13528
G1 X60.145 Y71.810 E1.14502
G1 X61.233 Y72.903 E1.18786
G1 X60.564 Y72.810 F7800.000
G1 X59.973 Y72.856 F1800.000 E1.20435
G1 X59.870 Y72.211 E1.22250
G1 X59.740 Y71.956 E1.23046
G1 X59.538 Y71.753 E1.23841
G1 X59.283 Y71.623 E1.24636
G1 X59.180 Y71.607 E1.24925
G1 X59.180 Y71.607 E1.24925
G1 X59.000 Y71.578 E1.25432
G1 X58.717 Y71.623 E1.26227
G1 X58.462 Y71.753 E1.27022
G1 X58.385 Y71.831 E1.27326
G1 X58.385 Y71.831 E1.27326
G1 X58.260 Y71.956 E1.27818
G1 X58.130 Y72.211 E1.28613
G1 X58.027 Y72.856 E1.30428
G1 X57.436 Y72.810 E1.32077
G1 X57.436 Y67.190 E1.47687
G1 X58.027 Y67.144 E1.49336
G1 X58.130 Y67.789 E1.51150
G1 X58.260 Y68.044 E1.51946
G1 X58.462 Y68.246 E1.52741
G1 X58.717 Y68.377 E1.53537
G1 X59.000 Y68.421 E1.54332
G1 X59.283 Y68.377 E1.55127
G1 X59.566 Y68.232 E1.56010
G1 X59.566 Y68.219 E1.56048
G1 X59.740 Y68.044 E1.56733
G1 X59.870 Y67.789 E1.57529
G1 X59.973 Y67.144 E1.59344
G1 X60.564 Y67.190 E1.60993
G1 X60.564 Y72.705 E1.76312
G1 F1800.000 E0.76312
G92 E0
G1 X58.089 Y72.466 F7800.000
G1 F1800.000 E1.00000
G1 X58.089 Y74.473 F1800.000 E1.05573
G1 X57.823 Y74.583 E1.06373
G1 X56.694 Y73.448 E1.10820
G1 X56.694 Y72.977 E1.12128
G1 X57.855 Y71.810 E1.16703
G1 X58.168 Y71.969 E1.17677
G1 X58.105 Y72.363 E1.18786
G1 F1800.000 E0.18786
G92 E0
G1 X57.855 Y68.190 F7800.000
G1 F1800.000 E1.00000
G1 X56.694 Y67.023 F1800.000 E1.04574
G1 X56.694 Y66.552 E1.05883
G1 X57.111 Y66.133 E1.07525
G1 X57.111 Y66.133 E1.07525
G1 X57.823 Y65.417 E1.10329
G1 X58.089 Y65.527 E1.11130
G1 X58.089 Y67.534 E1.16702
G1 X58.168 Y68.031 E1.18102
G1 X57.948 Y68.143 E1.18786
G1 X59.832 Y68.031 F7800.000
G1 X59.911 Y67.534 F1800.000 E1.20186
G1 X59.911 Y65.527 E1.25759
G1 X60.177 Y65.417 E1.26560
G1 X61.306 Y66.552 E1.31006
G1 X61.306 Y67.023 E1.32314
G1 X60.900 Y67.432 E1.33916
G1 X60.900 Y67.432 E1.33916
G1 X60.145 Y68.190 E1.36889
G1 X59.925 Y68.079 E1.37573
G1 F1800.000 E0.37573
G92 E0
G1 X68.694 Y67.023 F7800.000
G1 F1800.000 E1.00000
G1 X68.694 Y66.552 F1800.000 E1.01308
G1 X69.823 Y65.417 E1.05755
G1 X70.089 Y65.527 E1.06555
G1 X70.089 Y67.534 E1.12128
G1 X70.168 Y68.031 E1.13528
G1 X69.855 Y68.190 E1.14502
G1 X68.767 Y67.097 E1.18786
G1 F1800.000 E0.18786
G92 E0
G1 X71.911 Y67.534 F7800.000
G1 F1800.000 E1.00000
G1 X71.911 Y65.527 F1800.000 E1.05572
G1 X72.177 Y65.417 E1.06373
G1 X73.306 Y66.552 E1.10819
G1 X73.306 Y67.023 E1.12128
G1 X72.145 Y68.190 E1.16702
G1 X71.832 Y68.031 E1.17676
G1 X71.895 Y67.637 E1.18786
G1 X71.870 Y67.789 F7800.000
G1 X71.973 Y67.144 F1800.000 E1.20601
G1 X72.564 Y67.190 E1.22250
G1 X72.564 Y72.810 E1.37860
G1 X71.973 Y72.856 E1.39509
G1 X71.870 Y72.211 E1.41323
G1 X71.740 Y71.956 E1.42119
G1 X71.534 Y71.750 E1.42928
G1 X71.534 Y71.750 E1.42928
G1 X71.412 Y71.628 E1.43409
G1 X71.398 Y71.642 E1.43464
G1 X71.000 Y71.578 E1.44583
G1 X70.717 Y71.623 E1.45379
G1 X70.548 Y71.709 E1.45905
G1 X70.548 Y71.709 E1.45905
G1 X70.462 Y71.753 E1.46174
G1 X70.260 Y71.956 E1.46969
G1 X70.130 Y72.211 E1.47765
G1 X70.027 Y72.856 E1.49580
G1 X69.436 Y72.810 E1.51229
G1 X69.436 Y67.190 E1.66838
G1 X70.027 Y67.144 E1.68487
G1 X70.130 Y67.789 E1.70302
G1 X70.260 Y68.044 E1.71098
G1 X70.836 Y68.620 E1.73360
G1 X70.936 Y68.578 E1.73663
G1 X70.936 Y68.553 E1.73732
G1 X71.283 Y68.376 E1.74813
G1 X71.283 Y68.376 E1.74813
G1 X71.538 Y68.247 E1.75608
G1 X71.615 Y68.169 E1.75911
G1 X71.615 Y68.169 E1.75911
G1 X71.740 Y68.044 E1.76403
G1 X71.823 Y67.882 E1.76908
G1 F1800.000 E0.76908
G92 E0
G1 X72.145 Y71.810 F7800.000
G1 F1800.000 E1.00000
G1 X73.306 Y72.977 F1800.000 E1.04574
G1 X73.306 Y73.448 E1.05883
G1 X72.177 Y74.583 E1.10329
G1 X71.911 Y74.473 E1.11130
G1 X71.911 Y72.466 E1.16703
G1 X71.832 Y71.969 E1.18102
G1 X72.052 Y71.857 E1.18786
G1 X70.168 Y71.969 F7800.000
G1 X70.089 Y72.466 F1800.000 E1.20186
G1 X70.089 Y74.473 E1.25759
G1 X69.823 Y74.583 E1.26560
G1 X68.694 Y73.448 E1.31006
G1 X68.694 Y72.977 E1.32314
G1 X69.855 Y71.810 E1.36889
G1 X70.075 Y71.921 E1.37573
G1 F1800.000 E0.37573
G92 E0
G1 X60.086 Y69.349 F7800.000
G1 F1800.000 E1.00000
G1 X59.692 Y68.954 F2400.000 E1.01827
G1 X58.555 Y68.954 E1.05552
G1 X60.086 Y70.486 E1.12646
G1 X59.509 Y71.046 E1.15280
G1 X57.914 Y69.451 E1.22668
G1 X57.914 Y70.588 E1.26392
G1 X58.308 Y70.982 E1.28219
G1 F1800.000 E0.28219
G92 E0
G1 X70.308 Y71.046 F7800.000
G1 F1800.000 E1.00000
G1 X69.914 Y70.651 F2400.000 E1.01827
G1 X69.914 Y69.514 E1.05552
G1 X71.277 Y70.877 E1.11864
G1 X72.029 Y70.493 E1.14632
G1 X70.676 Y69.139 E1.20904
G1 X71.692 Y69.018 E1.24256
G1 X72.086 Y69.412 E1.26083
G1 F1800.000 E0.26083
G92 E0
G1 Z1.200 F7800.000
G1 X60.177 Y74.757
G1 F1800.000 E1.00000
G1 X59.911 Y74.647 F2700.000 E1.00801
G1 X59.911 Y72.466 E1.06857
G1 X59.870 Y72.211 E1.07575
G1 X59.740 Y71.956 E1.08371
G1 X59.585 Y71.801 E1.08981
G1 X59.585 Y70.849 E1.11625
G1 X58.415 Y70.849 E1.14876
G1 X58.415 Y71.801 E1.17520
G1 X58.260 Y71.956 E1.18130
G1 X58.130 Y72.211 E1.18926
G1 X58.089 Y72.466 E1.19644
G1 X58.089 Y72.466 E1.19644
G1 X58.054 Y72.689 E1.20269
G1 X58.089 Y72.689 E1.20367
G1 X58.089 Y74.647 E1.25806
G1 X57.823 Y74.757 E1.26606
G1 X56.596 Y73.453 E1.31578
G1 X56.596 Y72.972 E1.32915
G1 X57.276 Y72.222 E1.35727
G1 X57.276 Y67.778 E1.48070
G1 X56.596 Y67.028 E1.50882
G1 X56.596 Y66.547 E1.52219
G1 X57.823 Y65.243 E1.57190
G1 X58.089 Y65.353 E1.57991
G1 X58.089 Y67.534 E1.64047
G1 X58.130 Y67.789 E1.64766
G1 X58.260 Y68.044 E1.65561
G1 X58.415 Y68.199 E1.66171
G1 X58.415 Y69.151 E1.68816
G1 X59.585 Y69.151 E1.72066
G1 X59.585 Y68.008 E1.75243
G1 X59.836 Y68.008 E1.75939
G1 X59.871 Y67.786 E1.76562
G1 X59.871 Y67.786 E1.76562
G1 X59.911 Y67.534 E1.77273
G1 X59.911 Y65.353 E1.83329
G1 X60.177 Y65.243 E1.84130
G1 X61.404 Y66.547 E1.89102
G1 X61.404 Y67.028 E1.90439
G1 X60.724 Y67.778 E1.93250
G1 X60.724 Y72.222 E2.05594
G1 X61.404 Y72.972 E2.08405
G1 X61.404 Y73.453 E2.09742
G1 X60.251 Y74.683 E2.14424
G1 F1800.000 E1.14424
G92 E0
G1 X68.596 Y73.453 F7800.000
G1 F1800.000 E1.00000
G1 X68.596 Y72.972 F1800.000 E1.01337
G1 X69.276 Y72.222 E1.04148
G1 X69.276 Y67.778 E1.16492
G1 X68.596 Y67.028 E1.19304
G1 X68.596 Y66.547 E1.20641
G1 X69.823 Y65.243 E1.25612
G1 X70.089 Y65.353 E1.26413
G1 X70.089 Y67.534 E1.32469
G1 X70.130 Y67.789 E1.33188
G1 X70.260 Y68.044 E1.33983
G1 X70.415 Y68.199 E1.34593
G1 X70.415 Y69.151 E1.37238
G1 X71.585 Y69.151 E1.40488
G1 X71.585 Y68.199 E1.43133
G1 X71.740 Y68.044 E1.43743
