; generated by Slic3r 0.9.2 on 2012-10-06 at 12:58:30

; layer_height = 0.3
; perimeters = 1
; solid_layers = 2
; fill_density = 0.2
; perimeter_speed = 40
; infill_speed = 40
; travel_speed = 120
; scale = 1
; nozzle_diameter = 0.5
; filament_diameter = 3
; extrusion_multiplier = 1
; single wall width = 0.70mm
; first layer single wall width = 0.30mm

M190 S55 ; wait for bed temperature to be reached
M104 S185 ; set temperature
G28 ; home all axes
M109 S185 ; wait for temperature to be reached
G90 ; use absolute coordinates
G21 ; set units to millimeters
G92 E0
M82 ; use absolute distances for extrusion
G1 Z0.150 F7200.000
G1 X70.905 Y19.523
G1 F1800.000 E1.00000
G1 X76.485 Y15.593 F1200.000 E1.04967
G1 X76.775 Y15.413 E1.05215
G1 X82.715 Y12.453 E1.10044
G1 X83.055 Y12.333 E1.10307
G1 X83.315 Y12.263 E1.10503
G1 X83.625 Y12.223 E1.10730
G1 X83.925 Y12.223 E1.10949
G1 X84.185 Y12.243 E1.11138
G1 X84.495 Y12.303 E1.11368
G1 X84.795 Y12.393 E1.11596
G1 X85.165 Y12.533 E1.11884
G1 X85.405 Y12.653 E1.12079
G1 X86.045 Y13.043 E1.12625
G1 X87.205 Y14.003 E1.13720
G1 X88.665 Y15.393 E1.15187
G1 X88.845 Y15.593 E1.15383
G1 X89.105 Y15.923 E1.15689
G1 X89.115 Y15.933 E1.15699
G1 X114.505 Y48.543 E1.45774
G1 X114.715 Y48.883 E1.46065
G1 X117.425 Y55.233 E1.51089
G1 X117.545 Y55.583 E1.51358
G1 X117.565 Y55.663 E1.51418
G1 X117.625 Y56.013 E1.51676
G1 X118.235 Y62.923 E1.56724
G1 X118.235 Y63.113 E1.56863
G1 X118.205 Y63.393 E1.57068
G1 X116.765 Y70.213 E1.62140
G1 X116.705 Y70.433 E1.62306
G1 X116.565 Y70.753 E1.62560
G1 X113.255 Y76.903 E1.67642
G1 X113.175 Y77.013 E1.67741
G1 X112.995 Y77.223 E1.67943
G1 X108.205 Y82.223 E1.72981
G1 X64.675 Y121.343 E2.15570
G1 X64.605 Y121.393 E2.15633
G1 X64.535 Y121.433 E2.15692
G1 X64.465 Y121.483 E2.15754
G1 X58.625 Y125.053 E2.20735
G1 X58.425 Y125.153 E2.20898
G1 X51.705 Y127.263 E2.26023
G1 X51.375 Y127.323 E2.26268
G1 X44.585 Y127.763 E2.31219
G1 X44.265 Y127.763 E2.31452
G1 X44.165 Y127.753 E2.31525
G1 X37.265 Y126.613 E2.36614
G1 X37.075 Y126.553 E2.36759
G1 X30.805 Y124.023 E2.41679
G1 X30.715 Y123.993 E2.41748
G1 X30.635 Y123.943 E2.41817
G1 X30.545 Y123.903 E2.41889
G1 X30.295 Y123.743 E2.42105
G1 X30.285 Y123.733 E2.42115
G1 X24.725 Y119.963 E2.47003
G1 X24.585 Y119.843 E2.47138
G1 X24.455 Y119.713 E2.47271
G1 X24.425 Y119.693 E2.47298
G1 X19.875 Y115.003 E2.52053
G1 X19.625 Y114.693 E2.52342
G1 X16.005 Y109.073 E2.57207
G1 X15.835 Y108.753 E2.57471
G1 X13.265 Y102.353 E2.62490
G1 X13.175 Y102.033 E2.62731
G1 X11.915 Y95.663 E2.67457
G1 X11.875 Y95.313 E2.67713
G1 X11.765 Y88.513 E2.72662
G1 X11.795 Y88.143 E2.72932
G1 X12.835 Y81.643 E2.77722
G1 X12.925 Y81.263 E2.78007
G1 X15.045 Y75.033 E2.82795
G1 X15.195 Y74.683 E2.83073
G1 X18.295 Y68.893 E2.87852
G1 X18.495 Y68.583 E2.88120
G1 X22.465 Y63.373 E2.92887
G1 X22.715 Y63.103 E2.93155
G1 X70.872 Y19.553 E3.40403
G1 F1800.000 E2.40403
G92 E0
G1 X62.529 Y92.981 F7200.000
G1 F1800.000 E1.00000
G1 X62.978 Y93.061 F900.000 E1.00332
G1 X62.978 Y93.061 E1.00332
G1 X63.369 Y93.130 E1.00621
G1 X64.451 Y93.479 E1.01449
G1 X66.144 Y94.232 E1.02797
G1 X66.788 Y96.139 E1.04261
G1 X66.986 Y96.950 E1.04869
G1 X67.288 Y98.882 E1.06292
G1 X67.290 Y98.921 E1.06320
G1 X67.290 Y98.921 E1.06320
G1 X67.367 Y100.497 E1.07468
G1 X67.070 Y100.610 E1.07700
G1 X66.759 Y100.224 E1.08061
G1 X65.694 Y99.130 E1.09172
G1 X64.511 Y98.218 E1.10259
G1 X63.206 Y97.490 E1.11346
G1 X61.884 Y96.992 E1.12374
G1 X60.099 Y96.579 E1.13708
G1 X57.083 Y96.086 E1.15931
G1 X57.083 Y96.086 E1.15931
G1 X56.876 Y96.055 E1.16084
G1 X56.577 Y95.354 E1.16638
G1 X56.170 Y94.624 E1.17246
G1 X57.199 Y94.114 E1.18081
G1 X58.554 Y93.645 E1.19125
G1 X58.554 Y93.645 E1.19125
G1 X58.565 Y93.641 E1.19133
G1 X58.603 Y93.631 E1.19162
G1 X58.603 Y93.631 E1.19162
G1 X60.359 Y93.163 E1.20485
G1 X61.701 Y92.971 E1.21471
G1 X62.484 Y92.981 E1.22041
G1 F1800.000 E0.22041
G92 E0
G1 X61.316 Y97.560 F7200.000
G1 F1800.000 E1.00000
G1 X62.691 Y98.023 F900.000 E1.01056
G1 X63.067 Y98.225 E1.01367
G1 X63.067 Y98.225 E1.01367
G1 X64.032 Y98.741 E1.02163
G1 X65.263 Y99.685 E1.03292
G1 X66.275 Y100.735 E1.04353
G1 X66.685 Y101.306 E1.04865
G1 X66.685 Y101.306 E1.04865
G1 X67.303 Y102.167 E1.05636
G1 X66.988 Y104.264 E1.07179
G1 X66.470 Y106.195 E1.08634
G1 X66.478 Y106.195 E1.08640
G1 X65.800 Y107.950 E1.10008
G1 X65.490 Y107.938 E1.10234
G1 X65.080 Y106.586 E1.11262
G1 X64.385 Y104.927 E1.12571
G1 X63.728 Y103.782 E1.13532
G1 X63.093 Y102.998 E1.14266
G1 X63.093 Y102.998 E1.14266
G1 X62.880 Y102.736 E1.14512
G1 X61.878 Y101.828 E1.15496
G1 X60.502 Y100.880 E1.16712
G1 X57.415 Y99.134 E1.19293
G1 X57.415 Y99.135 E1.19293
G1 X57.226 Y99.033 E1.19449
G1 X57.244 Y97.963 E1.20227
G1 X57.102 Y96.796 E1.21083
G1 X61.272 Y97.551 E1.24166
G1 F1800.000 E0.24166
G92 E0
G1 X59.738 Y101.261 F7200.000
G1 F1800.000 E1.00000
G1 X59.758 Y101.273 F900.000 E1.00017
G1 X59.758 Y101.273 E1.00017
G1 X60.547 Y101.739 E1.00684
G1 X60.547 Y101.739 E1.00684
G1 X60.569 Y101.752 E1.00703
G1 X61.835 Y102.701 E1.01853
G1 X62.701 Y103.578 E1.02751
G1 X63.083 Y104.119 E1.03232
G1 X63.083 Y104.119 E1.03232
G1 X63.198 Y104.281 E1.03377
G1 X63.198 Y104.281 E1.03377
G1 X63.373 Y104.528 E1.03597
G1 X64.004 Y105.766 E1.04608
G1 X64.664 Y107.571 E1.06007
G1 X64.701 Y107.729 E1.06125
G1 X64.701 Y107.729 E1.06125
G1 X65.089 Y109.405 E1.07377
G1 X63.922 Y111.278 E1.08983
G1 X62.587 Y112.981 E1.10557
G1 X62.553 Y113.016 E1.10593
G1 X62.553 Y113.016 E1.10593
G1 X61.066 Y114.541 E1.12143
G1 X61.051 Y114.554 E1.12157
G1 X61.051 Y114.554 E1.12157
G1 X60.509 Y115.034 E1.12684
G1 X60.246 Y114.897 E1.12900
G1 X60.344 Y114.098 E1.13486
G1 X60.379 Y110.495 E1.16108
G1 X60.205 Y109.181 E1.17072
G1 X60.107 Y108.680 E1.17444
G1 X59.823 Y107.853 E1.18080
G1 X59.367 Y106.791 E1.18921
G1 X58.612 Y105.377 E1.20087
G1 X57.534 Y103.803 E1.21476
G1 X56.827 Y102.900 E1.22310
G1 X56.121 Y102.244 E1.23011
G1 X56.708 Y101.081 E1.23960
G1 X57.126 Y99.771 E1.24960
G1 X59.700 Y101.238 E1.27116
G1 F1800.000 E0.27116
G92 E0
G1 X56.766 Y103.932 F7200.000
G1 F1800.000 E1.00000
G1 X56.785 Y103.958 F900.000 E1.00023
G1 X56.785 Y103.958 E1.00023
G1 X58.363 Y106.325 E1.02094
G1 X58.379 Y106.359 E1.02121
G1 X58.379 Y106.359 E1.02121
G1 X58.975 Y107.646 E1.03153
G1 X59.379 Y108.670 E1.03954
G1 X59.574 Y109.662 E1.04690
G1 X59.698 Y110.858 E1.05565
G1 X59.701 Y112.811 E1.06986
G1 X59.615 Y114.366 E1.08119
G1 X59.291 Y116.005 E1.09335
G1 X57.367 Y117.262 E1.11007
G1 X55.364 Y118.293 E1.12647
G1 X54.526 Y118.622 E1.13302
G1 X54.526 Y118.622 E1.13302
G1 X53.356 Y119.083 E1.14217
G1 X52.791 Y119.265 E1.14649
G1 X52.606 Y119.034 E1.14865
G1 X53.465 Y117.584 E1.16091
G1 X54.040 Y116.240 E1.17155
G1 X54.654 Y114.329 E1.18615
G1 X54.663 Y114.329 E1.18622
G1 X54.933 Y113.161 E1.19494
G1 X55.086 Y111.713 E1.20553
G1 X55.040 Y110.185 E1.21666
G1 X54.786 Y108.578 E1.22850
G1 X54.252 Y106.743 E1.24241
G1 X53.432 Y104.848 E1.25743
G1 X53.668 Y104.708 E1.25943
G1 X54.720 Y103.897 E1.26910
G1 X55.723 Y102.827 E1.27977
G1 X56.256 Y103.314 E1.28503
G1 X56.738 Y103.897 E1.29053
G1 F1800.000 E0.29053
G92 E0
G1 X53.110 Y105.806 F7200.000
G1 F1800.000 E1.00000
G1 X53.124 Y105.841 F840.000 E1.00028
G1 X53.124 Y105.841 E1.00028
G1 X53.751 Y107.440 E1.01277
G1 X54.172 Y109.065 E1.02499
G1 X54.373 Y110.629 E1.03647
G1 X54.360 Y112.136 E1.04743
G1 X54.139 Y113.543 E1.05780
G1 X54.127 Y113.585 E1.05812
G1 X54.127 Y113.585 E1.05812
G1 X53.621 Y115.313 E1.07122
G1 X52.976 Y116.983 E1.08424
G1 X52.284 Y118.235 E1.09465
G1 X51.852 Y118.838 E1.10006
G1 X51.852 Y118.838 E1.10006
G1 X51.244 Y119.687 E1.10765
G1 X48.934 Y120.098 E1.12473
G1 X48.934 Y120.098 E1.12473
G1 X48.901 Y120.104 E1.12497
G1 X46.571 Y120.282 E1.14198
G1 X44.207 Y120.230 E1.15918
G1 X42.727 Y120.077 E1.17001
G1 X42.664 Y119.758 E1.17237
G1 X43.005 Y119.573 E1.17520
G1 X43.026 Y119.559 E1.17538
G1 X43.026 Y119.559 E1.17538
G1 X44.375 Y118.694 E1.18705
G1 X45.682 Y117.611 E1.19940
G1 X46.903 Y116.395 E1.21194
G1 X46.904 Y116.396 E1.21194
G1 X47.016 Y116.283 E1.21310
G1 X47.889 Y115.174 E1.22337
G1 X48.633 Y113.873 E1.23427
G1 X49.146 Y112.550 E1.24461
G1 X49.510 Y111.063 E1.25575
G1 X49.752 Y109.350 E1.26833
G1 X49.753 Y109.328 E1.26849
G1 X49.753 Y109.328 E1.26849
G1 X49.804 Y107.782 E1.27975
G1 X49.802 Y107.761 E1.27990
G1 X49.802 Y107.761 E1.27990
G1 X49.647 Y106.070 E1.29226
G1 X50.039 Y106.026 E1.29513
G1 X50.225 Y105.987 E1.29651
G1 X50.225 Y105.987 E1.29651
G1 X51.367 Y105.752 E1.30500
G1 X51.632 Y105.652 E1.30706
G1 X51.632 Y105.652 E1.30706
G1 X52.819 Y105.206 E1.31629
G1 X53.091 Y105.765 E1.32082
G1 F1800.000 E0.32082
G92 E0
G1 X48.934 Y106.109 F7200.000
G1 F1800.000 E1.00000
G1 X49.043 Y106.869 F840.000 E1.00558
G1 X49.106 Y108.345 E1.01633
G1 X48.949 Y110.180 E1.02974
G1 X48.589 Y111.962 E1.04297
G1 X48.102 Y113.352 E1.05369
G1 X47.398 Y114.649 E1.06443
G1 X46.551 Y115.755 E1.07456
G1 X45.351 Y116.964 E1.08696
G1 X44.104 Y118.022 E1.09886
G1 X42.751 Y118.913 E1.11065
G1 X41.013 Y119.791 E1.12481
G1 X38.617 Y119.169 E1.14283
G1 X36.328 Y118.336 E1.16056
G1 X34.104 Y117.279 E1.17847
G1 X34.061 Y117.253 E1.17884
G1 X34.061 Y117.253 E1.17884
G1 X32.083 Y116.078 E1.19558
G1 X32.070 Y116.069 E1.19569
G1 X32.070 Y116.069 E1.19569
G1 X31.633 Y115.776 E1.19952
G1 X31.720 Y115.470 E1.20184
G1 X33.582 Y115.401 E1.21539
G1 X35.323 Y115.141 E1.22820
G1 X37.000 Y114.713 E1.24080
G1 X38.520 Y114.143 E1.25261
G1 X38.539 Y114.134 E1.25276
G1 X38.539 Y114.134 E1.25276
G1 X39.803 Y113.464 E1.26317
G1 X39.827 Y113.477 E1.26337
G1 X41.315 Y112.400 E1.27674
G1 X42.445 Y111.338 E1.28802
G1 X43.430 Y110.124 E1.29940
G1 X44.259 Y108.716 E1.31129
G1 X44.842 Y107.301 E1.32242
G1 X45.338 Y105.412 E1.33664
G1 X45.903 Y105.613 E1.34100
G1 X47.351 Y105.970 E1.35186
G1 X48.889 Y106.105 E1.36310
G1 F1800.000 E0.36310
G92 E0
G1 X44.672 Y105.121 F7200.000
G1 F1800.000 E1.00000
G1 X44.354 Y106.507 F840.000 E1.01035
G1 X43.840 Y107.959 E1.02156
G1 X43.134 Y109.306 E1.03262
G1 X42.283 Y110.468 E1.04311
G1 X41.273 Y111.509 E1.05366
G1 X40.004 Y112.515 E1.06544
G1 X38.569 Y113.352 E1.07754
G1 X37.130 Y113.936 E1.08883
G1 X35.221 Y114.448 E1.10322
G1 X35.009 Y114.480 E1.10478
G1 X35.009 Y114.480 E1.10478
G1 X33.508 Y114.706 E1.11582
G1 X31.754 Y114.771 E1.12860
G1 X30.252 Y114.767 E1.13953
G1 X28.292 Y113.077 E1.15836
G1 X26.524 Y111.244 E1.17690
G1 X24.920 Y109.244 E1.19555
G1 X23.485 Y107.082 E1.21444
G1 X23.104 Y106.427 E1.21995
G1 X23.323 Y106.188 E1.22231
G1 X24.765 Y106.866 E1.23390
G1 X26.460 Y107.502 E1.24708
G1 X28.027 Y107.872 E1.25879
G1 X29.970 Y108.144 E1.27307
G1 X30.153 Y108.149 E1.27440
G1 X30.153 Y108.149 E1.27440
G1 X31.918 Y108.201 E1.28725
G1 X31.978 Y108.199 E1.28769
G1 X33.689 Y108.042 E1.30019
G1 X35.106 Y107.711 E1.31078
G1 X36.351 Y107.207 E1.32056
G1 X37.903 Y106.316 E1.33358
G1 X39.002 Y105.483 E1.34361
G1 X39.987 Y104.502 E1.35373
G1 X40.832 Y103.443 E1.36359
G1 X41.356 Y102.538 E1.37120
G1 X42.095 Y103.305 E1.37894
G1 X43.270 Y104.276 E1.39003
G1 X44.634 Y105.098 E1.40162
G1 F1800.000 E0.40162
G92 E0
G1 X40.559 Y102.538 F7200.000
G1 F1800.000 E1.00000
G1 X40.224 Y103.094 F840.000 E1.00472
G1 X39.303 Y104.210 E1.01525
G1 X38.305 Y105.159 E1.02527
G1 X37.005 Y106.055 E1.03676
G1 X36.890 Y106.114 E1.03770
G1 X36.890 Y106.114 E1.03770
G1 X35.643 Y106.762 E1.04793
G1 X34.408 Y107.185 E1.05743
G1 X34.372 Y107.191 E1.05769
G1 X34.372 Y107.191 E1.05769
G1 X33.088 Y107.417 E1.06718
G1 X31.368 Y107.509 E1.07972
G1 X31.325 Y107.506 E1.08003
G1 X31.325 Y107.506 E1.08003
G1 X29.699 Y107.408 E1.09188
G1 X29.699 Y107.418 E1.09196
G1 X29.540 Y107.398 E1.09312
G1 X29.540 Y107.398 E1.09312
G1 X29.240 Y107.361 E1.09533
G1 X27.225 Y106.983 E1.11024
G1 X25.715 Y106.506 E1.12177
G1 X23.929 Y105.708 E1.13600
G1 X22.248 Y104.807 E1.14988
G1 X21.182 Y102.337 E1.16946
G1 X20.928 Y101.569 E1.17535
G1 X20.928 Y101.569 E1.17535
G1 X20.350 Y99.820 E1.18875
G1 X19.737 Y97.229 E1.20813
G1 X19.575 Y96.148 E1.21608
G1 X19.575 Y96.148 E1.21608
G1 X19.374 Y94.801 E1.22599
G1 X19.368 Y94.801 E1.22604
G1 X19.356 Y94.683 E1.22690
G1 X19.356 Y94.683 E1.22690
G1 X19.289 Y93.978 E1.23205
G1 X19.592 Y93.853 E1.23444
G1 X20.683 Y95.189 E1.24699
G1 X22.164 Y96.683 E1.26230
G1 X23.436 Y97.781 E1.27453
G1 X24.808 Y98.712 E1.28659
G1 X26.519 Y99.612 E1.30066
G1 X28.045 Y100.262 E1.31273
G1 X29.344 Y100.603 E1.32250
G1 X29.344 Y100.622 E1.32264
G1 X30.840 Y100.773 E1.33358
G1 X32.334 Y100.718 E1.34446
G1 X34.038 Y100.434 E1.35703
G1 X35.503 Y99.988 E1.36818
G1 X36.753 Y99.421 E1.37817
G1 X37.821 Y98.751 E1.38734
G1 X38.970 Y97.753 E1.39842
G1 X39.338 Y98.988 E1.40780
G1 X39.965 Y100.448 E1.41936
G1 X40.067 Y100.615 E1.42079
G1 X40.067 Y100.615 E1.42079
G1 X40.492 Y101.311 E1.42672
G1 X40.492 Y101.311 E1.42672
G1 X40.836 Y101.872 E1.43151
G1 X40.580 Y102.498 E1.43643
G1 F1800.000 E0.43643
G92 E0
G1 X37.105 Y98.398 F7200.000
G1 F1800.000 E1.00000
G1 X35.949 Y99.040 F840.000 E1.00963
G1 X34.578 Y99.560 E1.02030
G1 X34.538 Y99.569 E1.02059
G1 X34.538 Y99.569 E1.02059
G1 X32.977 Y99.931 E1.03226
G1 X31.344 Y100.075 E1.04419
G1 X31.310 Y100.074 E1.04443
G1 X31.310 Y100.074 E1.04443
G1 X30.039 Y100.014 E1.05369
G1 X28.807 Y99.772 E1.06283
G1 X27.573 Y99.323 E1.07239
G1 X26.047 Y98.587 E1.08471
G1 X26.025 Y98.600 E1.08490
G1 X25.834 Y98.485 E1.08652
G1 X25.834 Y98.485 E1.08652
G1 X24.367 Y97.600 E1.09898
G1 X23.091 Y96.583 E1.11086
G1 X21.498 Y95.037 E1.12701
G1 X20.304 Y93.644 E1.14037
G1 X19.179 Y92.005 E1.15483
G1 X19.236 Y89.222 E1.17508
G1 X19.259 Y89.003 E1.17669
G1 X19.259 Y89.003 E1.17669
G1 X19.500 Y86.654 E1.19387
G1 X19.834 Y84.852 E1.20721
G1 X19.834 Y84.852 E1.20721
G1 X20.006 Y83.920 E1.21411
G1 X20.006 Y83.920 E1.21411
G1 X20.024 Y83.823 E1.21483
G1 X20.032 Y83.823 E1.21489
G1 X20.743 Y81.214 E1.23457
G1 X20.752 Y81.186 E1.23477
G1 X20.752 Y81.186 E1.23477
G1 X21.136 Y80.054 E1.24348
G1 X21.463 Y80.064 E1.24586
G1 X21.597 Y80.559 E1.24959
G1 X22.256 Y82.558 E1.26490
G1 X23.123 Y84.507 E1.28043
G1 X24.184 Y86.329 E1.29577
G1 X25.361 Y87.945 E1.31032
G1 X26.581 Y89.299 E1.32358
G1 X27.790 Y90.392 E1.33544
G1 X29.099 Y91.322 E1.34713
G1 X30.536 Y92.069 E1.35892
G1 X30.555 Y92.076 E1.35906
G1 X30.555 Y92.076 E1.35906
G1 X32.036 Y92.602 E1.37050
G1 X33.602 Y92.917 E1.38212
G1 X33.624 Y92.918 E1.38228
G1 X33.624 Y92.918 E1.38228
G1 X35.280 Y93.026 E1.39436
G1 X36.919 Y92.958 E1.40630
G1 X37.998 Y92.767 E1.41427
G1 X38.977 Y92.428 E1.42181
G1 X38.805 Y93.447 E1.42933
G1 X38.774 Y93.890 E1.43257
G1 X38.774 Y93.890 E1.43257
G1 X38.690 Y95.104 E1.44142
G1 X38.807 Y96.829 E1.45400
G1 X38.097 Y97.597 E1.46161
G1 X38.113 Y97.613 E1.46177
G1 X38.007 Y97.695 E1.46275
G1 X38.007 Y97.695 E1.46275
G1 X37.141 Y98.370 E1.47074
G1 F1800.000 E0.47074
G92 E0
G1 X36.334 Y92.301 F7200.000
G1 F1800.000 E1.00000
G1 X34.455 Y92.297 F840.000 E1.01368
G1 X32.910 Y92.095 E1.02502
G1 X31.368 Y91.651 E1.03670
G1 X29.899 Y90.978 E1.04845
G1 X28.613 Y90.150 E1.05958
G1 X27.385 Y89.109 E1.07130
G1 X26.128 Y87.767 E1.08468
G1 X24.867 Y86.096 E1.09991
G1 X24.054 Y84.752 E1.11134
G1 X24.054 Y84.752 E1.11134
G1 X23.953 Y84.586 E1.11276
G1 X23.105 Y82.800 E1.12714
G1 X22.855 Y82.095 E1.13258
G1 X22.855 Y82.095 E1.13258
G1 X22.489 Y81.068 E1.14052
G1 X22.489 Y81.068 E1.14052
G1 X22.406 Y80.833 E1.14233
G1 X21.787 Y78.362 E1.16087
G1 X23.022 Y75.726 E1.18205
G1 X24.446 Y73.233 E1.20295
G1 X26.077 Y70.847 E1.22398
G1 X27.685 Y68.838 E1.24270
G1 X29.245 Y67.133 E1.25952
G1 X30.876 Y65.559 E1.27601
G1 X32.608 Y64.076 E1.29261
G1 X34.287 Y62.806 E1.30793
G1 X34.287 Y62.806 E1.30793
G1 X35.221 Y62.150 E1.31623
G1 X37.782 Y60.563 E1.33815
G1 X40.998 Y58.929 E1.36440
G1 X43.225 Y58.000 E1.38196
G1 X44.120 Y59.586 E1.39522
G1 X44.903 Y61.294 E1.40889
G1 X45.451 Y62.987 E1.42184
G1 X45.460 Y63.030 E1.42216
G1 X45.460 Y63.030 E1.42216
G1 X45.837 Y64.853 E1.43570
G1 X46.118 Y67.102 E1.45220
G1 X46.331 Y70.284 E1.47540
G1 X46.339 Y72.922 E1.49460
G1 X45.252 Y83.897 E1.57486
G1 X44.415 Y84.445 E1.58214
G1 X43.676 Y85.002 E1.58887
G1 X42.664 Y85.901 E1.59872
G1 X42.517 Y86.058 E1.60028
G1 X42.517 Y86.058 E1.60028
