; generated by Slic3r 0.9.2 on 2012-10-05 at 20:30:08

; layer_height = 0.2
; perimeters = 1
; solid_layers = 2
; fill_density = 0.1
; perimeter_speed = 45
; infill_speed = 70
; travel_speed = 130
; scale = 1
; nozzle_diameter = 0.5
; filament_diameter = 3
; extrusion_multiplier = 1
; single wall width = 0.70mm
; first layer single wall width = 0.60mm

M190 S55 ; wait for bed temperature to be reached
M104 S188 ; set temperature
G28 ; home all axes
M109 S188 ; wait for temperature to be reached
G90 ; use absolute coordinates
G21 ; set units to millimeters
G92 E0
M82 ; use absolute distances for extrusion
G1 Z0.300 F7800.000
G1 X41.115 Y40.138
G1 F1800.000 E1.00000
G1 X45.845 Y35.618 F1350.000 E1.16064
G1 X46.685 Y34.928 E1.18733
G1 X52.035 Y31.178 E1.34775
G1 X52.985 Y30.618 E1.37483
G1 X59.155 Y27.588 E1.54361
G1 X59.415 Y27.478 E1.55054
G1 X59.965 Y27.288 E1.56483
G1 X60.245 Y27.208 E1.57198
G1 X61.105 Y27.038 E1.59351
G1 X61.975 Y26.978 E1.61492
G1 X62.265 Y26.978 E1.62204
G1 X62.845 Y27.018 E1.63632
G1 X63.415 Y27.108 E1.65049
G1 X63.985 Y27.238 E1.66484
G1 X64.565 Y27.428 E1.67983
G1 X65.465 Y27.778 E1.70354
G1 X66.325 Y28.228 E1.72737
G1 X67.125 Y28.748 E1.75080
G1 X68.725 Y30.058 E1.80157
G1 X70.375 Y31.648 E1.85784
G1 X96.705 Y65.268 E2.90637
G1 X97.045 Y65.798 E2.92183
G1 X97.345 Y66.358 E2.93743
G1 X100.245 Y73.258 E3.12121
G1 X100.445 Y73.858 E3.13674
G1 X100.625 Y74.788 E3.16000
G1 X101.295 Y82.168 E3.34195
G1 X101.305 Y82.478 E3.34957
G1 X101.285 Y83.088 E3.36455
G1 X101.205 Y83.698 E3.37966
G1 X99.665 Y90.938 E3.56141
G1 X99.575 Y91.258 E3.56957
G1 X99.345 Y91.898 E3.58627
G1 X95.705 Y98.738 E3.77652
G1 X95.535 Y99.018 E3.78456
G1 X95.155 Y99.538 E3.80038
G1 X89.825 Y105.148 E3.99038
G1 X89.545 Y105.398 E3.99960
G1 X88.955 Y105.848 E4.01782
G1 X82.625 Y109.728 E4.20012
G1 X81.985 Y110.038 E4.21758
G1 X81.655 Y110.168 E4.22629
G1 X74.605 Y112.368 E4.40763
G1 X73.945 Y112.508 E4.42419
G1 X66.275 Y113.038 E4.61297
G1 X65.945 Y113.038 E4.62108
G1 X65.285 Y112.988 E4.63733
G1 X58.085 Y111.788 E4.81656
G1 X57.475 Y111.638 E4.83198
G1 X50.435 Y108.828 E5.01810
G1 X49.615 Y108.388 E5.04095
G1 X43.615 Y104.288 E5.21939
G1 X42.955 Y103.728 E5.24064
G1 X37.945 Y98.568 E5.41723
G1 X37.415 Y97.898 E5.43821
G1 X33.405 Y91.628 E5.62095
G1 X33.065 Y90.898 E5.64073
G1 X30.505 Y84.528 E5.80930
G1 X30.345 Y84.018 E5.82242
G1 X28.895 Y76.778 E6.00372
G1 X28.815 Y76.018 E6.02248
G1 X28.695 Y68.938 E6.19635
G1 X28.725 Y68.438 E6.20865
G1 X29.815 Y61.448 E6.38236
G1 X30.105 Y60.268 E6.41219
G1 X32.215 Y54.058 E6.57324
G1 X32.665 Y53.018 E6.60106
G1 X35.745 Y47.188 E6.76296
G1 X36.395 Y46.178 E6.79245
G1 X40.375 Y40.968 E6.95343
G1 X41.056 Y40.205 E6.97853
G1 X41.525 Y40.568 F7800.000
G1 X46.255 Y36.048 F1350.000 E7.13917
G1 X47.025 Y35.408 E7.16375
G1 X52.375 Y31.658 E7.32417
G1 X53.245 Y31.148 E7.34894
G1 X59.405 Y28.128 E7.51739
G1 X59.925 Y27.918 E7.53116
G1 X60.465 Y27.758 E7.54499
G1 X61.015 Y27.648 E7.55876
G1 X61.295 Y27.608 E7.56570
G1 X61.855 Y27.568 E7.57949
G1 X62.425 Y27.578 E7.59349
G1 X62.705 Y27.598 E7.60038
G1 X63.255 Y27.678 E7.61403
G1 X63.805 Y27.808 E7.62790
G1 X64.385 Y27.988 E7.64281
G1 X65.205 Y28.318 E7.66452
G1 X66.015 Y28.738 E7.68692
G1 X66.775 Y29.228 E7.70912
G1 X67.425 Y29.718 E7.72911
G1 X69.445 Y31.538 E7.79587
G1 X70.315 Y32.468 E7.82714
G1 X96.255 Y65.658 E8.86146
G1 X96.625 Y66.248 E8.87856
G1 X96.785 Y66.558 E8.88713
G1 X99.715 Y73.508 E9.07232
G1 X99.985 Y74.488 E9.09728
G1 X100.705 Y82.248 E9.28864
G1 X100.715 Y82.568 E9.29650
G1 X100.705 Y82.898 E9.30461
G1 X100.635 Y83.548 E9.32066
G1 X99.175 Y90.488 E9.49480
G1 X99.015 Y91.088 E9.51004
G1 X98.805 Y91.668 E9.52519
G1 X98.675 Y91.958 E9.53299
G1 X95.165 Y98.488 E9.71502
G1 X94.975 Y98.788 E9.72374
G1 X94.765 Y99.078 E9.73254
G1 X94.305 Y99.618 E9.74995
G1 X89.415 Y104.718 E9.92344
G1 X89.165 Y104.948 E9.93178
G1 X88.905 Y105.158 E9.93999
G1 X82.345 Y109.208 E10.12929
G1 X81.755 Y109.498 E10.14543
G1 X81.455 Y109.618 E10.15336
G1 X74.455 Y111.798 E10.33338
G1 X74.155 Y111.868 E10.34095
G1 X73.535 Y111.968 E10.35637
G1 X66.265 Y112.448 E10.53526
G1 X65.965 Y112.448 E10.54263
G1 X65.055 Y112.358 E10.56508
G1 X58.205 Y111.218 E10.73559
G1 X57.645 Y111.068 E10.74983
G1 X50.685 Y108.288 E10.93385
G1 X50.425 Y108.168 E10.94088
G1 X49.925 Y107.888 E10.95495
G1 X43.975 Y103.818 E11.13196
G1 X43.365 Y103.308 E11.15148
G1 X38.385 Y98.178 E11.32703
G1 X38.215 Y97.978 E11.33348
G1 X37.895 Y97.558 E11.34644
G1 X34.045 Y91.568 E11.52128
G1 X33.705 Y90.908 E11.53951
G1 X31.065 Y84.328 E11.71360
G1 X30.915 Y83.858 E11.72571
G1 X29.475 Y76.688 E11.90528
G1 X29.405 Y75.988 E11.92255
G1 X29.285 Y68.948 E12.09544
G1 X29.335 Y68.258 E12.11242
G1 X30.395 Y61.548 E12.27922
G1 X30.665 Y60.458 E12.30680
G1 X32.775 Y54.248 E12.46784
G1 X33.185 Y53.288 E12.49347
G1 X36.265 Y47.458 E12.65537
G1 X36.855 Y46.538 E12.68220
G1 X40.835 Y41.328 E12.84319
G1 X41.465 Y40.635 E12.86618
G1 F1800.000 E11.86618
G92 E0
G1 X64.699 Y101.346 F7800.000
G1 F1800.000 E1.00000
G1 X65.861 Y101.467 F900.000 E1.02867
G1 X68.037 Y101.515 E1.08212
G1 X68.123 Y101.694 E1.08699
G1 X67.804 Y102.108 E1.09982
G1 X67.617 Y102.431 E1.10899
G1 X67.615 Y102.431 E1.10904
G1 X67.433 Y102.804 E1.11922
G1 X67.433 Y102.804 E1.11922
G1 X66.785 Y104.154 E1.15600
G1 X66.583 Y104.497 E1.16577
G1 X66.179 Y105.097 E1.18354
G1 X65.869 Y104.538 E1.19923
G1 X65.546 Y103.809 E1.21880
G1 X65.294 Y103.098 E1.23733
G1 X65.294 Y103.098 E1.23733
G1 X65.136 Y102.629 E1.24949
G1 X65.233 Y102.629 E1.25188
G1 X64.592 Y101.510 E1.28352
G1 X64.650 Y101.422 E1.28612
G1 F1800.000 E0.28612
G92 E0
G1 X70.317 Y101.567 F7800.000
G1 F1800.000 E1.00000
G1 X70.375 Y101.393 F900.000 E1.00451
G1 X72.114 Y101.084 E1.04788
G1 X72.114 Y101.084 E1.04788
G1 X73.620 Y100.816 E1.08543
G1 X73.734 Y100.959 E1.08993
G1 X73.560 Y101.371 E1.10092
G1 X73.560 Y101.371 E1.10092
G1 X73.536 Y101.429 E1.10246
G1 X73.427 Y101.804 E1.11205
G1 X73.029 Y103.647 E1.15833
G1 X72.911 Y104.025 E1.16807
G1 X72.662 Y104.676 E1.18517
G1 X72.218 Y104.184 E1.20145
G1 X71.738 Y103.548 E1.22102
G1 X71.419 Y103.053 E1.23549
G1 X71.418 Y103.053 E1.23549
G1 X70.934 Y102.288 E1.25771
G1 X70.702 Y101.977 E1.26725
G1 X70.379 Y101.633 E1.27884
G1 F1800.000 E0.27884
G92 E0
G1 X62.430 Y101.163 F7800.000
G1 F1800.000 E1.00000
G1 X62.056 Y101.466 F900.000 E1.01182
G1 X61.781 Y101.752 E1.02158
G1 X60.592 Y103.233 E1.06821
G1 X60.321 Y103.523 E1.07794
G1 X59.776 Y104.039 E1.09639
G1 X59.602 Y103.448 E1.11152
G1 X59.447 Y102.670 E1.13101
G1 X59.395 Y102.284 E1.14057
G1 X59.395 Y102.284 E1.14057
G1 X59.345 Y101.821 E1.15200
G1 X59.345 Y101.821 E1.15200
G1 X59.268 Y101.168 E1.16814
G1 X59.197 Y100.787 E1.17765
G1 X59.013 Y100.169 E1.19349
G1 X59.158 Y100.032 E1.19840
G1 X60.097 Y100.374 E1.22293
G1 X61.944 Y100.853 E1.26978
G1 X61.944 Y100.853 E1.26978
G1 X62.388 Y100.968 E1.28105
G1 X62.411 Y101.075 E1.28374
G1 F1800.000 E0.28374
G92 E0
G1 X75.829 Y100.260 F7800.000
G1 F1800.000 E1.00000
G1 X75.848 Y100.064 F900.000 E1.00484
G1 X77.369 Y99.465 E1.04498
G1 X78.465 Y98.901 E1.07524
G1 X78.465 Y98.901 E1.07524
G1 X78.858 Y98.698 E1.08611
G1 X79.016 Y98.811 E1.09087
G1 X78.914 Y99.533 E1.10877
G1 X78.911 Y99.533 E1.10886
G1 X78.921 Y99.804 E1.11552
G1 X78.914 Y100.060 E1.12182
G1 X78.928 Y100.060 E1.12215
G1 X78.974 Y100.824 E1.14094
G1 X78.973 Y100.824 E1.14096
G1 X78.984 Y101.679 E1.16196
G1 X78.958 Y102.074 E1.17168
G1 X78.872 Y102.739 E1.18813
G1 X78.305 Y102.352 E1.20499
G1 X77.990 Y102.108 E1.21477
G1 X76.618 Y100.820 E1.26099
G1 X76.617 Y100.819 E1.26102
G1 X76.429 Y100.643 E1.26734
G1 X75.905 Y100.308 E1.28261
G1 F1800.000 E0.28261
G92 E0
G1 X56.995 Y99.373 F7800.000
G1 F1800.000 E1.00000
G1 X56.577 Y99.573 F900.000 E1.01138
G1 X56.243 Y99.791 E1.02117
G1 X54.755 Y100.982 E1.06798
G1 X54.427 Y101.209 E1.07776
G1 X53.763 Y101.614 E1.09686
G1 X53.719 Y101.022 E1.11144
G1 X53.732 Y100.231 E1.13087
G1 X53.975 Y97.550 E1.19696
G1 X55.057 Y98.193 E1.22785
G1 X55.057 Y98.193 E1.22786
G1 X55.456 Y98.430 E1.23925
G1 X56.995 Y99.161 E1.28108
G1 X56.995 Y99.283 E1.28407
G1 F1800.000 E0.28407
G92 E0
G1 X80.847 Y97.480 F7800.000
G1 F1800.000 E1.00000
G1 X81.566 Y97.010 F900.000 E1.02110
G1 X81.566 Y97.010 E1.02110
G1 X81.655 Y96.952 E1.02372
G1 X81.812 Y96.159 E1.04357
G1 X82.317 Y96.424 E1.05757
G1 X83.395 Y95.469 E1.09292
G1 X83.571 Y95.535 E1.09755
G1 X83.650 Y96.143 E1.11259
G1 X83.650 Y96.143 E1.11260
G1 X83.675 Y96.334 E1.11732
G1 X83.685 Y96.334 E1.11758
G1 X84.037 Y97.466 E1.14668
G1 X84.049 Y97.466 E1.14698
G1 X84.276 Y98.306 E1.16835
G1 X84.349 Y98.695 E1.17807
G1 X84.424 Y99.333 E1.19385
G1 X83.757 Y99.092 E1.21126
G1 X83.392 Y98.933 E1.22103
G1 X81.753 Y98.025 E1.26703
G1 X81.397 Y97.859 E1.27668
G1 X80.875 Y97.690 E1.29016
G1 X80.858 Y97.570 E1.29314
G1 F1800.000 E0.29314
G92 E0
G1 X52.005 Y96.288 F7800.000
G1 F1800.000 E1.00000
G1 X51.956 Y96.483 F900.000 E1.00493
G1 X51.614 Y96.558 E1.01352
G1 X50.898 Y96.826 E1.03231
G1 X50.898 Y96.858 E1.03310
G1 X49.527 Y97.554 E1.07083
G1 X48.401 Y97.983 E1.10042
G1 X48.476 Y97.414 E1.11451
G1 X48.648 Y96.647 E1.13383
G1 X49.433 Y94.069 E1.19998
G1 X51.937 Y96.229 E1.28118
G1 F1800.000 E0.28118
G92 E0
G1 X84.999 Y93.768 F7800.000
G1 F1800.000 E1.00000
G1 X86.228 Y92.201 F900.000 E1.04890
G1 X86.893 Y91.133 E1.07979
G1 X87.083 Y91.147 E1.08445
G1 X87.359 Y91.779 E1.10139
G1 X87.549 Y92.109 E1.11075
G1 X88.339 Y93.333 E1.14651
G1 X88.532 Y93.685 E1.15637
G1 X88.701 Y94.041 E1.16604
G1 X88.927 Y94.614 E1.18116
G1 X88.196 Y94.551 E1.19917
G1 X87.801 Y94.491 E1.20899
G1 X87.078 Y94.327 E1.22718
G1 X87.078 Y94.328 E1.22720
G1 X85.998 Y94.036 E1.25467
G1 X85.608 Y93.969 E1.26439
G1 X85.081 Y93.945 E1.27736
G1 X85.037 Y93.850 E1.27994
G1 F1800.000 E0.27994
G92 E0
G1 X47.784 Y92.375 F7800.000
G1 F1800.000 E1.00000
G1 X47.721 Y92.535 F900.000 E1.00422
G1 X46.962 Y92.646 E1.02306
G1 X46.039 Y92.886 E1.04648
G1 X46.039 Y92.890 E1.04657
G1 X45.108 Y93.138 E1.07023
G1 X43.893 Y93.342 E1.10048
G1 X44.070 Y92.820 E1.11402
G1 X44.388 Y92.103 E1.13327
G1 X45.706 Y89.703 E1.20050
G1 X46.022 Y90.179 E1.21452
G1 X47.728 Y92.305 E1.28145
G1 F1800.000 E0.28145
G92 E0
G1 X46.069 Y90.546 F7800.000
G1 F1800.000 E1.00000
G1 X45.234 Y90.546 F900.000 E1.02051
G1 X45.522 Y89.749 E1.04133
G1 X45.721 Y89.725 E1.04624
G1 X46.157 Y90.383 E1.06561
G1 X46.112 Y90.467 E1.06796
G1 F1800.000 E0.06796
G92 E0
G1 X88.041 Y89.097 F7800.000
G1 F1800.000 E1.00000
G1 X88.788 Y87.166 F900.000 E1.05083
G1 X88.788 Y87.166 E1.05083
G1 X88.855 Y86.991 E1.05544
G1 X89.098 Y86.087 E1.07843
G1 X89.284 Y86.045 E1.08310
G1 X89.750 Y86.592 E1.10074
G1 X91.117 Y87.802 E1.14556
G1 X91.399 Y88.089 E1.15545
G1 X91.658 Y88.386 E1.16511
G1 X92.013 Y88.857 E1.17961
G1 X91.269 Y88.997 E1.19821
G1 X90.870 Y89.045 E1.20807
G1 X90.095 Y89.081 E1.22713
G1 X89.388 Y89.080 E1.24448
G1 X89.025 Y89.090 E1.25340
G1 X89.025 Y89.090 E1.25340
G1 X88.770 Y89.097 E1.25966
G1 X88.166 Y89.241 E1.27490
G1 X88.100 Y89.165 E1.27736
G1 F1800.000 E0.27736
G92 E0
G1 X44.405 Y87.711 F7800.000
G1 F1800.000 E1.00000
G1 X44.307 Y87.870 F900.000 E1.00459
G1 X43.568 Y87.823 E1.02279
G1 X41.246 Y87.945 E1.07987
G1 X40.871 Y87.929 E1.08908
G1 X40.404 Y87.878 E1.10061
G1 X40.649 Y87.450 E1.11272
G1 X41.095 Y86.809 E1.13190
G1 X41.587 Y86.203 E1.15105
G1 X41.587 Y86.203 E1.15105
G1 X42.076 Y85.617 E1.16980
G1 X42.305 Y85.307 E1.17926
G1 X42.685 Y84.680 E1.19725
G1 X42.879 Y84.694 E1.20203
G1 X43.372 Y85.835 E1.23256
G1 X44.330 Y86.348 E1.25924
G1 X43.891 Y86.827 E1.27518
G1 X44.102 Y87.189 E1.28547
G1 X44.102 Y87.189 E1.28547
G1 X44.360 Y87.633 E1.29807
G1 F1800.000 E0.29807
G92 E0
G1 X70.360 Y85.614 F7800.000
G1 F1800.000 E1.00000
G1 X71.027 Y85.113 F900.000 E1.02049
G1 X71.478 Y85.809 E1.04085
G1 X70.482 Y85.923 E1.06546
G1 X70.393 Y85.697 E1.07141
G1 F1800.000 E0.07141
G92 E0
G1 X66.837 Y84.851 F7800.000
G1 F1800.000 E1.00000
G1 X66.681 Y84.941 F900.000 E1.00443
G1 X65.962 Y84.509 E1.02502
G1 X66.020 Y84.233 E1.03193
G1 X66.820 Y84.131 E1.05173
G1 X66.835 Y84.761 E1.06719
G1 F1800.000 E0.06719
G92 E0
G1 X89.236 Y81.722 F7800.000
G1 F1800.000 E1.00000
G1 X89.832 Y81.495 F900.000 E1.01567
G1 X89.792 Y80.670 E1.03594
G1 X89.956 Y80.573 E1.04061
G1 X90.242 Y80.751 E1.04888
G1 X90.242 Y80.751 E1.04888
G1 X90.584 Y80.962 E1.05875
G1 X92.231 Y81.710 E1.10317
G1 X92.583 Y81.906 E1.11306
G1 X92.914 Y82.118 E1.12271
G1 X93.364 Y82.454 E1.13651
G1 X92.669 Y82.811 E1.15571
G1 X92.300 Y82.970 E1.16559
G1 X90.555 Y83.525 E1.21053
G1 X90.555 Y83.525 E1.21053
G1 X90.399 Y83.576 E1.21457
G1 X90.399 Y83.590 E1.21490
G1 X90.188 Y83.676 E1.22051
G1 X89.752 Y83.929 E1.23287
G1 X89.579 Y83.811 E1.23803
G1 X89.778 Y82.478 E1.27112
G1 X89.288 Y81.795 E1.29176
G1 F1800.000 E0.29176
G92 E0
G1 X77.397 Y81.941 F7800.000
G1 F1800.000 E1.00000
G1 X76.873 Y82.980 F900.000 E1.02858
G1 X76.514 Y82.889 E1.03766
G1 X76.544 Y81.879 E1.06248
G1 X77.307 Y81.934 E1.08127
G1 F1800.000 E0.08127
G92 E0
G1 X41.989 Y82.490 F7800.000
G1 F1800.000 E1.00000
G1 X41.862 Y82.625 F900.000 E1.00454
G1 X41.295 Y82.472 E1.01897
G1 X41.295 Y81.718 E1.03749
G1 X41.712 Y81.650 E1.04786
G1 X41.961 Y82.405 E1.06737
G1 X42.020 Y82.584 F7800.000
G1 X40.423 Y82.324 F900.000 E1.10709
G1 X40.423 Y82.324 E1.10709
G1 X39.240 Y82.182 E1.13634
G1 X38.475 Y82.027 E1.15550
G1 X38.003 Y81.888 E1.16759
G1 X38.308 Y81.526 E1.17921
G1 X38.861 Y80.982 E1.19825
G1 X39.607 Y80.353 E1.22220
G1 X39.611 Y80.357 E1.22232
G1 X40.334 Y79.725 E1.24590
G1 X40.764 Y79.251 E1.26160
G1 X40.764 Y79.251 E1.26160
G1 X40.844 Y79.163 E1.26454
G1 X41.028 Y79.210 E1.26921
G1 X41.338 Y80.520 E1.30225
G1 X41.361 Y80.591 E1.30409
G1 X41.361 Y80.591 E1.30409
G1 X41.719 Y81.672 E1.33206
G1 X41.719 Y81.672 E1.33206
G1 X41.992 Y82.498 E1.35342
G1 F1800.000 E0.35342
G92 E0
G1 X62.515 Y80.919 F7800.000
G1 F1800.000 E1.00000
G1 X62.728 Y80.684 F900.000 E1.00779
G1 X63.491 Y81.054 E1.02861
G1 X63.047 Y81.790 E1.04970
G1 X62.562 Y80.995 E1.07257
G1 F1800.000 E0.07257
G92 E0
G1 X76.816 Y78.618 F7800.000
G1 F1800.000 E1.00000
G1 X76.866 Y78.040 F900.000 E1.01424
G1 X76.866 Y78.040 E1.01424
G1 X76.901 Y77.638 E1.02416
G1 X76.901 Y77.638 E1.02416
G1 X76.977 Y76.776 E1.04539
G1 X76.819 Y76.776 E1.04927
G1 X76.614 Y76.009 E1.06875
G1 X76.262 Y75.256 E1.08916
G1 X75.925 Y74.774 E1.10362
G1 X76.308 Y74.456 E1.11585
G1 X77.108 Y75.272 E1.14392
G1 X77.612 Y76.178 E1.16938
G1 X78.045 Y77.191 E1.19644
G1 X78.204 Y78.500 E1.22879
G1 X78.187 Y79.469 E1.25261
G1 X77.886 Y79.554 E1.26030
G1 X77.273 Y78.585 E1.28846
G1 X76.905 Y78.611 E1.29750
G1 F1800.000 E0.29750
G92 E0
G1 X88.819 Y75.309 F7800.000
G1 F1800.000 E1.00000
G1 X88.938 Y75.177 F900.000 E1.00434
G1 X89.317 Y75.264 E1.01390
G1 X89.995 Y75.543 E1.03190
G1 X89.995 Y75.397 E1.03550
G1 X90.089 Y75.405 E1.03779
G1 X90.089 Y75.405 E1.03780
G1 X91.114 Y75.502 E1.06309
G1 X91.502 Y75.559 E1.07271
G1 X91.896 Y75.641 E1.08260
G1 X92.274 Y75.745 E1.09223
G1 X92.779 Y75.925 E1.10538
G1 X92.203 Y76.490 E1.12518
G1 X92.181 Y76.509 E1.12588
G1 X92.181 Y76.509 E1.12588
G1 X92.071 Y76.604 E1.12946
G1 X92.071 Y76.604 E1.12946
G1 X91.897 Y76.752 E1.13507
G1 X90.406 Y77.786 E1.17961
G1 X90.098 Y78.042 E1.18947
G1 X89.776 Y78.398 E1.20125
G1 X89.573 Y78.337 E1.20643
G1 X89.341 Y76.853 E1.24331
G1 X88.848 Y75.394 E1.28113
G1 F1800.000 E0.28113
G92 E0
G1 X40.564 Y76.885 F7800.000
G1 F1800.000 E1.00000
G1 X40.409 Y76.998 F900.000 E1.00470
G1 X39.775 Y76.685 E1.02206
G1 X39.309 Y76.508 E1.03428
G1 X39.018 Y76.421 E1.04176
